!!!!SEGMENT: pl-stab--27c--001-001_nowakiewicz-kazimierz--missa-in-b-kyrie.krn
!!!cenid: 18xx:3450
!!!COM: Nowakiewicz, Kazimierz
!!!COM-rismid: pe30020309
!!!CDT: <1800->1824
!!!CNT: Polish
!!!OPR: Missa in B
!!!OTL: Kyrie
!!!OMV: 001
!!!PDT:
!!!AGN:
!!!SMS-siglum: PL-STAb
!!!SMS-shelfmark: 27c
!!!SMS-shelfwork: 001-001 M
!!!SMS-variant:
!!!SMS-altvar:
!!!NIFC-rismid: 301050705
!!!URL-scan: https://repozytorium.nifc.pl/islandora/object/pl-stab%3A3750/datastream/PDF/view
!!!ONB-nifc: UWAGA: części Mszy: 1. Kyrie, 2. Gloria, 3. Credo, 4. Et incarnatus, 5. Et resurrexit, 6. Sanctus, 7. Pleni sunt, 8. Benedictus, 9. Agnus Dei, 10. Dona nobis
!!!AIN: 1 alto 1 bass 2 clarb 2 cor 1 organ 1 soprn 1 tenor 2 violn
!!!key:
**kern	**fba	**kern	**dynam	**kern	**dynam	**kern	**text	**dynam	**kern	**text	**dynam	**kern	**text	**kern	**text	**dynam	**kern	**kern	**kern	**dynam	**kern	**dynam
*	*	*group4	*	*group4	*	*group3	*	*	*group3	*	*	*group3	*	*group3	*	*	*group2	*group2	*group1	*	*group1	*
*part11	*	*part10	*part10	*part9	*part9	*part8	*part8	*part8	*part7	*part7	*part7	*part6	*part6	*part5	*part5	*part5	*part4	*part3	*part2	*part2	*part1	*part1
*staff11	*	*staff10	*	*staff9	*	*staff8	*staff8	*	*staff7	*staff7	*	*staff6	*staff6	*staff5	*staff5	*	*staff4	*staff3	*staff2	*	*staff1	*
*I"Organo	*	*I"Violino Secundo	*	*I"Violino Primo	*	*I"Baſso	*	*	*I"Tenore	*	*	*I"Alto	*	*I"Canto	*	*	*I"Cornu Secundo in B.	*I"Cornu Primo in B.	*I"Clarinetto 2do in B.	*	*I"Clarinetto Primo in B.	*
*I'org	*	*I'vl 2	*	*I'vl 1	*	*I'B	*	*	*I'T	*	*	*I'A	*	*I'S	*	*	*I'cor 2 in B|b	*I'cor 1 in B|b	*I'cl 2 in B|b	*	*I'cl 1 in B|b	*
*Iorgan	*	*Ivioln	*	*Ivioln	*	*Ibass	*	*	*Itenor	*	*	*Ialto	*	*Isoprn	*	*	*Icor	*Icor	*Iclarb	*	*Iclarb	*
*ICklav	*	*ICstr	*	*ICstr	*	*ICvox	*	*	*ICvox	*	*	*ICvox	*	*ICvox	*	*	*ICbras	*ICbras	*ICww	*	*ICww	*
*IGcont	*	*IGacmp	*	*IGacmp	*	*IGcoro	*	*	*IGcoro	*	*	*IGcoro	*	*IGcoro	*	*	*IGacmp	*IGacmp	*IGacmp	*	*IGacmp	*
*clefF4	*	*clefG2	*	*clefG2	*	*clefF4	*	*	*clefC4	*	*	*clefC3	*	*clefC1	*	*	*clefG2	*clefG2	*clefG2	*	*clefG2	*
*	*	*	*	*	*	*	*	*	*	*	*	*	*	*	*	*	*ITrd1c2	*ITrd1c2	*ITrd1c2	*	*ITrd1c2	*
*k[e-b-]	*	*k[b-e-]	*	*k[e-b-]	*	*k[e-b-]	*	*	*k[e-b-]	*	*	*k[e-b-]	*	*k[b-e-]	*	*	*k[b-e-]	*k[b-e-]	*k[b-e-]	*	*k[b-e-]	*
*B-:	*	*B-:	*	*B-:	*	*B-:	*	*	*B-:	*	*	*B-:	*	*B-:	*	*	*B-:	*B-:	*B-:	*	*B-:	*
*M3/4	*	*M3/4	*	*M3/4	*	*M3/4	*	*	*M3/4	*	*	*M3/4	*	*M3/4	*	*	*M3/4	*M3/4	*M3/4	*	*M3/4	*
=1	=1	=1	=1	=1	=1	=1	=1	=1	=1	=1	=1	=1	=1	=1	=1	=1	=1	=1	=1	=1	=1	=1
*tremolo	*	*	*	*	*	*	*	*	*	*	*	*	*	*	*	*	*	*	*	*	*	*
*2\right	*	*	*	*	*	*	*	*	*	*	*	*	*	*	*	*	*	*	*	*	*	*
!	!	!	!	!	!	!LO:TX:a:t=31	!	!	!LO:TX:a:t=31	!	!	!LO:TX:a:t=31	!	!LO:TX:a:t=31.	!	!	!	!	!	!	!	!
!LO:TX:a:rj:t=allo Moderato	!	!LO:TX:a:rj:t=allo Moderato	!LO:DY:a:t=p	!LO:TX:a:rj:t=allo Moderato	!LO:DY:a	!LO:TX:a:i:t=Allo Moderato	!	!	!LO:TX:a:rj:t=Allo Moderato	!	!	!LO:TX:a:rj:t=Allo Moderato	!	!LO:TX:a:rj:t=allo	!	!LO:DY:a	!LO:TX:a:rj:t=allo Moderato	!LO:TX:a:rj:t=allo Moderato	!LO:TX:a:rj:t=allo Moderato	!	!LO:TX:a:rj:t=allo Moderato	!
8B-\L	.	8d/L	p	4b- 4d/	p	2.r	.	.	2.r	.	.	2.r	.	2.r	.	p	0.r	0.r	0.r	.	0.r	.
8B-\	.	8d/	.	.	.	.	.	.	.	.	.	.	.	.	.	.	.	.	.	.	.	.
8B-\	.	8d/	.	8r	.	.	.	.	.	.	.	.	.	.	.	.	.	.	.	.	.	.
8B-\	.	8d/	.	16b-\LL	.	.	.	.	.	.	.	.	.	.	.	.	.	.	.	.	.	.
.	.	.	.	16a\JJ	.	.	.	.	.	.	.	.	.	.	.	.	.	.	.	.	.	.
8B-\	.	8d/	.	8b-\L	.	.	.	.	.	.	.	.	.	.	.	.	.	.	.	.	.	.
8B-\J	.	8d/J	.	8dd\J	.	.	.	.	.	.	.	.	.	.	.	.	.	.	.	.	.	.
=2	=2	=2	=2	=2	=2	=2	=2	=2	=2	=2	=2	=2	=2	=2	=2	=2	=2	=2	=2	=2	=2	=2
*	*	*tremolo	*	*	*	*	*	*	*	*	*	*	*	*	*	*	*	*	*	*	*	*
8G\L	.	8d/L	.	8cc\L	.	2.r	.	.	2.r	.	.	2.r	.	2.r	.	.	.	.	.	.	.	.
8G\	.	8d/	.	8b-\J	.	.	.	.	.	.	.	.	.	.	.	.	.	.	.	.	.	.
*	*	*	*	*2\right	*	*	*	*	*	*	*	*	*	*	*	*	*	*	*	*	*	*
8G\	.	8d/	.	2b-\	.	.	.	.	.	.	.	.	.	.	.	.	.	.	.	.	.	.
8G\	.	8d/	.	.	.	.	.	.	.	.	.	.	.	.	.	.	.	.	.	.	.	.
8G\	.	8d/	.	.	.	.	.	.	.	.	.	.	.	.	.	.	.	.	.	.	.	.
8G\J	.	8d/J	.	.	.	.	.	.	.	.	.	.	.	.	.	.	.	.	.	.	.	.
=3	=3	=3	=3	=3	=3	=3	=3	=3	=3	=3	=3	=3	=3	=3	=3	=3	=3	=3	=3	=3	=3	=3
8D\L	6	8fL 8d/	.	4b- 4d/	.	2.r	.	.	2.r	.	.	2.r	.	2.r	.	.	.	.	.	.	.	.
8D\	.	8f 8d/	.	.	.	.	.	.	.	.	.	.	.	.	.	.	.	.	.	.	.	.
8D\	.	8f 8d/	.	8r	.	.	.	.	.	.	.	.	.	.	.	.	.	.	.	.	.	.
8D\	.	8f 8d/	.	16b-\LL	.	.	.	.	.	.	.	.	.	.	.	.	.	.	.	.	.	.
.	.	.	.	16a\JJ	.	.	.	.	.	.	.	.	.	.	.	.	.	.	.	.	.	.
8D\	.	8f 8d/	.	8b-\L	.	.	.	.	.	.	.	.	.	.	.	.	.	.	.	.	.	.
8D\J	.	8fJ 8d/	.	8dd\J	.	.	.	.	.	.	.	.	.	.	.	.	.	.	.	.	.	.
=4	=4	=4	=4	=4	=4	=4	=4	=4	=4	=4	=4	=4	=4	=4	=4	=4	=4	=4	=4	=4	=4	=4
8E-\L	.	8a/L	.	8dd\L	.	2.r	.	.	2.r	.	.	2.r	.	2.r	.	.	.	.	.	.	.	.
8E-\	.	8a/	.	8cc\J	.	.	.	.	.	.	.	.	.	.	.	.	.	.	.	.	.	.
8E-\	.	8a/	.	2cc\	.	.	.	.	.	.	.	.	.	.	.	.	.	.	.	.	.	.
8E-\J	.	8a/	.	.	.	.	.	.	.	.	.	.	.	.	.	.	.	.	.	.	.	.
*Xtremolo	*	*	*	*	*	*	*	*	*	*	*	*	*	*	*	*	*	*	*	*	*	*
8En\L	.	8a/	.	.	.	.	.	.	.	.	.	.	.	.	.	.	.	.	.	.	.	.
8E\J	.	8a/J	.	.	.	.	.	.	.	.	.	.	.	.	.	.	.	.	.	.	.	.
*	*	*Xtremolo	*	*	*	*	*	*	*	*	*	*	*	*	*	*	*	*	*	*	*	*
=5	=5	=5	=5	=5	=5	=5	=5	=5	=5	=5	=5	=5	=5	=5	=5	=5	=5	=5	=5	=5	=5	=5
4F\	.	8.a/L	.	8cc\L|	.	2.r	.	.	2.r	.	.	2.r	.	2.r	.	.	0.r	0.r	0.r	.	0.r	.
.	.	.	.	8b-\|	.	.	.	.	.	.	.	.	.	.	.	.	.	.	.	.	.	.
.	.	16g/Jk	.	.	.	.	.	.	.	.	.	.	.	.	.	.	.	.	.	.	.	.
4r	.	8f/	.	8a\|	.	.	.	.	.	.	.	.	.	.	.	.	.	.	.	.	.	.
.	.	4f/	.	8cc\|	.	.	.	.	.	.	.	.	.	.	.	.	.	.	.	.	.	.
4A\	6	.	.	8ff\|	.	.	.	.	.	.	.	.	.	.	.	.	.	.	.	.	.	.
.	5	8f/	.	8ee-\J|	.	.	.	.	.	.	.	.	.	.	.	.	.	.	.	.	.	.
=6	=6	=6	=6	=6	=6	=6	=6	=6	=6	=6	=6	=6	=6	=6	=6	=6	=6	=6	=6	=6	=6	=6
4B-\	.	4f/	.	8ee-\L	.	2.r	.	.	2.r	.	.	2.r	.	2.r	.	.	.	.	.	.	.	.
.	.	.	.	8dd\J	.	.	.	.	.	.	.	.	.	.	.	.	.	.	.	.	.	.
4r	.	4r	.	8dd\L	.	.	.	.	.	.	.	.	.	.	.	.	.	.	.	.	.	.
.	.	.	.	8dd\	.	.	.	.	.	.	.	.	.	.	.	.	.	.	.	.	.	.
4A\	6	4f/	.	8cc\	.	.	.	.	.	.	.	.	.	.	.	.	.	.	.	.	.	.
.	.	.	.	8ff\J	.	.	.	.	.	.	.	.	.	.	.	.	.	.	.	.	.	.
=7	=7	=7	=7	=7	=7	=7	=7	=7	=7	=7	=7	=7	=7	=7	=7	=7	=7	=7	=7	=7	=7	=7
4B-\	.	4f/	.	(8ee-\L	.	2.r	.	.	2.r	.	.	2.r	.	2.r	.	.	.	.	.	.	.	.
.	.	.	.	8dd\J)	.	.	.	.	.	.	.	.	.	.	.	.	.	.	.	.	.	.
!	!	!	!	!LO:LB:g=original	!	!	!	!	!	!	!	!	!	!	!	!	!	!	!	!	!	!
4r	.	4r	.	8dd\L|	.	.	.	.	.	.	.	.	.	.	.	.	.	.	.	.	.	.
.	.	.	.	8dd\|	.	.	.	.	.	.	.	.	.	.	.	.	.	.	.	.	.	.
4F#X\	6	4a 4d/	.	(8dd\	.	.	.	.	.	.	.	.	.	.	.	.	.	.	.	.	.	.
.	5	.	.	8cc\J)	.	.	.	.	.	.	.	.	.	.	.	.	.	.	.	.	.	.
=8	=8	=8	=8	=8	=8	=8	=8	=8	=8	=8	=8	=8	=8	=8	=8	=8	=8	=8	=8	=8	=8	=8
4G\	.	4b- 4d/	.	8cc\L	.	2.r	.	.	2.r	.	.	2.r	.	2.r	.	.	.	.	.	.	.	.
.	.	.	.	8b-\J	.	.	.	.	.	.	.	.	.	.	.	.	.	.	.	.	.	.
4r	.	4r	.	8b-\L	.	.	.	.	.	.	.	.	.	.	.	.	.	.	.	.	.	.
.	.	.	.	8b-\J	.	.	.	.	.	.	.	.	.	.	.	.	.	.	.	.	.	.
4D\	6	4f 4B-/	.	8b-\L	.	.	.	.	.	.	.	.	.	.	.	.	.	.	.	.	.	.
.	5	.	.	8a-X\J	.	.	.	.	.	.	.	.	.	.	.	.	.	.	.	.	.	.
!	!	!LO:LB:g=original	!	!	!	!	!	!	!	!	!	!	!	!	!	!	!	!	!	!	!	!
=9	=9	=9	=9	=9	=9	=9	=9	=9	=9	=9	=9	=9	=9	=9	=9	=9	=9	=9	=9	=9	=9	=9
!	!	!	!	!LO:TX:a:t=P:problem=mixed beam	!	!	!	!	!	!	!	!	!	!	!	!	!	!	!	!	!	!
4E-\	.	4g/	.	8g/L	.	2.r	.	.	2.r	.	.	2.r	.	2.r	.	.	1.r	1.r	1.r	.	1.r	.
.	.	.	.	8gg\	.	.	.	.	.	.	.	.	.	.	.	.	.	.	.	.	.	.
4r	.	4r	.	8ff\	.	.	.	.	.	.	.	.	.	.	.	.	.	.	.	.	.	.
.	.	.	.	8ee-\	.	.	.	.	.	.	.	.	.	.	.	.	.	.	.	.	.	.
4r	.	4r	.	8dd\	.	.	.	.	.	.	.	.	.	.	.	.	.	.	.	.	.	.
.	.	.	.	8cc\J	.	.	.	.	.	.	.	.	.	.	.	.	.	.	.	.	.	.
!LO:LB:g=original	!	!	!	!	!	!	!	!	!	!	!	!	!	!	!	!	!	!	!	!	!	!
=10	=10	=10	=10	=10	=10	=10	=10	=10	=10	=10	=10	=10	=10	=10	=10	=10	=10	=10	=10	=10	=10	=10
4F\	7	4e-/	.	8b-/L	.	2.r	.	.	2.r	.	.	2.r	.	2.r	.	.	.	.	.	.	.	.
.	.	.	.	8an/J	.	.	.	.	.	.	.	.	.	.	.	.	.	.	.	.	.	.
4r	.	4r	.	8g/L	.	.	.	.	.	.	.	.	.	.	.	.	.	.	.	.	.	.
.	.	.	.	8f/	.	.	.	.	.	.	.	.	.	.	.	.	.	.	.	.	.	.
4r	.	4r	.	8g/	.	.	.	.	.	.	.	.	.	.	.	.	.	.	.	.	.	.
.	.	.	.	8a/J	.	.	.	.	.	.	.	.	.	.	.	.	.	.	.	.	.	.
=11	=11	=11	=11	=11	=11	=11	=11	=11	=11	=11	=11	=11	=11	=11	=11	=11	=11	=11	=11	=11	=11	=11
*	*	*tremolo	*	*	*	*	*	*	*	*	*	*	*	*	*	*	*	*	*2\right	*	*2\right	*
!	!	!	!	!	!LO:DY:a:rj	!	!	!	!	!	!	!	!	!	!	!	!	!	!	!LO:DY:a:rj	!	!LO:DY:a:rj
8BB-/L	.	16f/LL	.	4b- 4d/	f	2.r	.	.	2.r	.	.	2.r	.	2.r	.	.	8b-\L	8dd\L	2.b-\	f	2.dd\	f
.	.	16f/	.	.	.	.	.	.	.	.	.	.	.	.	.	.	.	.	.	.	.	.
8D/J	.	16f/	.	.	.	.	.	.	.	.	.	.	.	.	.	.	8b-\J	8dd\J	.	.	.	.
.	.	16f/	.	.	.	.	.	.	.	.	.	.	.	.	.	.	.	.	.	.	.	.
*tremolo	*	*	*	*	*	*	*	*	*	*	*	*	*	*	*	*	*	*	*	*	*	*
8D\L	6	16f/	.	8r	.	.	.	.	.	.	.	.	.	.	.	.	4b-\	4dd\	.	.	.	.
.	.	16f/	.	.	.	.	.	.	.	.	.	.	.	.	.	.	.	.	.	.	.	.
8D\	.	16f/	.	16bb-\LL	.	.	.	.	.	.	.	.	.	.	.	.	.	.	.	.	.	.
.	.	16f/	.	16aa\JJ	.	.	.	.	.	.	.	.	.	.	.	.	.	.	.	.	.	.
8D\	.	16f/	.	8bb-\L	.	.	.	.	.	.	.	.	.	.	.	.	4r	4r	.	.	.	.
.	.	16f/	.	.	.	.	.	.	.	.	.	.	.	.	.	.	.	.	.	.	.	.
8D\J	.	16f/	.	8dd\J	.	.	.	.	.	.	.	.	.	.	.	.	.	.	.	.	.	.
.	.	16f/JJ	.	.	.	.	.	.	.	.	.	.	.	.	.	.	.	.	.	.	.	.
=12	=12	=12	=12	=12	=12	=12	=12	=12	=12	=12	=12	=12	=12	=12	=12	=12	=12	=12	=12	=12	=12	=12
8E-\L	6 5	16g/LL	.	8dd\L	.	2.r	.	.	2.r	.	.	2.r	.	2.r	.	.	8b-\L	8cc\L	2.g/	.	2.cc\	.
.	.	16g/	.	.	.	.	.	.	.	.	.	.	.	.	.	.	.	.	.	.	.	.
8E-\	.	16g/	.	8cc\J	.	.	.	.	.	.	.	.	.	.	.	.	8b-\J	8cc\J	.	.	.	.
.	.	16g/	.	.	.	.	.	.	.	.	.	.	.	.	.	.	.	.	.	.	.	.
8E-\	.	16g/	.	2cc\	.	.	.	.	.	.	.	.	.	.	.	.	4b-\	4cc\	.	.	.	.
.	.	16g/	.	.	.	.	.	.	.	.	.	.	.	.	.	.	.	.	.	.	.	.
8E-\	.	16g/	.	.	.	.	.	.	.	.	.	.	.	.	.	.	.	.	.	.	.	.
.	.	16g/	.	.	.	.	.	.	.	.	.	.	.	.	.	.	.	.	.	.	.	.
8E-\	.	16g/	.	.	.	.	.	.	.	.	.	.	.	.	.	.	4r	4r	.	.	.	.
.	.	16g/	.	.	.	.	.	.	.	.	.	.	.	.	.	.	.	.	.	.	.	.
8E-\J	.	16g/	.	.	.	.	.	.	.	.	.	.	.	.	.	.	.	.	.	.	.	.
.	.	16g/JJ	.	.	.	.	.	.	.	.	.	.	.	.	.	.	.	.	.	.	.	.
=13	=13	=13	=13	=13	=13	=13	=13	=13	=13	=13	=13	=13	=13	=13	=13	=13	=13	=13	=13	=13	=13	=13
8F\L	7	16a/LL	.	4ee-\	.	2.r	.	.	2.r	.	.	2.r	.	2.r	.	.	8f/L	8cc\L	2.cc\	.	2.ee-\	.
.	.	16a/	.	.	.	.	.	.	.	.	.	.	.	.	.	.	.	.	.	.	.	.
8F\	.	16a/	.	.	.	.	.	.	.	.	.	.	.	.	.	.	8f/J	8cc\J	.	.	.	.
.	.	16a/	.	.	.	.	.	.	.	.	.	.	.	.	.	.	.	.	.	.	.	.
8F\	.	16a/	.	8r	.	.	.	.	.	.	.	.	.	.	.	.	4f/	4cc\	.	.	.	.
.	.	16a/	.	.	.	.	.	.	.	.	.	.	.	.	.	.	.	.	.	.	.	.
8F\	.	16a/	.	16ee-\LL	.	.	.	.	.	.	.	.	.	.	.	.	.	.	.	.	.	.
.	.	16a/	.	16dd\JJ	.	.	.	.	.	.	.	.	.	.	.	.	.	.	.	.	.	.
8F\	.	16a/	.	8ee-\L	.	.	.	.	.	.	.	.	.	.	.	.	4r	4r	.	.	.	.
.	.	16a/	.	.	.	.	.	.	.	.	.	.	.	.	.	.	.	.	.	.	.	.
8F\J	.	16a/	.	8ff\J	.	.	.	.	.	.	.	.	.	.	.	.	.	.	.	.	.	.
.	.	16a/JJ	.	.	.	.	.	.	.	.	.	.	.	.	.	.	.	.	.	.	.	.
=14	=14	=14	=14	=14	=14	=14	=14	=14	=14	=14	=14	=14	=14	=14	=14	=14	=14	=14	=14	=14	=14	=14
*	*	*2\right	*	*	*	*	*	*	*	*	*	*	*	*	*	*	*	*	*	*	*	*
8G\L	.	16b-\LL	.	8ee-\L	.	2.r	.	.	2.r	.	.	2.r	.	2.r	.	.	8b-\L	8dd\L	2.b-\	.	2dd\	.
.	.	16b-\	.	.	.	.	.	.	.	.	.	.	.	.	.	.	.	.	.	.	.	.
8G\	.	16b-\	.	8dd\J	.	.	.	.	.	.	.	.	.	.	.	.	8b-\J	8dd\J	.	.	.	.
.	.	16b-\	.	.	.	.	.	.	.	.	.	.	.	.	.	.	.	.	.	.	.	.
8G\	.	16b-\	.	2dd\	.	.	.	.	.	.	.	.	.	.	.	.	4b-\	4dd\	.	.	.	.
.	.	16b-\	.	.	.	.	.	.	.	.	.	.	.	.	.	.	.	.	.	.	.	.
8G\	.	16b-\	.	.	.	.	.	.	.	.	.	.	.	.	.	.	.	.	.	.	.	.
.	.	16b-\	.	.	.	.	.	.	.	.	.	.	.	.	.	.	.	.	.	.	.	.
8G\	.	16b-\	.	.	.	.	.	.	.	.	.	.	.	.	.	.	4r	4r	.	.	8dd\L	.
.	.	16b-\	.	.	.	.	.	.	.	.	.	.	.	.	.	.	.	.	.	.	.	.
8G\J	.	16b-\	.	.	.	.	.	.	.	.	.	.	.	.	.	.	.	.	.	.	8ee-\J	.
.	.	16b-\JJ	.	.	.	.	.	.	.	.	.	.	.	.	.	.	.	.	.	.	.	.
!	!	!	!	!LO:LB:g=original	!	!	!	!	!	!	!	!	!	!	!	!	!	!	!	!	!	!
=15	=15	=15	=15	=15	=15	=15	=15	=15	=15	=15	=15	=15	=15	=15	=15	=15	=15	=15	=15	=15	=15	=15
8D\L	6	16b-\LL	.	4bb- 4b-\	.	2.r	.	.	2.r	.	.	2.r	.	2.r	.	.	4b-\	4b-\	4b-\	.	4ff\	.
.	.	16b-\	.	.	.	.	.	.	.	.	.	.	.	.	.	.	.	.	.	.	.	.
8D\	.	16b-\	.	.	.	.	.	.	.	.	.	.	.	.	.	.	.	.	.	.	.	.
.	.	16b-\	.	.	.	.	.	.	.	.	.	.	.	.	.	.	.	.	.	.	.	.
8D\	.	16b-\	.	8r	.	.	.	.	.	.	.	.	.	.	.	.	4b-\	4b-\	4r	.	4r	.
.	.	16b-\	.	.	.	.	.	.	.	.	.	.	.	.	.	.	.	.	.	.	.	.
8D\	.	16b-\	.	16ff\LL	.	.	.	.	.	.	.	.	.	.	.	.	.	.	.	.	.	.
.	.	16b-\	.	16gg\JJ	.	.	.	.	.	.	.	.	.	.	.	.	.	.	.	.	.	.
8D\	.	16b-\	.	8ff\L	.	.	.	.	.	.	.	.	.	.	.	.	4r	4r	4r	.	4r	.
.	.	16b-\	.	.	.	.	.	.	.	.	.	.	.	.	.	.	.	.	.	.	.	.
8D\J	.	16b-\	.	8aa-X\J	.	.	.	.	.	.	.	.	.	.	.	.	.	.	.	.	.	.
.	.	16b-\JJ	.	.	.	.	.	.	.	.	.	.	.	.	.	.	.	.	.	.	.	.
*Xtremolo	*	*Xtremolo	*	*	*	*	*	*	*	*	*	*	*	*	*	*	*	*	*	*	*	*
=16	=16	=16	=16	=16	=16	=16	=16	=16	=16	=16	=16	=16	=16	=16	=16	=16	=16	=16	=16	=16	=16	=16
4E-\	.	4b-\	.	8ff#X\L	.	2.r	.	.	2.r	.	.	2.r	.	2.r	.	.	2.r	2.r	4b-\	.	4gg\	.
.	.	.	.	8gg\	.	.	.	.	.	.	.	.	.	.	.	.	.	.	.	.	.	.
4r	.	4r	.	8dd\	.	.	.	.	.	.	.	.	.	.	.	.	.	.	4r	.	4r	.
.	.	.	.	8ee-\J	.	.	.	.	.	.	.	.	.	.	.	.	.	.	.	.	.	.
4E-\	6	4g/	.	16bn\LL	.	.	.	.	.	.	.	.	.	.	.	.	.	.	4r	.	4r	.
.	.	.	.	16cc\	.	.	.	.	.	.	.	.	.	.	.	.	.	.	.	.	.	.
.	5	.	.	16ee-\	.	.	.	.	.	.	.	.	.	.	.	.	.	.	.	.	.	.
.	.	.	.	16cc\JJ	.	.	.	.	.	.	.	.	.	.	.	.	.	.	.	.	.	.
=17	=17	=17	=17	=17	=17	=17	=17	=17	=17	=17	=17	=17	=17	=17	=17	=17	=17	=17	=17	=17	=17	=17
!	!	!	!	!	!LO:DY:a	!	!	!	!	!	!	!	!	!	!	!	!	!	!	!	!	!
4F\	4	4d/	.	4b-/	p	2.r	.	.	2.r	.	.	2.r	.	2.r	.	.	4b-\	4dd\	4dd\	.	4bb-\	.
4FF/	3	8c/L	.	8a/L	.	.	.	.	.	.	.	.	.	.	.	.	4f/	4cc\	4cc\	.	4aa\	.
.	.	8f/	.	8f/	.	.	.	.	.	.	.	.	.	.	.	.	.	.	.	.	.	.
4r	.	8f/	.	8f/	.	.	.	.	.	.	.	.	.	.	.	.	4r	4r	4r	.	4r	.
.	.	8f/J	.	8f/J	.	.	.	.	.	.	.	.	.	.	.	.	.	.	.	.	.	.
=18	=18	=18	=18	=18	=18	=18	=18	=18	=18	=18	=18	=18	=18	=18	=18	=18	=18	=18	=18	=18	=18	=18
!	!	!	!	!	!	!	!	!	!	!	!	!	!	!	!	!	!	!	!LO:TX:a:t=Solo	!	!LO:TX:a:rj:t=Solo	!
0.r	.	4c/	.	4f/	.	2.r	.	.	2.r	.	.	2.r	.	2.r	.	.	0.r	0.r	8.a\L	.	8.cc\L	.
.	.	.	.	.	.	.	.	.	.	.	.	.	.	.	.	.	.	.	16b-\Jk	.	16dd\Jk	.
.	.	4r	.	4r	.	.	.	.	.	.	.	.	.	.	.	.	.	.	8cc\L	.	8ee-\L	.
.	.	.	.	.	.	.	.	.	.	.	.	.	.	.	.	.	.	.	8cc\J	.	8ee-\	.
.	.	4c/	.	4f/	.	.	.	.	.	.	.	.	.	.	.	.	.	.	4cc\	.	8ee-\	.
.	.	.	.	.	.	.	.	.	.	.	.	.	.	.	.	.	.	.	.	.	8ff\J	.
=19	=19	=19	=19	=19	=19	=19	=19	=19	=19	=19	=19	=19	=19	=19	=19	=19	=19	=19	=19	=19	=19	=19
.	.	4d/	.	4f/	.	2.r	.	.	2.r	.	.	2.r	.	2.r	.	.	.	.	8cc\L	.	8ee-\L	.
.	.	.	.	.	.	.	.	.	.	.	.	.	.	.	.	.	.	.	8b-\J	.	8dd\J	.
.	.	4r	.	4r	.	.	.	.	.	.	.	.	.	.	.	.	.	.	8ee-\L	.	8gg\L	.
.	.	.	.	.	.	.	.	.	.	.	.	.	.	.	.	.	.	.	8dd\	.	8ff\J	.
.	.	4r	.	4f/	.	.	.	.	.	.	.	.	.	.	.	.	.	.	8dd\	.	8bb-\L	.
.	.	.	.	.	.	.	.	.	.	.	.	.	.	.	.	.	.	.	8ee-\J	.	8gg\J	.
!	!	!	!	!	!	!	!	!	!	!	!	!	!	!	!	!	!	!	!LO:LB:g=original	!	!LO:LB:g=original	!
=20	=20	=20	=20	=20	=20	=20	=20	=20	=20	=20	=20	=20	=20	=20	=20	=20	=20	=20	=20	=20	=20	=20
.	.	4c/	.	4f/	.	2.r	.	.	2.r	.	.	2.r	.	2.r	.	.	.	.	8dd\L	.	8ff\L	.
.	.	.	.	.	.	.	.	.	.	.	.	.	.	.	.	.	.	.	8cc\J	.	8ee-\	.
.	.	4r	.	4r	.	.	.	.	.	.	.	.	.	.	.	.	.	.	8cc\L	.	8ee-\	.
.	.	.	.	.	.	.	.	.	.	.	.	.	.	.	.	.	.	.	8cc\J	.	8ee-\	.
.	.	4c/	.	4f/	.	.	.	.	.	.	.	.	.	.	.	.	.	.	4cc\	.	8ee-\	.
.	.	.	.	.	.	.	.	.	.	.	.	.	.	.	.	.	.	.	.	.	8ff\J	.
!	!	!LO:LB:g=original	!	!	!	!	!	!	!	!	!	!	!	!	!	!	!	!	!	!	!	!
=21	=21	=21	=21	=21	=21	=21	=21	=21	=21	=21	=21	=21	=21	=21	=21	=21	=21	=21	=21	=21	=21	=21
.	.	4d/	.	4f/	.	2.r	.	.	2.r	.	.	2.r	.	2.r	.	.	.	.	8cc\L	.	8ee-\L	.
.	.	.	.	.	.	.	.	.	.	.	.	.	.	.	.	.	.	.	8b-\J	.	8dd\J	.
.	.	4r	.	4r	.	.	.	.	.	.	.	.	.	.	.	.	.	.	8ee-\L	.	8gg\L	.
.	.	.	.	.	.	.	.	.	.	.	.	.	.	.	.	.	.	.	8dd\J	.	8ff\J	.
.	.	4r	.	4r	.	.	.	.	.	.	.	.	.	.	.	.	.	.	4dd\	.	4ff\	.
=22	=22	=22	=22	=22	=22	=22	=22	=22	=22	=22	=22	=22	=22	=22	=22	=22	=22	=22	=22	=22	=22	=22
*tremolo	*	*tremolo	*	*	*	*	*	*	*	*	*	*	*	*	*	*	*	*	*	*	*	*
!	!	!	!LO:DY:a:t=for.	!	!LO:DY:a:rj	!	!	!	!	!	!	!	!	!	!	!	!	!	!	!	!	!
8E-\L	6	16g/LL	f	8ff#X\L	f	2.r	.	.	2.r	.	.	2.r	.	2.r	.	.	1.r	1.r	2.r	.	2.r	.
.	.	16g/	.	.	.	.	.	.	.	.	.	.	.	.	.	.	.	.	.	.	.	.
8E-\	.	16g/	.	8gg\J	.	.	.	.	.	.	.	.	.	.	.	.	.	.	.	.	.	.
.	.	16g/	.	.	.	.	.	.	.	.	.	.	.	.	.	.	.	.	.	.	.	.
8E-\	.	16g/	.	4.gg\	.	.	.	.	.	.	.	.	.	.	.	.	.	.	.	.	.	.
.	.	16g/	.	.	.	.	.	.	.	.	.	.	.	.	.	.	.	.	.	.	.	.
8E-\	.	16g/	.	.	.	.	.	.	.	.	.	.	.	.	.	.	.	.	.	.	.	.
.	.	16g/	.	.	.	.	.	.	.	.	.	.	.	.	.	.	.	.	.	.	.	.
8E-\	.	16g/	.	.	.	.	.	.	.	.	.	.	.	.	.	.	.	.	.	.	.	.
.	.	16g/	.	.	.	.	.	.	.	.	.	.	.	.	.	.	.	.	.	.	.	.
8E-\J	.	16g/	.	8ee-\	.	.	.	.	.	.	.	.	.	.	.	.	.	.	.	.	.	.
.	.	16g/JJ	.	.	.	.	.	.	.	.	.	.	.	.	.	.	.	.	.	.	.	.
!	!	!	!	!LO:LB:g=original	!	!	!	!	!	!	!	!	!	!	!	!	!	!	!	!	!	!
=23	=23	=23	=23	=23	=23	=23	=23	=23	=23	=23	=23	=23	=23	=23	=23	=23	=23	=23	=23	=23	=23	=23
8E-\L	.	16g/LL	.	8dd\L	.	2.r	.	.	2.r	.	.	2.r	.	2.r	.	.	.	.	4r	.	4r	.
.	.	16g/	.	.	.	.	.	.	.	.	.	.	.	.	.	.	.	.	.	.	.	.
8E-\	.	16g/	.	8cc\J	.	.	.	.	.	.	.	.	.	.	.	.	.	.	.	.	.	.
.	.	16g/	.	.	.	.	.	.	.	.	.	.	.	.	.	.	.	.	.	.	.	.
8E-\	.	16g/	.	4.cc\	.	.	.	.	.	.	.	.	.	.	.	.	.	.	4r	.	4r	.
.	.	16g/	.	.	.	.	.	.	.	.	.	.	.	.	.	.	.	.	.	.	.	.
8E-\	.	16g/	.	.	.	.	.	.	.	.	.	.	.	.	.	.	.	.	.	.	.	.
.	.	16g/	.	.	.	.	.	.	.	.	.	.	.	.	.	.	.	.	.	.	.	.
8E-\	.	16g/	.	.	.	.	.	.	.	.	.	.	.	.	.	.	.	.	4ee-\	.	4gg\	.
.	.	16g/	.	.	.	.	.	.	.	.	.	.	.	.	.	.	.	.	.	.	.	.
8E-\J	.	16g/	.	8gg\	.	.	.	.	.	.	.	.	.	.	.	.	.	.	.	.	.	.
.	.	16g/JJ	.	.	.	.	.	.	.	.	.	.	.	.	.	.	.	.	.	.	.	.
*Xtremolo	*	*Xtremolo	*	*	*	*	*	*	*	*	*	*	*	*	*	*	*	*	*	*	*	*
=24	=24	=24	=24	=24	=24	=24	=24	=24	=24	=24	=24	=24	=24	=24	=24	=24	=24	=24	=24	=24	=24	=24
4D\	6	4b-\	.	8een\L	.	2.r	.	.	2.r	.	.	2.r	.	2.r	.	.	4B-/	4b-\	4dd\	.	4ff\	.
.	.	.	.	8ff\J	.	.	.	.	.	.	.	.	.	.	.	.	.	.	.	.	.	.
4r	.	4r	.	16bb-\LL	.	.	.	.	.	.	.	.	.	.	.	.	4r	4r	4r	.	4r	.
.	.	.	.	16aa\	.	.	.	.	.	.	.	.	.	.	.	.	.	.	.	.	.	.
.	.	.	.	16gg\	.	.	.	.	.	.	.	.	.	.	.	.	.	.	.	.	.	.
.	.	.	.	16ff\JJ	.	.	.	.	.	.	.	.	.	.	.	.	.	.	.	.	.	.
4D\	.	4b-\	.	16ee-X\LL	.	.	.	.	.	.	.	.	.	.	.	.	4B-/	4b-\	4dd\	.	4bb-\	.
.	.	.	.	16dd\	.	.	.	.	.	.	.	.	.	.	.	.	.	.	.	.	.	.
.	.	.	.	16cc\	.	.	.	.	.	.	.	.	.	.	.	.	.	.	.	.	.	.
.	.	.	.	16b-\JJ	.	.	.	.	.	.	.	.	.	.	.	.	.	.	.	.	.	.
!LO:LB:g=original	!	!	!	!	!	!	!	!	!	!	!	!	!	!	!	!	!	!	!	!	!	!
=25	=25	=25	=25	=25	=25	=25	=25	=25	=25	=25	=25	=25	=25	=25	=25	=25	=25	=25	=25	=25	=25	=25
.	.	.	.	.	.	.	.	.	.	.	.	.	.	.	.	.	.	.	.	.	8qqaa/	.
4E-\	6	8ee-\L	.	8gg\L	.	2.r	.	.	2.r	.	.	2.r	.	2.r	.	.	4B-/	4b-\	8ee-\L	.	8gg\L	.
.	.	16dd\L	.	16ff\L	.	.	.	.	.	.	.	.	.	.	.	.	.	.	16dd\L	.	16ff\L	.
.	.	16cc\JJ	.	16ee-\JJ	.	.	.	.	.	.	.	.	.	.	.	.	.	.	16cc\JJ	.	16ee-\JJ	.
4F\	4	4b-\	.	4dd\	.	.	.	.	.	.	.	.	.	.	.	.	4b-\	4dd\	4b-\	.	4dd\	.
4FF/	3	4a\	.	4cc\	.	.	.	.	.	.	.	.	.	.	.	.	4d/	4cc\	4a\	.	4cc\	.
=26	=26	=26	=26	=26	=26	=26	=26	=26	=26	=26	=26	=26	=26	=26	=26	=26	=26	=26	=26	=26	=26	=26
4BB-/	.	4b-\	.	4b-\	.	2.r	.	.	2.r	.	.	2.r	.	2.r	.	.	4c/	4b-\	4b-\	.	4dd\	.
4r	.	4r	.	16b-\LL	.	.	.	.	.	.	.	.	.	.	.	.	4r	4r	4r	.	4r	.
.	.	.	.	16cc\	.	.	.	.	.	.	.	.	.	.	.	.	.	.	.	.	.	.
.	.	.	.	16dd\	.	.	.	.	.	.	.	.	.	.	.	.	.	.	.	.	.	.
.	.	.	.	16ee-\JJ	.	.	.	.	.	.	.	.	.	.	.	.	.	.	.	.	.	.
4D\	6	4b-\	.	16ff\LL	.	.	.	.	.	.	.	.	.	.	.	.	4c/	4b-\	4b-\	.	4bb-\	.
.	.	.	.	16gg\	.	.	.	.	.	.	.	.	.	.	.	.	.	.	.	.	.	.
.	.	.	.	16aa\	.	.	.	.	.	.	.	.	.	.	.	.	.	.	.	.	.	.
.	.	.	.	16bb-\JJ	.	.	.	.	.	.	.	.	.	.	.	.	.	.	.	.	.	.
!	!	!	!	!	!	!	!	!	!	!	!	!	!	!	!	!	!	!LO:LB:g=original	!	!	!	!
=27	=27	=27	=27	=27	=27	=27	=27	=27	=27	=27	=27	=27	=27	=27	=27	=27	=27	=27	=27	=27	=27	=27
4E-\	6	2b-\	.	16aa\LL	.	2.r	.	.	2.r	.	.	2.r	.	2.r	.	.	4B-/	4b-\	8ee-\L	.	8gg\L	.
.	.	.	.	16gg\	.	.	.	.	.	.	.	.	.	.	.	.	.	.	.	.	.	.
.	.	.	.	16ff\	.	.	.	.	.	.	.	.	.	.	.	.	.	.	16dd\L	.	16ff\L	.
.	.	.	.	16ee-\JJ	.	.	.	.	.	.	.	.	.	.	.	.	.	.	16cc\JJ	.	16ee-\JJ	.
4F\	4	.	.	4dd\	.	.	.	.	.	.	.	.	.	.	.	.	4b-\	4dd\	4b-\	.	4dd\	.
4FF/	3	8a/L	.	4cc\	.	.	.	.	.	.	.	.	.	.	.	.	4f/	4cc\	4a\	.	4cc\	.
.	.	8a/J	.	.	.	.	.	.	.	.	.	.	.	.	.	.	.	.	.	.	.	.
!	!	!	!	!	!	!	!	!	!	!	!	!	!	!	!	!	!LO:LB:g=original	!	!	!	!	!
=28	=28	=28	=28	=28	=28	=28	=28	=28	=28	=28	=28	=28	=28	=28	=28	=28	=28	=28	=28	=28	=28	=28
!	!	!	!LO:DY:b	!	!	!	!	!	!	!	!	!	!	!	!	!	!	!	!	!	!	!
4BB-/	.	8b-/L	p	4b-\	.	2.r	.	.	2.r	.	.	2.r	.	2.r	.	.	4e-/	4b-\	4b-\	.	4b-\	.
.	.	8f/	.	.	.	.	.	.	.	.	.	.	.	.	.	.	.	.	.	.	.	.
4r	.	8f/	.	4r	.	.	.	.	.	.	.	.	.	.	.	.	4e-/	4b-\	4dd\	.	4ff\	.
.	.	8f/	.	.	.	.	.	.	.	.	.	.	.	.	.	.	.	.	.	.	.	.
4F\	5 3	8f/	.	4a/	.	.	.	.	.	.	.	.	.	.	.	.	4f/	4cc\	4cc\	.	4aa\	.
.	.	8f/J	.	.	.	.	.	.	.	.	.	.	.	.	.	.	.	.	.	.	.	.
=29	=29	=29	=29	=29	=29	=29	=29	=29	=29	=29	=29	=29	=29	=29	=29	=29	=29	=29	=29	=29	=29	=29
4B-\	.	8f/L	.	4b-\	.	2.r	.	.	2.r	.	.	2.r	.	2.r	.	.	8b-\L	8dd\L	4dd\	.	4bb-\	.
.	.	8f/	.	.	.	.	.	.	.	.	.	.	.	.	.	.	8cc\J	8ee-\J	.	.	.	.
4r	.	8f/	.	4r	.	.	.	.	.	.	.	.	.	.	.	.	4b-\	4dd\	4dd\	.	4ff\	.
.	.	8f/	.	.	.	.	.	.	.	.	.	.	.	.	.	.	.	.	.	.	.	.
4F\	.	8f/	.	4cc\	.	.	.	.	.	.	.	.	.	.	.	.	4f\	4cc\	4cc\	.	4aa\	.
.	.	8f/J	.	.	.	.	.	.	.	.	.	.	.	.	.	.	.	.	.	.	.	.
!	!	!	!	!	!	!	!	!	!	!	!	!	!	!	!	!	!	!	!LO:LB:g=original	!	!	!
=30	=30	=30	=30	=30	=30	=30	=30	=30	=30	=30	=30	=30	=30	=30	=30	=30	=30	=30	=30	=30	=30	=30
!	!	!	!LO:DY:a:t=for.	!	!LO:DY:a:rj:t=for.	!	!	!	!	!	!	!	!	!	!	!	!	!	!	!	!	!
4B-\	.	4f/	f	4b-\	f	2.r	.	.	2.r	.	.	2.r	.	2.r	.	.	4f/	4b-\	4dd\	.	4bb-\	.
4F\	.	4dd\	.	4bb- 4b- 4d\	.	.	.	.	.	.	.	.	.	.	.	.	4f/	4b-\	4dd\	.	4bb-\	.
4D\	.	4dd\	.	4bb- 4b- 4d\	.	.	.	.	.	.	.	.	.	.	.	.	4f/	4b-\	4dd\	.	4bb-\	.
!	!	!LO:LB:g=original	!	!LO:LB:g=original	!	!	!	!	!	!	!	!	!	!	!	!	!	!	!	!	!LO:LB:g=original	!
=31	=31	=31	=31	=31	=31	=31	=31	=31	=31	=31	=31	=31	=31	=31	=31	=31	=31	=31	=31	=31	=31	=31
*	*	*	*	*	*	*	*	*	*	*	*	*	*	*	*	*	*	*2\right	*	*	*	*
4BB-/	.	2dd\	.	2bb- 2b- 2d\	.	2.r	.	.	2.r	.	.	2.r	.	2.r	.	.	2g/	2b-\	2dd\	.	2bb-\	.
4BB-/	.	.	.	.	.	.	.	.	.	.	.	.	.	.	.	.	.	.	.	.	.	.
4r	.	4r	.	4r	.	.	.	.	.	.	.	.	.	.	.	.	4r	4r	4r	.	4r	.
=32	=32	=32	=32	=32	=32	=32	=32	=32	=32	=32	=32	=32	=32	=32	=32	=32	=32	=32	=32	=32	=32	=32
*tremolo	*	*tremolo	*	*	*	*	*	*	*	*	*	*	*	*	*	*	*	*	*	*	*	*
!	!	!	!LO:DY:a	!	!LO:DY:a	!	!	!LO:DY:a:rj	!	!	!LO:DY:a:rj	!	!	!	!	!	!	!	!	!	!	!
8B-\L	.	8d/L	p	4b-\	p	8B-\	Ky-	p	8d\	Ki-	p	8f\	Ki-	8b-\	Ki-	.	0.r	0.r	0.r	.	0.r	.
8B-\	.	8d/	.	.	.	8B-\	-ri-	.	8d\	-ri-	.	8f\	-ry-	8b-\	-ry-	.	.	.	.	.	.	.
8B-\	.	8d/	.	8r	.	4B-\	-e	.	4d\	-e	.	4f\	-e	4b-\	-e	.	.	.	.	.	.	.
8B-\	.	8d/	.	16b-\LL	.	.	.	.	.	.	.	.	.	.	.	.	.	.	.	.	.	.
.	.	.	.	16a\JJ	.	.	.	.	.	.	.	.	.	.	.	.	.	.	.	.	.	.
8B-\	.	8d/	.	8b-\L	.	8r	.	.	8r	.	.	8r	.	8r	.	.	.	.	.	.	.	.
8B-\J	.	8d/J	.	8dd\J	.	8B-\	e-	.	8d\	e-	.	8f\	e-	8dd\	e-	.	.	.	.	.	.	.
=33	=33	=33	=33	=33	=33	=33	=33	=33	=33	=33	=33	=33	=33	=33	=33	=33	=33	=33	=33	=33	=33	=33
8G\L	5	8d/L	.	8cc\L	.	4G\	-lei-	.	4d\	-lei-	.	4g\	-lei-	8cc\L	-lei-	.	.	.	.	.	.	.
8G\	.	8d/	.	8b-\J	.	.	.	.	.	.	.	.	.	8b-\J	.	.	.	.	.	.	.	.
*	*	*	*	*	*	*2\right	*	*	*2\right	*	*	*2\right	*	*2\right	*	*	*	*	*	*	*	*
8G\	.	8d/	.	2b-\	.	2G\	-son	.	2d\	-son	.	2g\	-son	2b-\	-son	.	.	.	.	.	.	.
8G\	.	8d/	.	.	.	.	.	.	.	.	.	.	.	.	.	.	.	.	.	.	.	.
8G\	.	8d/	.	.	.	.	.	.	.	.	.	.	.	.	.	.	.	.	.	.	.	.
8G\J	.	8d/J	.	.	.	.	.	.	.	.	.	.	.	.	.	.	.	.	.	.	.	.
=34	=34	=34	=34	=34	=34	=34	=34	=34	=34	=34	=34	=34	=34	=34	=34	=34	=34	=34	=34	=34	=34	=34
*	*	*	*	*	*	*	*ij	*	*	*ij	*	*	*ij	*	*ij	*	*	*	*	*	*	*
8D\L	6	8f/L	.	4b-\	.	8D\	Ky-	.	8d\	Ki-	.	8f\	Ki-	8b-\	Ky-	.	.	.	.	.	.	.
8D\	.	8f/	.	.	.	8D\	-ri-	.	8d\	-ri-	.	8f\	-ry-	8b-\	-ri-	.	.	.	.	.	.	.
8D\	.	8f/	.	8r	.	4D\	-e	.	4d\	-e	.	4f\	-e	4b-\	-e	.	.	.	.	.	.	.
8D\	.	8f/	.	16b-\LL	.	.	.	.	.	.	.	.	.	.	.	.	.	.	.	.	.	.
.	.	.	.	16a\JJ	.	.	.	.	.	.	.	.	.	.	.	.	.	.	.	.	.	.
8D\	.	8f/	.	8b-\L	.	8r	.	.	8r	.	.	8r	.	8r	.	.	.	.	.	.	.	.
8D\J	.	8f/J	.	8dd\J	.	8D\	e-	.	8d\	e-	.	8f\	e-	8dd\	e-	.	.	.	.	.	.	.
=35	=35	=35	=35	=35	=35	=35	=35	=35	=35	=35	=35	=35	=35	=35	=35	=35	=35	=35	=35	=35	=35	=35
8E-\L	6	8g/L	.	8dd\L	.	4E-\	-lei-	.	4c\	-lei-	.	4g\	-lei-	8dd\L	-lei-	.	.	.	.	.	.	.
8E-\	.	8g/	.	8cc\J	.	.	.	.	.	.	.	.	.	8cc\J	.	.	.	.	.	.	.	.
8E-\	.	8g/	.	2cc\	.	4E-\	-son	.	2c\	-son	.	2g\	-son	2cc\	-son	.	.	.	.	.	.	.
*	*	*	*	*	*	*	*Xij	*	*	*Xij	*	*	*	*	*Xij	*	*	*	*	*	*	*
8E-\	.	8g/	.	.	.	.	.	.	.	.	.	.	.	.	.	.	.	.	.	.	.	.
8E-\	.	8g/	.	.	.	4r	.	.	.	.	.	.	.	.	.	.	.	.	.	.	.	.
8E-\J	.	8g/J	.	.	.	.	.	.	.	.	.	.	.	.	.	.	.	.	.	.	.	.
*Xtremolo	*	*Xtremolo	*	*	*	*	*	*	*	*	*	*	*	*	*	*	*	*	*	*	*	*
!LO:LB:g=original	!	!	!	!	!	!	!	!	!	!	!	!	!	!	!	!	!	!	!	!	!	!
=36	=36	=36	=36	=36	=36	=36	=36	=36	=36	=36	=36	=36	=36	=36	=36	=36	=36	=36	=36	=36	=36	=36
4E-\	.	8f/	.	8.cc\L	.	4r	.	.	4r	.	.	4r	.	4r	.	.	0.r	0.r	0.r	.	0.r	.
.	.	4f/	.	.	.	.	.	.	.	.	.	.	.	.	.	.	.	.	.	.	.	.
.	.	.	.	16b-\Jk	.	.	.	.	.	.	.	.	.	.	.	.	.	.	.	.	.	.
4r	.	.	.	8a\L	.	8r	.	.	8r	.	.	8r	.	8r	.	.	.	.	.	.	.	.
.	.	4f/	.	8cc\	.	8F\	e-	.	8c\	e-	.	8f\	Ki-	8cc\	e-	.	.	.	.	.	.	.
4A\	6	.	.	8ff\	.	4A\	-lei-	.	4c\	-lei-	.	4f\	-ri-	8ff\L	-lei-	.	.	.	.	.	.	.
.	5	8f/	.	8ee-\J	.	.	.	.	.	.	.	.	.	8ee-\J	.	.	.	.	.	.	.	.
!	!	!	!	!	!	!LO:LB:g=original	!	!	!LO:LB:g=original	!	!	!	!	!LO:LB:g=original	!	!	!	!	!	!	!	!
=37	=37	=37	=37	=37	=37	=37	=37	=37	=37	=37	=37	=37	=37	=37	=37	=37	=37	=37	=37	=37	=37	=37
.	.	.	.	.	.	.	.	.	.	.	.	.	.	8qqee-/	.	.	.	.	.	.	.	.
4B-\	.	8f/	.	8ee-\L	.	4B-\	-son	.	4B-\	-son	.	4f\	-e	4dd\	-son	.	.	.	.	.	.	.
*	*	*	*	*	*	*	*	*	*	*	*	*	*Xij	*	*	*	*	*	*	*	*	*
.	.	4f/	.	8dd\	.	.	.	.	.	.	.	.	.	.	.	.	.	.	.	.	.	.
4r	.	.	.	8dd\	.	4r	.	.	8r	.	.	8r	.	8r	.	.	.	.	.	.	.	.
!	!	!	!	!	!	!	!	!	!	!	!	!LO:LB:g=original	!	!	!	!	!	!	!	!	!	!
*	*	*	*	*	*	*	*ij	*	*	*ij	*	*	*	*	*ij	*	*	*	*	*	*	*
.	.	4f/	.	8dd\J	.	.	.	.	8B-\	e-	.	8f\	e-	8dd\	e-	.	.	.	.	.	.	.
4A\	6	.	.	8cc\L	.	(4A\	son	.	4c\	-lei-	.	4f\	-lei-	8cc\L	-lei-	.	.	.	.	.	.	.
*	*	*	*	*	*	*	*Xij	*	*	*	*	*	*	*	*	*	*	*	*	*	*	*
.	.	8f/	.	8ff\J	.	.	.	.	.	.	.	.	.	8ff\J	.	.	.	.	.	.	.	.
=38	=38	=38	=38	=38	=38	=38	=38	=38	=38	=38	=38	=38	=38	=38	=38	=38	=38	=38	=38	=38	=38	=38
!	!	!	!	!	!	!	!	!	!	!	!	!LO:TX:t=P:problem=niepotrzebnie powtórzony takt	!	!	!	!	!	!	!	!	!	!
2.ryy	.	2.ryy	.	2.ryy	.	2.ryy	.	.	2.ryy	.	.	4f\	-son	2.ryy	.	.	.	.	.	.	.	.
*	*	*	*	*	*	*	*	*	*	*	*	*	*ij	*	*	*	*	*	*	*	*	*
.	.	.	.	.	.	.	.	.	.	.	.	8r	.	.	.	.	.	.	.	.	.	.
.	.	.	.	.	.	.	.	.	.	.	.	8f\	Ki-	.	.	.	.	.	.	.	.	.
.	.	.	.	.	.	.	.	.	.	.	.	4f\	-ri-	.	.	.	.	.	.	.	.	.
=39	=39	=39	=39	=39	=39	=39	=39	=39	=39	=39	=39	=39	=39	=39	=39	=39	=39	=39	=39	=39	=39	=39
.	.	.	.	.	.	.	.	.	.	.	.	.	.	8qqee-/	.	.	.	.	.	.	.	.
4B-\	.	8f/	.	8ee-\L	.	4B-\)	.	.	4B-\	-son	.	4f\	-e	4dd\	-son	.	.	.	.	.	.	.
.	.	4f/	.	8dd\J	.	.	.	.	.	.	.	.	.	.	.	.	.	.	.	.	.	.
4r	.	.	.	8dd\L	.	4r	.	.	8r	.	.	8r	.	8r	.	.	.	.	.	.	.	.
*	*	*	*	*	*	*	*	*	*	*	*	*	*ij	*	*	*	*	*	*	*	*	*
.	.	4d/	.	8dd\	.	.	.	.	8c\	e-	.	8d\	e-	8dd\	e-	.	.	.	.	.	.	.
4F#X\	6	.	.	8dd\	.	4F#X\	e-	.	4c\	-lei-	.	4d\	-lei-	8dd\L	-lei-	.	.	.	.	.	.	.
.	5	8d/	.	8cc\J	.	.	.	.	.	.	.	.	.	8cc\J	.	.	.	.	.	.	.	.
!	!	!	!	!LO:LB:g=original	!	!	!	!	!	!	!	!	!	!	!	!	!	!	!	!	!	!
=40	=40	=40	=40	=40	=40	=40	=40	=40	=40	=40	=40	=40	=40	=40	=40	=40	=40	=40	=40	=40	=40	=40
4G\	.	8d/	.	8cc/L	.	4G\	-lei-	.	4G/	-son	.	4d\	-son	4b-\	-son	.	2.ryy	2.ryy	2.ryy	.	2.ryy	.
*	*	*	*	*	*	*	*	*	*	*	*	*	*Xij	*	*Xij	*	*	*	*	*	*	*
.	.	4d/	.	8b-/	.	.	.	.	.	.	.	.	.	.	.	.	.	.	.	.	.	.
4r	.	.	.	8b-/	.	4r	.	.	8r	.	.	8r	.	8r	.	.	.	.	.	.	.	.
.	.	8d/	.	8b-/J	.	.	.	.	8F/	e-	.	8f\	e-	8b-\	e-	.	.	.	.	.	.	.
4D\	6	8B-/L	.	8b-/L	.	(4D\	-son	.	4F/	-lei-	.	8b-\L	-lei-	4b-\	-lei-	.	.	.	.	.	.	.
.	-5	8B-/J	.	8a-X/J	.	.	.	.	.	.	.	8a-X\J	.	.	.	.	.	.	.	.	.	.
=41	=41	=41	=41	=41	=41	=41	=41	=41	=41	=41	=41	=41	=41	=41	=41	=41	=41	=41	=41	=41	=41	=41
!	!	!	!	!LO:TX:a:t=P:problem=mixed beam	!	!	!	!	!	!	!	!	!	!	!	!	!	!	!	!	!	!
4E-\	.	4B-/	.	8g/L	.	4E-\)	.	.	4E-/	-son	.	4g\	-son	4b-\	son	.	1.r	1.r	1.r	.	1.r	.
*	*	*	*	*	*	*	*	*	*	*Xij	*	*	*	*	*	*	*	*	*	*	*	*
.	.	.	.	8gg\J	.	.	.	.	.	.	.	.	.	.	.	.	.	.	.	.	.	.
4r	.	4r	.	(8ff\L	.	4r	.	.	4r	.	.	4r	.	4r	.	.	.	.	.	.	.	.
.	.	.	.	8ee-\)	.	.	.	.	.	.	.	.	.	.	.	.	.	.	.	.	.	.
4r	.	4r	.	(8dd\	.	4r	.	.	4r	.	.	4r	.	4r	.	.	.	.	.	.	.	.
.	.	.	.	8cc\J)	.	.	.	.	.	.	.	.	.	.	.	.	.	.	.	.	.	.
=42	=42	=42	=42	=42	=42	=42	=42	=42	=42	=42	=42	=42	=42	=42	=42	=42	=42	=42	=42	=42	=42	=42
4F\	7	4e-/	.	8b-/L	.	2.r	.	.	2.r	.	.	2.r	.	2.r	.	.	.	.	.	.	.	.
.	.	.	.	8an/J	.	.	.	.	.	.	.	.	.	.	.	.	.	.	.	.	.	.
4r	.	4r	.	8g/L	.	.	.	.	.	.	.	.	.	.	.	.	.	.	.	.	.	.
.	.	.	.	8f/	.	.	.	.	.	.	.	.	.	.	.	.	.	.	.	.	.	.
4r	.	4r	.	8g/	.	.	.	.	.	.	.	.	.	.	.	.	.	.	.	.	.	.
.	.	.	.	8a/J	.	.	.	.	.	.	.	.	.	.	.	.	.	.	.	.	.	.
!	!	!LO:LB:g=original	!	!	!	!	!	!	!	!	!	!	!	!	!	!	!	!	!	!	!	!
=43	=43	=43	=43	=43	=43	=43	=43	=43	=43	=43	=43	=43	=43	=43	=43	=43	=43	=43	=43	=43	=43	=43
!	!	!	!LO:DY:a	!	!LO:DY:a	!	!	!	!	!	!LO:DY:a	!	!	!	!	!	!	!	!	!	!	!LO:DY:a:rj
8BB-/L	.	16d/LL	f	4a 4d/	f	8D\	Ki-	.	8B-\	Ki-	f	8f\	Ki-	8b-\	Ki-	.	8e-/L	8b-\L	2cc\	.	2bb-\	f
.	.	16b-/	.	.	.	.	.	.	.	.	.	.	.	.	.	.	.	.	.	.	.	.
8D/J	.	16d/	.	.	.	8D\	-ri-	.	8B-\	-ry-	.	8f\	-ry-	8b-\	-ry-	.	8e-/J	8b-\J	.	.	.	.
.	.	16b-/JJ	.	.	.	.	.	.	.	.	.	.	.	.	.	.	.	.	.	.	.	.
*tremolo	*	*tremolo	*	*	*	*	*	*	*	*	*	*	*	*	*	*	*	*	*	*	*	*
8D\L	6	16f/LL	.	8r	.	4D\	-e	.	4B-\	-e	.	4f\	-e	4b-\	-e	.	4e-/	8b-\	.	.	.	.
.	.	16b-/	.	.	.	.	.	.	.	.	.	.	.	.	.	.	.	.	.	.	.	.
8D\	.	16f/	.	16bb-\LL	.	.	.	.	.	.	.	.	.	.	.	.	.	4r	.	.	.	.
.	.	16b-/	.	16aa\JJ	.	.	.	.	.	.	.	.	.	.	.	.	.	.	.	.	.	.
8D\	.	16f/	.	8bb-\L	.	8r	.	.	8r	.	.	8r	.	8r	.	.	4r	.	4b-\	.	4dd\	.
.	.	16b-/	.	.	.	.	.	.	.	.	.	.	.	.	.	.	.	.	.	.	.	.
8D\J	.	16f/	.	8dd\J	.	8D\	e-	.	8B-\	e-	.	8f\	e-	8dd\	e-	.	.	8dd\	.	.	.	.
.	.	16b-/JJ	.	.	.	.	.	.	.	.	.	.	.	.	.	.	.	.	.	.	.	.
=44	=44	=44	=44	=44	=44	=44	=44	=44	=44	=44	=44	=44	=44	=44	=44	=44	=44	=44	=44	=44	=44	=44
8E-\L	6 5	16g/LL	.	8dd\L	.	4E-\	-lei-	.	4B-\	-lei-	.	4g\	-lei-	8dd\L	-lei-	.	8b-\L	8dd\L	8b-\L	.	8dd\L	.
.	.	16b-/	.	.	.	.	.	.	.	.	.	.	.	.	.	.	.	.	.	.	.	.
8E-\	.	16g/	.	8cc\J	.	.	.	.	.	.	.	.	.	8cc\J	.	.	8cc\J	8cc\J	8cc\J	.	8cc\J	.
.	.	16b-/	.	.	.	.	.	.	.	.	.	.	.	.	.	.	.	.	.	.	.	.
*	*	*	*	*	*	*	*	*	*	*	*	*	*	*	*	*	*2\right	*	*	*	*	*
8E-\	.	16g/	.	2cc\	.	4E-\	-son	.	2B-\	-son	.	2g\	-son	2cc\	-son	.	2cc\	2cc\	2cc\	.	2cc\	.
.	.	16b-/	.	.	.	.	.	.	.	.	.	.	.	.	.	.	.	.	.	.	.	.
8E-\	.	16g/	.	.	.	.	.	.	.	.	.	.	.	.	.	.	.	.	.	.	.	.
.	.	16b-/	.	.	.	.	.	.	.	.	.	.	.	.	.	.	.	.	.	.	.	.
8E-\	.	16g/	.	.	.	4r	.	.	.	.	.	.	.	.	.	.	.	.	.	.	.	.
.	.	16b-/	.	.	.	.	.	.	.	.	.	.	.	.	.	.	.	.	.	.	.	.
8E-\J	.	16g/	.	.	.	.	.	.	.	.	.	.	.	.	.	.	.	.	.	.	.	.
.	.	16b-/JJ	.	.	.	.	.	.	.	.	.	.	.	.	.	.	.	.	.	.	.	.
!	!	!	!	!	!	!	!	!	!	!	!	!LO:LB:g=original	!	!	!	!	!	!	!	!	!	!
=45	=45	=45	=45	=45	=45	=45	=45	=45	=45	=45	=45	=45	=45	=45	=45	=45	=45	=45	=45	=45	=45	=45
*	*	*	*	*	*	*	*	*	*	*ij	*	*	*	*	*	*	*	*	*	*	*	*
8F\L	7	16c/LL	.	4ee- 4f\	.	8F\	Ki-	.	8A\	Ki-	.	8a\	Ki-	8ee-\	Ki-	.	4f/	4cc\	2cc\	.	2ee-\	.
.	.	16a/	.	.	.	.	.	.	.	.	.	.	.	.	.	.	.	.	.	.	.	.
8F\	.	16c/	.	.	.	8F\	-ri-	.	8c\	-ri-	.	8a\	-ry-	8ee-\	-ry-	.	.	.	.	.	.	.
.	.	16a/	.	.	.	.	.	.	.	.	.	.	.	.	.	.	.	.	.	.	.	.
8F\	.	16c/	.	8r	.	4F\	-e	.	4c\	-e	.	4a\	-e	4ee-\	-e	.	4f/	4cc\	.	.	.	.
*	*	*	*	*	*	*	*	*	*	*Xij	*	*	*	*	*	*	*	*	*	*	*	*
.	.	16a/	.	.	.	.	.	.	.	.	.	.	.	.	.	.	.	.	.	.	.	.
8F\	.	16c/	.	16ee-\LL	.	.	.	.	.	.	.	.	.	.	.	.	.	.	.	.	.	.
.	.	16a/	.	16dd\JJ	.	.	.	.	.	.	.	.	.	.	.	.	.	.	.	.	.	.
!	!	!	!	!	!	!	!	!	!	!	!	!	!	!LO:LB:g=original	!	!	!	!	!	!	!	!
8F\	.	16c/	.	8ee-\L	.	8r	.	.	8r	.	.	8r	.	8r	.	.	8r	8r	4b-\	.	4ee-\	.
.	.	16a/	.	.	.	.	.	.	.	.	.	.	.	.	.	.	.	.	.	.	.	.
8F\J	.	16c/	.	8ff\J	.	8F\	e-	.	8c\	e-	.	8a\	e-	8ee-\	e-	.	8cc\	8ee-\	.	.	.	.
.	.	16a/JJ	.	.	.	.	.	.	.	.	.	.	.	.	.	.	.	.	.	.	.	.
*	*	*Xtremolo	*	*	*	*	*	*	*	*	*	*	*	*	*	*	*	*	*	*	*	*
!	!	!	!	!	!	!LO:LB:g=original	!	!	!LO:LB:g=original	!	!	!	!	!	!	!	!	!	!	!	!	!
=46	=46	=46	=46	=46	=46	=46	=46	=46	=46	=46	=46	=46	=46	=46	=46	=46	=46	=46	=46	=46	=46	=46
8G\L	5	16cc\LL	.	8ee-\L	.	4G\	-lei-	.	4B-\	-lei-	.	4b-\	-lei-	8ee-\L	-lei-	.	8cc\L	8ee-\L	8cc\L	.	8ee-\L	.
.	.	16b-\	.	.	.	.	.	.	.	.	.	.	.	.	.	.	.	.	.	.	.	.
8G\	.	16a\	.	8dd\J	.	.	.	.	.	.	.	.	.	8dd\J	.	.	8b-\J	8dd\J	8b-\J	.	8dd\J	.
.	.	16b-\JJ	.	.	.	.	.	.	.	.	.	.	.	.	.	.	.	.	.	.	.	.
*	*	*rep	*	*	*	*	*	*	*	*	*	*	*	*	*	*	*	*	*	*	*	*
8G\	.	16cc\LL	.	2dd\	.	4G\	-son	.	2B-\	-son	.	2b-\	-son	2dd\	-son	.	2b-\	2dd\	2b-\	.	2dd\	.
.	.	16b-\	.	.	.	.	.	.	.	.	.	.	.	.	.	.	.	.	.	.	.	.
8G\	.	16a\	.	.	.	.	.	.	.	.	.	.	.	.	.	.	.	.	.	.	.	.
.	.	16b-\JJ	.	.	.	.	.	.	.	.	.	.	.	.	.	.	.	.	.	.	.	.
*	*	*Xrep	*	*	*	*	*	*	*	*	*	*	*	*	*	*	*	*	*	*	*	*
*	*	*rep	*	*	*	*	*	*	*	*	*	*	*	*	*	*	*	*	*	*	*	*
8G\	.	16cc\LL	.	.	.	4r	.	.	.	.	.	.	.	.	.	.	.	.	.	.	.	.
.	.	16b-\	.	.	.	.	.	.	.	.	.	.	.	.	.	.	.	.	.	.	.	.
8G\J	.	16a\	.	.	.	.	.	.	.	.	.	.	.	.	.	.	.	.	.	.	.	.
.	.	16b-\JJ	.	.	.	.	.	.	.	.	.	.	.	.	.	.	.	.	.	.	.	.
*	*	*Xrep	*	*	*	*	*	*	*	*	*	*	*	*	*	*	*	*	*	*	*	*
!	!	!	!	!LO:LB:g=original	!	!	!	!	!	!	!	!	!	!	!	!	!	!	!	!	!	!
=47	=47	=47	=47	=47	=47	=47	=47	=47	=47	=47	=47	=47	=47	=47	=47	=47	=47	=47	=47	=47	=47	=47
*	*	*tremolo	*	*	*	*	*	*	*	*	*	*	*ij	*	*ij	*	*	*	*	*	*	*
8D\L	6	16f/LL	.	4bb- 4b- 4d\	.	8D\	Ki-	.	8B-\	Ki-	.	8f\	Ki-	8dd\	Ki-	.	8b-\L	8dd\L	2b-\	.	2bb-\	.
.	.	16b-/	.	.	.	.	.	.	.	.	.	.	.	.	.	.	.	.	.	.	.	.
8D\	.	16f/	.	.	.	8D\	-ry-	.	8d\	-ry-	.	8f\	-ry-	8b-\	-ry-	.	8b-\J	8dd\J	.	.	.	.
.	.	16b-/	.	.	.	.	.	.	.	.	.	.	.	.	.	.	.	.	.	.	.	.
8D\	.	16f/	.	8r	.	4D\	-e	.	4d\	-e	.	4f\	-e	4b-\	-e	.	4b-\	4dd\	.	.	.	.
.	.	16b-/	.	.	.	.	.	.	.	.	.	.	.	.	.	.	.	.	.	.	.	.
8D\	.	16f/	.	16bb-\LL	.	.	.	.	.	.	.	.	.	.	.	.	.	.	.	.	.	.
.	.	16b-/	.	16aa\JJ	.	.	.	.	.	.	.	.	.	.	.	.	.	.	.	.	.	.
8D\	.	16f/	.	8bb-\L	.	8r	.	.	8r	.	.	8r	.	8r	.	.	8r	8r	4b-\	.	4dd\	.
.	.	16b-/	.	.	.	.	.	.	.	.	.	.	.	.	.	.	.	.	.	.	.	.
8D\J	.	16f/	.	8dd\J	.	8D\	e-	.	8B-\	e-	.	8f\	e-	8dd\	e-	.	8b-\	8dd\	.	.	.	.
.	.	16b-/JJ	.	.	.	.	.	.	.	.	.	.	.	.	.	.	.	.	.	.	.	.
=48	=48	=48	=48	=48	=48	=48	=48	=48	=48	=48	=48	=48	=48	=48	=48	=48	=48	=48	=48	=48	=48	=48
8E-\L	6 5	16g/LL	.	8dd\L	.	4E-\	-ley-	.	4B-\	-lei-	.	2g\	-lei-	8dd\L	-lei-	.	8b-\L	8dd\L	8b-\L	.	8dd\L	.
.	.	16b-/	.	.	.	.	.	.	.	.	.	.	.	.	.	.	.	.	.	.	.	.
8E-\	.	16g/	.	8cc\J	.	.	.	.	.	.	.	.	.	8cc\J	.	.	8cc\J	8cc\J	8cc\J	.	8cc\J	.
.	.	16b-/	.	.	.	.	.	.	.	.	.	.	.	.	.	.	.	.	.	.	.	.
8E-\	.	16g/	.	2cc\	.	2E-\	-son	.	2B-\	-son	.	.	.	2cc\	-son	.	2cc\	2cc\	2cc\	.	2cc\	.
*	*	*	*	*	*	*	*	*	*	*	*	*	*	*	*Xij	*	*	*	*	*	*	*
.	.	16b-/	.	.	.	.	.	.	.	.	.	.	.	.	.	.	.	.	.	.	.	.
8E-\	.	16g/	.	.	.	.	.	.	.	.	.	.	.	.	.	.	.	.	.	.	.	.
.	.	16b-/	.	.	.	.	.	.	.	.	.	.	.	.	.	.	.	.	.	.	.	.
8E-\	.	16g/	.	.	.	.	.	.	.	.	.	4g\	-son	.	.	.	.	.	.	.	.	.
*	*	*	*	*	*	*	*	*	*	*	*	*	*Xij	*	*	*	*	*	*	*	*	*
.	.	16b-/	.	.	.	.	.	.	.	.	.	.	.	.	.	.	.	.	.	.	.	.
8E-\J	.	16g/	.	.	.	.	.	.	.	.	.	.	.	.	.	.	.	.	.	.	.	.
.	.	16b-/JJ	.	.	.	.	.	.	.	.	.	.	.	.	.	.	.	.	.	.	.	.
=49	=49	=49	=49	=49	=49	=49	=49	=49	=49	=49	=49	=49	=49	=49	=49	=49	=49	=49	=49	=49	=49	=49
*	*	*	*	*	*	*	*	*	*	*ij	*	*	*	*	*	*	*	*	*	*	*	*
8En\L	.	16g/LL	.	4bb- 4cc\	.	8En\	Ki-	.	8B-\	Ki-	.	8g\	Ki-	8cc\	Ki-	.	4cc\	4cc\	2.gg\	.	2.bb-\	.
.	.	16cc/	.	.	.	.	.	.	.	.	.	.	.	.	.	.	.	.	.	.	.	.
8E\	.	16g/	.	.	.	8E\	-ry-	.	8B-\	-ry-	.	8g\	-ri-	8cc\	-ry-	.	.	.	.	.	.	.
.	.	16cc/	.	.	.	.	.	.	.	.	.	.	.	.	.	.	.	.	.	.	.	.
8E\	.	16g/	.	8r	.	4E\	-e	.	4B-\	-e	.	4g\	-e	4cc\	-e	.	4cc\	4cc\	.	.	.	.
.	.	16cc/	.	.	.	.	.	.	.	.	.	.	.	.	.	.	.	.	.	.	.	.
8E\	.	16g/	.	8gg\L	.	.	.	.	.	.	.	.	.	.	.	.	.	.	.	.	.	.
.	.	16cc/	.	.	.	.	.	.	.	.	.	.	.	.	.	.	.	.	.	.	.	.
8E\	.	16g/	.	8een\	.	4E\	e-	.	4B-\	e-	.	4g\	e-	4cc\	e-	.	4cc\	4cc\	.	.	.	.
.	.	16cc/	.	.	.	.	.	.	.	.	.	.	.	.	.	.	.	.	.	.	.	.
8E\J	.	16g/	.	8b-\J	.	.	.	.	.	.	.	.	.	.	.	.	.	.	.	.	.	.
.	.	16cc/JJ	.	.	.	.	.	.	.	.	.	.	.	.	.	.	.	.	.	.	.	.
!	!	!	!	!	!	!	!	!	!	!	!	!	!	!	!	!	!	!LO:LB:g=original	!	!	!	!
=50	=50	=50	=50	=50	=50	=50	=50	=50	=50	=50	=50	=50	=50	=50	=50	=50	=50	=50	=50	=50	=50	=50
8F\L	.	16c/LL	.	8a\L	.	4F\	-lei-	.	4A\	-lei-	.	4f\	-lei-	4cc\	-lei-	.	8f/	4cc\	2.ff\	.	2.aa\	.
.	.	16a/	.	.	.	.	.	.	.	.	.	.	.	.	.	.	.	.	.	.	.	.
8F\	.	16c/	.	8cc\	.	.	.	.	.	.	.	.	.	.	.	.	8r	.	.	.	.	.
.	.	16a/	.	.	.	.	.	.	.	.	.	.	.	.	.	.	.	.	.	.	.	.
8F\	.	16c/	.	8ff\	.	4F\	-son	.	4A\	-son	.	4a\	-son	4cc\	.	.	8f/L	8r	.	.	.	.
*	*	*	*	*	*	*	*	*	*	*Xij	*	*	*	*	*	*	*	*	*	*	*	*
.	.	16a/	.	.	.	.	.	.	.	.	.	.	.	.	.	.	.	.	.	.	.	.
8F\	.	16c/	.	8aa\J	.	.	.	.	.	.	.	.	.	.	.	.	8f/J	8cc\L	.	.	.	.
.	.	16a/	.	.	.	.	.	.	.	.	.	.	.	.	.	.	.	.	.	.	.	.
8F\	.	16c/	.	8ccc\L	.	4F\	e-	.	4A\	e-	.	4a\	e-	4cc\	-son	.	4f/	8cc\	.	.	.	.
.	.	16a/	.	.	.	.	.	.	.	.	.	.	.	.	.	.	.	.	.	.	.	.
8F\J	.	16c/	.	8ccc\J	.	.	.	.	.	.	.	.	.	.	.	.	.	8cc\J	.	.	.	.
.	.	16a/JJ	.	.	.	.	.	.	.	.	.	.	.	.	.	.	.	.	.	.	.	.
!	!	!LO:LB:g=original	!	!	!	!	!	!	!	!	!	!	!	!	!	!	!LO:LB:g=original	!	!	!	!	!
=51	=51	=51	=51	=51	=51	=51	=51	=51	=51	=51	=51	=51	=51	=51	=51	=51	=51	=51	=51	=51	=51	=51
8E-\L	6 5	16c/LL	.	4bb-\	.	2.En\	-lei-	.	2.B-\	-lei-	.	2.g\	-lei-	2.cc\	e-	.	4cc\	4cc\	2.gg\	.	2.bb-\	.
.	.	16g/	.	.	.	.	.	.	.	.	.	.	.	.	.	.	.	.	.	.	.	.
8E-\	.	16c/	.	.	.	.	.	.	.	.	.	.	.	.	.	.	.	.	.	.	.	.
.	.	16g/	.	.	.	.	.	.	.	.	.	.	.	.	.	.	.	.	.	.	.	.
8E-\	.	16c/	.	8r	.	.	.	.	.	.	.	.	.	.	.	.	4cc\	4cc\	.	.	.	.
.	.	16g/	.	.	.	.	.	.	.	.	.	.	.	.	.	.	.	.	.	.	.	.
8E-\	.	16c/	.	8gg\L	.	.	.	.	.	.	.	.	.	.	.	.	.	.	.	.	.	.
.	.	16g/	.	.	.	.	.	.	.	.	.	.	.	.	.	.	.	.	.	.	.	.
8E-\	.	16c/	.	8een\	.	.	.	.	.	.	.	.	.	.	.	.	4cc\	4cc\	.	.	.	.
.	.	16g/	.	.	.	.	.	.	.	.	.	.	.	.	.	.	.	.	.	.	.	.
8E-\J	.	16c/	.	8b-\J	.	.	.	.	.	.	.	.	.	.	.	.	.	.	.	.	.	.
.	.	16g/JJ	.	.	.	.	.	.	.	.	.	.	.	.	.	.	.	.	.	.	.	.
!	!	!	!	!	!	!	!	!	!	!	!	!	!	!	!	!	!	!	!LO:LB:g=original	!	!	!
=52	=52	=52	=52	=52	=52	=52	=52	=52	=52	=52	=52	=52	=52	=52	=52	=52	=52	=52	=52	=52	=52	=52
8F\L	.	16c/LL	.	8a\L	.	4F\	-son	.	4A\	-son	.	4f\	-son	4cc\	-lei-	.	4f/	4cc\	2.ff\	.	2.aa\	.
.	.	16a/	.	.	.	.	.	.	.	.	.	.	.	.	.	.	.	.	.	.	.	.
8F\	.	16c/	.	8cc\	.	.	.	.	.	.	.	.	.	.	.	.	.	.	.	.	.	.
.	.	16a/	.	.	.	.	.	.	.	.	.	.	.	.	.	.	.	.	.	.	.	.
8F\	.	16c/	.	8ff\	.	4F\	Ki-	.	4A\	Ki-	.	4f\	Ki-	4cc\	-son	.	8r	8r	.	.	.	.
.	.	16a/	.	.	.	.	.	.	.	.	.	.	.	.	.	.	.	.	.	.	.	.
8F\	.	16c/	.	8aa\J	.	.	.	.	.	.	.	.	.	.	.	.	8f/L	8cc\L	.	.	.	.
.	.	16a/	.	.	.	.	.	.	.	.	.	.	.	.	.	.	.	.	.	.	.	.
8F\	.	16c/	.	8ccc\L	.	4F\	-ri-	.	4A\	-ry-	.	4f\	-ri-	4cc\	Ki-	.	8f/	8cc\	.	.	.	.
.	.	16a/	.	.	.	.	.	.	.	.	.	.	.	.	.	.	.	.	.	.	.	.
8F\J	.	16c/	.	8ccc\J	.	.	.	.	.	.	.	.	.	.	.	.	8f/J	8cc\J	.	.	.	.
.	.	16a/JJ	.	.	.	.	.	.	.	.	.	.	.	.	.	.	.	.	.	.	.	.
!	!	!	!	!	!	!	!	!	!	!	!	!LO:LB:g=original	!	!	!	!	!	!	!	!	!	!
=53	=53	=53	=53	=53	=53	=53	=53	=53	=53	=53	=53	=53	=53	=53	=53	=53	=53	=53	=53	=53	=53	=53
8A\L	6	16f/LL	.	4.ccc\	.	2A\	-e	.	2A\	-e	.	2f\	-e	2cc\	-ri-	.	4f/	4cc\	2cc\	.	2ff\	.
.	.	16cc/	.	.	.	.	.	.	.	.	.	.	.	.	.	.	.	.	.	.	.	.
8A\	.	16f/	.	.	.	.	.	.	.	.	.	.	.	.	.	.	.	.	.	.	.	.
.	.	16cc/	.	.	.	.	.	.	.	.	.	.	.	.	.	.	.	.	.	.	.	.
8A\	.	16f/	.	.	.	.	.	.	.	.	.	.	.	.	.	.	4f/	4cc\	.	.	.	.
.	.	16cc/	.	.	.	.	.	.	.	.	.	.	.	.	.	.	.	.	.	.	.	.
8A\	-5	16f/	.	8aa\L	.	.	.	.	.	.	.	.	.	.	.	.	.	.	.	.	.	.
.	.	16cc/	.	.	.	.	.	.	.	.	.	.	.	.	.	.	.	.	.	.	.	.
8A\	.	16f/	.	8ff\	.	4A\	[e-]	.	4c\	e-	.	4f\	e-	4ee-X\	-e	.	4f/	4cc\	4cc\	.	4ee-X\	.
.	.	16cc/	.	.	.	.	.	.	.	.	.	.	.	.	.	.	.	.	.	.	.	.
8A\J	.	16f/	.	8ee-X\J	.	.	.	.	.	.	.	.	.	.	.	.	.	.	.	.	.	.
.	.	16cc/JJ	.	.	.	.	.	.	.	.	.	.	.	.	.	.	.	.	.	.	.	.
*Xtremolo	*	*Xtremolo	*	*	*	*	*	*	*	*	*	*	*	*	*	*	*	*	*	*	*	*
!	!	!	!	!	!	!LO:LB:g=original	!	!	!	!	!	!	!	!	!	!	!	!	!	!	!LO:LB:g=original	!
=54	=54	=54	=54	=54	=54	=54	=54	=54	=54	=54	=54	=54	=54	=54	=54	=54	=54	=54	=54	=54	=54	=54
.	.	.	.	8qqee-/	.	.	.	.	.	.	.	.	.	.	.	.	.	.	.	.	.	.
8B-\L	3	16f/LL	.	8dd\L	.	2B-\	-lei-	.	4d\	-lei-	.	4f\	-lei-	4dd\	e-	.	4b-\	4dd\	4b-\	.	4dd\	.
.	.	16f/	.	.	.	.	.	.	.	.	.	.	.	.	.	.	.	.	.	.	.	.
8B-\	5	16f/	.	16cc\L	.	.	.	.	.	.	.	.	.	.	.	.	.	.	.	.	.	.
.	.	16f/JJ	.	16dd\JJ	.	.	.	.	.	.	.	.	.	.	.	.	.	.	.	.	.	.
!	!	!	!	!LO:LB:g=original	!	!	!	!	!	!	!	!	!	!	!	!	!	!	!	!	!	!
.	.	.	.	8qqff/	.	.	.	.	.	.	.	.	.	.	.	.	.	.	.	.	.	.
*	*	*tremolo	*	*	*	*	*	*	*	*	*	*	*	*	*	*	*	*	*	*	*	*
8B-\	4	16b-/LL	.	8een\L	.	.	.	.	4c\	.	.	4g\	.	4een\	-lei-	.	4cc\	4cc\	4g/	.	4ee-\	.
.	.	16b-/	.	.	.	.	.	.	.	.	.	.	.	.	.	.	.	.	.	.	.	.
8B-\	.	16b-/	.	16dd\L	.	.	.	.	.	.	.	.	.	.	.	.	.	.	.	.	.	.
.	.	16b-/JJ	.	16ee\JJ	.	.	.	.	.	.	.	.	.	.	.	.	.	.	.	.	.	.
.	.	.	.	8qqgg/	.	.	.	.	.	.	.	.	.	.	.	.	.	.	.	.	.	.
8A\	6	16a/LL	.	8ff\L	.	4A\	-son	.	4c\	-son	.	4f\	-son	4ff\	-son	.	4f/	4cc\	4a/	.	4ff\	.
.	.	16a/	.	.	.	.	.	.	.	.	.	.	.	.	.	.	.	.	.	.	.	.
8A\J	.	16a/	.	16ee\L	.	.	.	.	.	.	.	.	.	.	.	.	.	.	.	.	.	.
.	.	16a/JJ	.	16ff\JJ	.	.	.	.	.	.	.	.	.	.	.	.	.	.	.	.	.	.
*	*	*Xtremolo	*	*	*	*	*	*	*	*	*	*	*	*	*	*	*	*	*	*	*	*
!	!	!	!	!	!	!	!	!	!LO:LB:g=original	!	!	!	!	!LO:LB:g=original	!	!	!	!	!	!	!	!
=55	=55	=55	=55	=55	=55	=55	=55	=55	=55	=55	=55	=55	=55	=55	=55	=55	=55	=55	=55	=55	=55	=55
*	*	*	*	*	*	*	*ij	*	*	*ij	*	*	*ij	*	*	*	*	*	*	*	*	*
4Bn\	6 5	16a/LL	.	8gg 8g\	.	4Bn\	e-	.	4d\	e-	.	4g\	e-	4ff\	e-	.	4d/	4dd\	2.dd\	.	2.ff\	.
.	.	16g/	.	.	.	.	.	.	.	.	.	.	.	.	.	.	.	.	.	.	.	.
.	.	16f#X/	.	4gg 4g\	.	.	.	.	.	.	.	.	.	.	.	.	.	.	.	.	.	.
.	.	16g/JJ	.	.	.	.	.	.	.	.	.	.	.	.	.	.	.	.	.	.	.	.
*	*	*rep	*	*	*	*	*	*	*	*	*	*	*	*	*	*	*	*	*	*	*	*
4B\	.	16a/LL	.	.	.	2B\	-lei-	.	2d\	-lei-	.	2g\	-lei-	2ff\	-lei-	.	4d/	4dd\	.	.	.	.
.	.	16g/	.	.	.	.	.	.	.	.	.	.	.	.	.	.	.	.	.	.	.	.
.	.	16f#/	.	4gg 4g\	.	.	.	.	.	.	.	.	.	.	.	.	.	.	.	.	.	.
.	.	16g/JJ	.	.	.	.	.	.	.	.	.	.	.	.	.	.	.	.	.	.	.	.
*	*	*Xrep	*	*	*	*	*	*	*	*	*	*	*	*	*	*	*	*	*	*	*	*
*	*	*rep	*	*	*	*	*	*	*	*	*	*	*	*	*	*	*	*	*	*	*	*
4B\	.	16a/LL	.	.	.	.	.	.	.	.	.	.	.	.	.	.	4d/	4dd\	.	.	.	.
.	.	16g/	.	.	.	.	.	.	.	.	.	.	.	.	.	.	.	.	.	.	.	.
.	.	16f#/	.	8gg 8g\	.	.	.	.	.	.	.	.	.	.	.	.	.	.	.	.	.	.
.	.	16g/JJ	.	.	.	.	.	.	.	.	.	.	.	.	.	.	.	.	.	.	.	.
*	*	*Xrep	*	*	*	*	*	*	*	*	*	*	*	*	*	*	*	*	*	*	*	*
=56	=56	=56	=56	=56	=56	=56	=56	=56	=56	=56	=56	=56	=56	=56	=56	=56	=56	=56	=56	=56	=56	=56
!	!	!	!	!	!	!	!	!	!	!	!	!	!	!	!	!	!LO:TX:t=P:problem=niepotrzebnie powtórzony takt	!	!	!	!	!
2.ryy	.	2.ryy	.	2.ryy	.	2.ryy	.	.	2.ryy	.	.	2.ryy	.	2.ryy	.	.	4d/	2.ryy	2.ryy	.	2.ryy	.
.	.	.	.	.	.	.	.	.	.	.	.	.	.	.	.	.	4d/	.	.	.	.	.
.	.	.	.	.	.	.	.	.	.	.	.	.	.	.	.	.	4d/	.	.	.	.	.
=57	=57	=57	=57	=57	=57	=57	=57	=57	=57	=57	=57	=57	=57	=57	=57	=57	=57	=57	=57	=57	=57	=57
!	!	!	!	!	!LO:DY:a:rj	!	!	!	!	!	!	!	!	!	!	!	!	!	!	!	!	!
4c\	.	4g/	.	8een\L	p	4c\	-son	.	4c\	-son	.	4g\	-son	4een\	-son	.	4cc\	4cc\	4cc\	.	4ee-\	.
*	*	*	*	*	*	*	*Xij	*	*	*Xij	*	*	*Xij	*	*	*	*	*	*	*	*	*
.	.	.	.	8gg\	.	.	.	.	.	.	.	.	.	.	.	.	.	.	.	.	.	.
4r	.	4r	.	8ff\	.	4r	.	.	4r	.	.	4r	.	4r	.	.	4r	4r	4r	.	4r	.
.	.	.	.	8ee\	.	.	.	.	.	.	.	.	.	.	.	.	.	.	.	.	.	.
4r	.	4r	.	8dd\	.	4r	.	.	4r	.	.	4r	.	4r	.	.	4r	4r	4r	.	4r	.
.	.	.	.	8cc\J	.	.	.	.	.	.	.	.	.	.	.	.	.	.	.	.	.	.
=58	=58	=58	=58	=58	=58	=58	=58	=58	=58	=58	=58	=58	=58	=58	=58	=58	=58	=58	=58	=58	=58	=58
!	!	!	!LO:DY:a	!	!	!	!	!	!	!	!	!	!	!	!	!	!	!	!	!	!	!
4r	.	8c/	p	8cc\L	.	0.r	.	.	0.r	.	.	0.r	.	0.r	.	.	0.r	0.r	1.r	.	1.r	.
.	.	4c/	.	8b-\J	.	.	.	.	.	.	.	.	.	.	.	.	.	.	.	.	.	.
(4En\	.	.	.	4.b-\	.	.	.	.	.	.	.	.	.	.	.	.	.	.	.	.	.	.
.	.	4c/	.	.	.	.	.	.	.	.	.	.	.	.	.	.	.	.	.	.	.	.
4F\)	.	.	.	.	.	.	.	.	.	.	.	.	.	.	.	.	.	.	.	.	.	.
.	.	8c/	.	8a/	.	.	.	.	.	.	.	.	.	.	.	.	.	.	.	.	.	.
!LO:LB:g=original	!	!	!	!	!	!	!	!	!	!	!	!	!	!	!	!	!	!	!	!	!	!
=59	=59	=59	=59	=59	=59	=59	=59	=59	=59	=59	=59	=59	=59	=59	=59	=59	=59	=59	=59	=59	=59	=59
*	*	*tremolo	*	*	*	*	*	*	*	*	*	*	*	*	*	*	*	*	*	*	*	*
4r	.	8c/L	.	8a/L	.	.	.	.	.	.	.	.	.	.	.	.	.	.	.	.	.	.
.	.	8c/	.	8g/J	.	.	.	.	.	.	.	.	.	.	.	.	.	.	.	.	.	.
(4B-\	.	8c/	.	4.g/	.	.	.	.	.	.	.	.	.	.	.	.	.	.	.	.	.	.
.	.	8c/	.	.	.	.	.	.	.	.	.	.	.	.	.	.	.	.	.	.	.	.
4A\)	.	8c/	.	.	.	.	.	.	.	.	.	.	.	.	.	.	.	.	.	.	.	.
.	.	8c/J	.	8f/	.	.	.	.	.	.	.	.	.	.	.	.	.	.	.	.	.	.
*	*	*Xtremolo	*	*	*	*	*	*	*	*	*	*	*	*	*	*	*	*	*	*	*	*
!	!	!LO:LB:g=original	!	!	!	!	!	!	!	!	!	!	!	!	!	!	!	!	!	!	!	!
=60	=60	=60	=60	=60	=60	=60	=60	=60	=60	=60	=60	=60	=60	=60	=60	=60	=60	=60	=60	=60	=60	=60
!	!	!	!	!	!	!	!	!	!	!	!	!	!	!	!	!	!	!	!	!LO:DY:a:rj	!	!
4r	.	8c/	.	8cc\L	.	.	.	.	.	.	.	.	.	.	.	.	.	.	2.cc\	p	2.ccc\	.
.	.	4c/	.	8b-\J	.	.	.	.	.	.	.	.	.	.	.	.	.	.	.	.	.	.
(4E-\	.	.	.	4.b-\	.	.	.	.	.	.	.	.	.	.	.	.	.	.	.	.	.	.
.	.	4c/	.	.	.	.	.	.	.	.	.	.	.	.	.	.	.	.	.	.	.	.
4F\)	.	.	.	.	.	.	.	.	.	.	.	.	.	.	.	.	.	.	.	.	.	.
.	.	8c/	.	8a/	.	.	.	.	.	.	.	.	.	.	.	.	.	.	.	.	.	.
=61	=61	=61	=61	=61	=61	=61	=61	=61	=61	=61	=61	=61	=61	=61	=61	=61	=61	=61	=61	=61	=61	=61
4r	.	8c/	.	8a/L	.	.	.	.	.	.	.	.	.	.	.	.	.	.	2.cc\	.	2.ccc\	.
.	.	4c/	.	8g/J	.	.	.	.	.	.	.	.	.	.	.	.	.	.	.	.	.	.
(4B-\	.	.	.	4.g/	.	.	.	.	.	.	.	.	.	.	.	.	.	.	.	.	.	.
.	.	4c/	.	.	.	.	.	.	.	.	.	.	.	.	.	.	.	.	.	.	.	.
4A\)	.	.	.	.	.	.	.	.	.	.	.	.	.	.	.	.	.	.	.	.	.	.
.	.	8c/	.	8f/	.	.	.	.	.	.	.	.	.	.	.	.	.	.	.	.	.	.
!	!	!	!	!LO:LB:g=original	!	!	!	!	!	!	!	!	!	!	!	!	!	!	!	!	!	!
=62	=62	=62	=62	=62	=62	=62	=62	=62	=62	=62	=62	=62	=62	=62	=62	=62	=62	=62	=62	=62	=62	=62
!	!	!	!LO:DY:b:rj	!	!	!	!	!	!	!	!	!	!	!	!	!	!	!	!	!	!	!
4C/	.	8B-/L	p	8f/L	.	1.r	.	.	1.r	.	.	1.r	.	1.r	.	.	1.r	1.r	4cc\	.	4ccc\	.
.	.	8G/	.	8e-/J	.	.	.	.	.	.	.	.	.	.	.	.	.	.	.	.	.	.
4r	.	8f/	.	8a/L	.	.	.	.	.	.	.	.	.	.	.	.	.	.	4r	.	4r	.
.	.	8en/	.	8g/J	.	.	.	.	.	.	.	.	.	.	.	.	.	.	.	.	.	.
4r	.	8f/	.	8bn\L	.	.	.	.	.	.	.	.	.	.	.	.	.	.	4r	.	4r	.
.	.	8e/J	.	8cc\J	.	.	.	.	.	.	.	.	.	.	.	.	.	.	.	.	.	.
=63	=63	=63	=63	=63	=63	=63	=63	=63	=63	=63	=63	=63	=63	=63	=63	=63	=63	=63	=63	=63	=63	=63
2.r	.	8g/L	.	(8ee-\L	.	.	.	.	.	.	.	.	.	.	.	.	.	.	2.r	.	2.r	.
.	.	8f/	.	8dd\J)	.	.	.	.	.	.	.	.	.	.	.	.	.	.	.	.	.	.
.	.	8a/	.	(8ff\L	.	.	.	.	.	.	.	.	.	.	.	.	.	.	.	.	.	.
.	.	8g/	.	8een\J)	.	.	.	.	.	.	.	.	.	.	.	.	.	.	.	.	.	.
.	.	8b-/	.	(8gg\L	.	.	.	.	.	.	.	.	.	.	.	.	.	.	.	.	.	.
.	.	8a/J	.	8ff\J)	.	.	.	.	.	.	.	.	.	.	.	.	.	.	.	.	.	.
=64	=64	=64	=64	=64	=64	=64	=64	=64	=64	=64	=64	=64	=64	=64	=64	=64	=64	=64	=64	=64	=64	=64
*	*	*tremolo	*	*	*	*	*	*	*	*	*	*	*	*	*	*	*	*	*	*	*	*
!	!	!	!	!	!LO:DY:a:t=for.	!	!	!	!	!	!	!	!	!	!	!	!	!	!	!	!	!LO:DY:a:rj
8F\L	6 3	16a/LL	.	16ff\LL	f	8.F\	Ki-	.	8.c\	Ki-	.	8.a\	Ki-	8.ff\	Ki-	.	8f/L	8cc\L	2a\	.	2ff\	f
.	.	16a/	.	16gg\	.	.	.	.	.	.	.	.	.	.	.	.	.	.	.	.	.	.
8F\	.	16a/	.	16aa\	.	.	.	.	.	.	.	.	.	.	.	.	8f/J	8cc\J	.	.	.	.
.	.	16a/	.	16gg\JJ	.	16F\	-ry-	.	16c\	-ry-	.	16a\	-ri-	16ff\	-ry-	.	.	.	.	.	.	.
8F\	.	16a/	.	16ff\LL	.	4F\	-e	.	4c\	-e	.	4a\	-e	4.ff\	-e	.	4f/	4cc\	.	.	.	.
.	.	16a/	.	16gg\	.	.	.	.	.	.	.	.	.	.	.	.	.	.	.	.	.	.
8F\	.	16a/	.	16aa\	.	.	.	.	.	.	.	.	.	.	.	.	.	.	.	.	.	.
.	.	16a/JJ	.	16gg\JJ	.	.	.	.	.	.	.	.	.	.	.	.	.	.	.	.	.	.
8F\	.	16cc\LL	.	8.ff\L	.	4F\	e-	.	4c\	e-	.	4a\	e-	.	.	.	4f/	4cc\	4cc\	.	8ff\L	.
.	.	16cc\	.	.	.	.	.	.	.	.	.	.	.	.	.	.	.	.	.	.	.	.
8F\J	-7	16cc\	.	.	.	.	.	.	.	.	.	.	.	8ee-X\	e-	.	.	.	.	.	8ee-\J	.
.	.	16cc\JJ	.	16ee-X\Jk	.	.	.	.	.	.	.	.	.	.	.	.	.	.	.	.	.	.
=65	=65	=65	=65	=65	=65	=65	=65	=65	=65	=65	=65	=65	=65	=65	=65	=65	=65	=65	=65	=65	=65	=65
*tremolo	*	*	*	*	*	*	*	*	*	*	*	*	*	*	*	*	*	*	*	*	*	*
8F\L	6 4	16b-\LL	.	16ee-\LL	.	2F\	-lei-	.	2d\	-lei-	.	2b-\	-lei-	2dd\	-lei-	.	2b-\	2dd\	2.b-\	.	2dd\	.
.	.	16b-\	.	16dd\	.	.	.	.	.	.	.	.	.	.	.	.	.	.	.	.	.	.
8F\	.	16b-\	.	16cc\	.	.	.	.	.	.	.	.	.	.	.	.	.	.	.	.	.	.
.	.	16b-\	.	16dd\JJ	.	.	.	.	.	.	.	.	.	.	.	.	.	.	.	.	.	.
8F\	x 5	16b-\	.	16ee-\LL	.	.	.	.	.	.	.	.	.	.	.	.	.	.	.	.	.	.
.	.	16b-\	.	16dd\	.	.	.	.	.	.	.	.	.	.	.	.	.	.	.	.	.	.
8F\	.	16b-\	.	16cc\	.	.	.	.	.	.	.	.	.	.	.	.	.	.	.	.	.	.
.	.	16b-\	.	16dd\JJ	.	.	.	.	.	.	.	.	.	.	.	.	.	.	.	.	.	.
8F\	7 2	16b-\	.	16ff\LL	.	4F\	-son	.	4c\	-son	.	4g\	-son	4een\	-son	.	4cc\	4cc\	.	.	4eeX\	.
.	.	16b-\	.	16een\	.	.	.	.	.	.	.	.	.	.	.	.	.	.	.	.	.	.
8F\J	.	16b-\	.	16dd\	.	.	.	.	.	.	.	.	.	.	.	.	.	.	.	.	.	.
.	.	16b-\JJ	.	16ee\JJ	.	.	.	.	.	.	.	.	.	.	.	.	.	.	.	.	.	.
=66	=66	=66	=66	=66	=66	=66	=66	=66	=66	=66	=66	=66	=66	=66	=66	=66	=66	=66	=66	=66	=66	=66
*	*	*	*	*	*	*	*ij	*	*	*ij	*	*	*	*	*ij	*	*	*	*	*	*	*
8F\L	8 3	16a/LL	.	16ff\LL	.	8.F\	Ki-	.	8.c\	Ki-	.	8.a\	Ki-	8.ff\	Ki-	.	8f/L	8cc\L	2a\	.	2ff\	.
.	.	16a/	.	16gg\	.	.	.	.	.	.	.	.	.	.	.	.	.	.	.	.	.	.
8F\	.	16a/	.	16aa\	.	.	.	.	.	.	.	.	.	.	.	.	8f/J	8cc\J	.	.	.	.
.	.	16a/	.	16gg\JJ	.	16F\	-ry-	.	16c\	-ry-	.	16a\	-ry-	16ff\	-ry-	.	.	.	.	.	.	.
8F\	.	16a/	.	16ff\LL	.	4F\	-e	.	4c\	-e	.	4a\	-e	4ff\	-e	.	4f/	4cc\	.	.	.	.
.	.	16a/	.	16gg\	.	.	.	.	.	.	.	.	.	.	.	.	.	.	.	.	.	.
8F\	.	16a/	.	16aa\	.	.	.	.	.	.	.	.	.	.	.	.	.	.	.	.	.	.
.	.	16a/JJ	.	16gg\JJ	.	.	.	.	.	.	.	.	.	.	.	.	.	.	.	.	.	.
!	!	!	!	!LO:LB:g=original	!	!	!	!	!	!	!	!	!	!	!	!	!	!	!	!	!	!
8F\	-7	16cc\LL	.	8.ff\L	.	4F\	e-	.	4c\	e-	.	4a\	e-	4ee-X\	e-	.	4f/	4cc\	4cc\	.	4ee-X\	.
.	.	16cc\	.	.	.	.	.	.	.	.	.	.	.	.	.	.	.	.	.	.	.	.
8F\J	.	16cc\	.	.	.	.	.	.	.	.	.	.	.	.	.	.	.	.	.	.	.	.
.	.	16cc\JJ	.	16ee-X\Jk	.	.	.	.	.	.	.	.	.	.	.	.	.	.	.	.	.	.
!	!	!	!	!	!	!	!	!	!	!	!	!	!	!	!	!	!	!	!LO:LB:g=original	!	!	!
=67	=67	=67	=67	=67	=67	=67	=67	=67	=67	=67	=67	=67	=67	=67	=67	=67	=67	=67	=67	=67	=67	=67
8F\L	6 4	16b-\LL	.	16ee-\LL	.	2F\	-lei-	.	2d\	-lei-	.	2b-\	-lei-	2dd\	-lei-	.	2b-\	2dd\	2.b-\	.	2dd\	.
.	.	16b-\	.	16dd\	.	.	.	.	.	.	.	.	.	.	.	.	.	.	.	.	.	.
8F\	.	16b-\	.	16cc\	.	.	.	.	.	.	.	.	.	.	.	.	.	.	.	.	.	.
.	.	16b-\	.	16dd\JJ	.	.	.	.	.	.	.	.	.	.	.	.	.	.	.	.	.	.
8F\	x 5	16b-\	.	16ee-\LL	.	.	.	.	.	.	.	.	.	.	.	.	.	.	.	.	.	.
.	.	16b-\	.	16dd\	.	.	.	.	.	.	.	.	.	.	.	.	.	.	.	.	.	.
8F\	.	16b-\	.	16cc\	.	.	.	.	.	.	.	.	.	.	.	.	.	.	.	.	.	.
.	.	16b-\	.	16dd\JJ	.	.	.	.	.	.	.	.	.	.	.	.	.	.	.	.	.	.
8F\	7 2	16b-\	.	16ff\LL	.	4F\	-son	.	4c\	-son	.	4g\	-son	4een\	-son	.	4cc\	4cc\	.	.	4eeX\	.
*	*	*	*	*	*	*	*Xij	*	*	*Xij	*	*	*	*	*Xij	*	*	*	*	*	*	*
.	.	16b-\	.	16een\	.	.	.	.	.	.	.	.	.	.	.	.	.	.	.	.	.	.
8F\J	.	16b-\	.	16dd\	.	.	.	.	.	.	.	.	.	.	.	.	.	.	.	.	.	.
.	.	16b-\JJ	.	16ee\JJ	.	.	.	.	.	.	.	.	.	.	.	.	.	.	.	.	.	.
*Xtremolo	*	*Xtremolo	*	*	*	*	*	*	*	*	*	*	*	*	*	*	*	*	*	*	*	*
!	!	!	!	!	!	!	!	!	!	!	!	!LO:LB:g=original	!	!	!	!	!	!	!	!	!	!
=68	=68	=68	=68	=68	=68	=68	=68	=68	=68	=68	=68	=68	=68	=68	=68	=68	=68	=68	=68	=68	=68	=68
!LO:TX:a:t=P:problem=mixed beam	!	!	!	!	!	!	!	!	!	!	!	!	!	!	!	!	!	!	!	!	!	!
8FF/L	.	8a/	.	8ff 8g\	.	4.F\	Ki-	.	4.c\	Ki-	.	4.a\	Ki-	4.ff\	Ki-	.	4f/	4cc\	4a\	.	4ff\	.
16F\L	.	4a/	.	4ff 4g\	.	.	.	.	.	.	.	.	.	.	.	.	.	.	.	.	.	.
16E-\JJ	.	.	.	.	.	.	.	.	.	.	.	.	.	.	.	.	.	.	.	.	.	.
!LO:LB:g=original	!	!	!	!	!	!	!	!	!	!	!	!	!	!	!	!	!	!	!	!	!	!
8F\L	.	.	.	.	.	.	.	.	.	.	.	.	.	.	.	.	4r	4r	4a\	.	2ff\	.
8F\J	.	4a/	.	4ff 4g\	.	8F\	-ri-	.	8c\	-ry-	.	8a\	-ry-	8ff\	-ry-	.	.	.	.	.	.	.
8D\L	.	.	.	.	.	4D\	-e	.	4d\	-e	.	4a\	-e	4ff\	-e	.	4r	4r	4a\	.	.	.
8D\J	.	8a/	.	8ff 8g\	.	.	.	.	.	.	.	.	.	.	.	.	.	.	.	.	.	.
!	!	!LO:LB:g=original	!	!	!	!LO:LB:g=original	!	!	!LO:LB:g=original	!	!	!	!	!	!	!	!	!	!	!	!	!
=69	=69	=69	=69	=69	=69	=69	=69	=69	=69	=69	=69	=69	=69	=69	=69	=69	=69	=69	=69	=69	=69	=69
.	.	.	.	16qqee-/	.	.	.	.	.	.	.	.	.	.	.	.	.	.	.	.	.	.
!LO:TX:a:t=P:problem=mixed beam	!	!	!	!	!	!	!	!	!	!	!	!	!	!	!	!	!	!	!	!	!	!
8BB-/L	.	8b-/L	.	8dd\L	.	4B-\	e-	.	4d\	e-	.	8b-\L	e-	8dd\L	e-	.	4a\	4dd\	4b-\	.	4ff\	.
8B-\J	.	16a/L	.	16cc\L	.	.	.	.	.	.	.	16a\L	.	16cc\L	.	.	.	.	.	.	.	.
.	.	16g/JJ	.	16b-\JJ	.	.	.	.	.	.	.	16g\JJ	.	16b-\JJ	.	.	.	.	.	.	.	.
4c\	.	4f/	.	4a/	.	2c\	-lei-	.	2c\	-ley-	.	4f\	-lei-	4a\	-lei-	.	4cc\	4cc\	4a\	.	4ff\	.
4C/	.	4en/	.	4g/	.	.	.	.	.	.	.	4en\	.	4g\	-son	.	4cc\	4cc\	4g\	.	4eeX\	.
!	!	!	!	!	!	!	!	!	!	!	!	!	!	!LO:LB:g=original	!	!	!	!LO:LB:g=original	!	!	!LO:LB:g=original	!
=70	=70	=70	=70	=70	=70	=70	=70	=70	=70	=70	=70	=70	=70	=70	=70	=70	=70	=70	=70	=70	=70	=70
!	!	!	!	!	!	!	!	!	!	!	!	!	!	!LO:TX:a:t=Solo	!	!	!	!	!	!	!	!
4F\	.	4f/	.	4f/	.	4F\	-son	.	4c\	-son	.	4f\	-son	4f/	son	.	4f/	4cc\	4a\	.	4ff\	.
4r	.	4r	.	4r	.	4r	.	.	4r	.	.	4r	.	4cc\	X-	.	4r	4r	4r	.	4r	.
4r	.	4r	.	4r	.	4r	.	.	4r	.	.	4r	.	4cc\	-ste	.	4r	4r	4r	.	4r	.
!	!	!	!	!	!	!	!	!	!	!	!	!	!	!	!	!	!LO:LB:g=original	!	!	!	!	!
=71	=71	=71	=71	=71	=71	=71	=71	=71	=71	=71	=71	=71	=71	=71	=71	=71	=71	=71	=71	=71	=71	=71
!	!	!	!	!	!	!	!	!	!	!	!	!	!	!	!	!	!LO:TX:a:t=31	!LO:TX:a:t=31	!LO:TX:a:t=31.	!	!LO:TX:a:t=31	!
4C/	.	8e-/L	.	8g/L	.	0.r	.	.	0.r	.	.	0.r	.	2.cc\	Chri-	.	2.r	2.r	2.r	.	2.r	.
.	.	8f/	.	8a/	.	.	.	.	.	.	.	.	.	.	.	.	.	.	.	.	.	.
4r	.	8g/	.	8b-/	.	.	.	.	.	.	.	.	.	.	.	.	.	.	.	.	.	.
.	.	8f/	.	8a/	.	.	.	.	.	.	.	.	.	.	.	.	.	.	.	.	.	.
4r	.	8g/	.	8b-/	.	.	.	.	.	.	.	.	.	.	.	.	.	.	.	.	.	.
.	.	8a/J	.	8cc/J	.	.	.	.	.	.	.	.	.	.	.	.	.	.	.	.	.	.
=72	=72	=72	=72	=72	=72	=72	=72	=72	=72	=72	=72	=72	=72	=72	=72	=72	=72	=72	=72	=72	=72	=72
4FF/	.	8g/L	.	8b-\L	.	.	.	.	.	.	.	.	.	2cc\	-ste	.	2.r	2.r	2.r	.	2.r	.
.	.	8f/	.	8a\J	.	.	.	.	.	.	.	.	.	.	.	.	.	.	.	.	.	.
4r	.	8b-/	.	8dd\L	.	.	.	.	.	.	.	.	.	.	.	.	.	.	.	.	.	.
.	.	8a/J	.	8cc\J	.	.	.	.	.	.	.	.	.	.	.	.	.	.	.	.	.	.
4r	.	8a/	.	8ff\L	.	.	.	.	.	.	.	.	.	4cc\	e-	.	.	.	.	.	.	.
.	.	8r	.	8dd\J	.	.	.	.	.	.	.	.	.	.	.	.	.	.	.	.	.	.
!	!	!	!	!LO:LB:g=original	!	!	!	!	!	!	!	!	!	!	!	!	!	!	!	!	!	!
=73	=73	=73	=73	=73	=73	=73	=73	=73	=73	=73	=73	=73	=73	=73	=73	=73	=73	=73	=73	=73	=73	=73
4C/	.	8a/L	.	8cc\L	.	.	.	.	.	.	.	.	.	2.cc\	-lei-	.	2.r	2.r	2.r	.	2.r	.
.	.	8g/	.	8b-\J	.	.	.	.	.	.	.	.	.	.	.	.	.	.	.	.	.	.
4r	.	8g/	.	8b-\L	.	.	.	.	.	.	.	.	.	.	.	.	.	.	.	.	.	.
.	.	8g/	.	8b-\	.	.	.	.	.	.	.	.	.	.	.	.	.	.	.	.	.	.
4r	.	8g/	.	8b-\	.	.	.	.	.	.	.	.	.	.	.	.	.	.	.	.	.	.
.	.	8a/J	.	8cc\J	.	.	.	.	.	.	.	.	.	.	.	.	.	.	.	.	.	.
=74	=74	=74	=74	=74	=74	=74	=74	=74	=74	=74	=74	=74	=74	=74	=74	=74	=74	=74	=74	=74	=74	=74
4FF/	.	8g/L	.	8b-\L	.	.	.	.	.	.	.	.	.	2cc\	-son	.	2.r	2.r	2.r	.	2.r	.
.	.	8f/	.	8a\	.	.	.	.	.	.	.	.	.	.	.	.	.	.	.	.	.	.
4r	.	8b-/	.	8dd\	.	.	.	.	.	.	.	.	.	.	.	.	.	.	.	.	.	.
.	.	8a/J	.	8cc\J	.	.	.	.	.	.	.	.	.	.	.	.	.	.	.	.	.	.
4r	.	4a/	.	4cc\	.	.	.	.	.	.	.	.	.	8ff\L	e-	.	.	.	.	.	.	.
.	.	.	.	.	.	.	.	.	.	.	.	.	.	8ee-X\J	.	.	.	.	.	.	.	.
=75	=75	=75	=75	=75	=75	=75	=75	=75	=75	=75	=75	=75	=75	=75	=75	=75	=75	=75	=75	=75	=75	=75
!LO:TX:a:t=P:problem=mixed beam	!	!	!	!	!	!	!	!	!	!	!	!	!	!	!	!	!	!	!	!	!	!
8BB-/L	.	8r	.	8ee-X\L	.	0.r	.	.	0.r	.	.	0.r	.	8ee-\L	-lei-	.	2.r	2.r	2.r	.	2.r	.
8B-\	.	8f/	.	8dd\J	.	.	.	.	.	.	.	.	.	8dd\J	.	.	.	.	.	.	.	.
*	*	*tremolo	*	*	*	*	*	*	*	*	*	*	*	*	*	*	*	*	*	*	*	*
8B-\	.	8f/L	.	4.dd\	.	.	.	.	.	.	.	.	.	4.dd\	-son	.	.	.	.	.	.	.
8B-\	.	8f/	.	.	.	.	.	.	.	.	.	.	.	.	.	.	.	.	.	.	.	.
8A\	6	8f/	.	.	.	.	.	.	.	.	.	.	.	.	.	.	.	.	.	.	.	.
8A\J	.	8f/J	.	8cc\	.	.	.	.	.	.	.	.	.	8cc\	e-	.	.	.	.	.	.	.
*	*	*Xtremolo	*	*	*	*	*	*	*	*	*	*	*	*	*	*	*	*	*	*	*	*
!	!	!LO:LB:g=original	!	!	!	!	!	!	!	!	!	!	!	!	!	!	!	!	!	!	!	!
=76	=76	=76	=76	=76	=76	=76	=76	=76	=76	=76	=76	=76	=76	=76	=76	=76	=76	=76	=76	=76	=76	=76
8G\L	6\	8en/L	.	8cc\L	.	.	.	.	.	.	.	.	.	8cc\L	-lei-	.	2.r	2.r	2.r	.	2.r	.
8G\	.	8e/	.	8b-\J	.	.	.	.	.	.	.	.	.	8b-\J	.	.	.	.	.	.	.	.
8En\	6 5	8g/	.	4.b-\	.	.	.	.	.	.	.	.	.	4.b-\	.	.	.	.	.	.	.	.
8E\	.	8g/	.	.	.	.	.	.	.	.	.	.	.	.	.	.	.	.	.	.	.	.
8F\	.	8f/	.	.	.	.	.	.	.	.	.	.	.	.	.	.	.	.	.	.	.	.
8F\J	.	8f/J	.	8a/	.	.	.	.	.	.	.	.	.	8a\	-son	.	.	.	.	.	.	.
!LO:LB:g=original	!	!	!	!	!	!	!	!	!	!	!	!	!	!	!	!	!	!	!	!	!	!
=77	=77	=77	=77	=77	=77	=77	=77	=77	=77	=77	=77	=77	=77	=77	=77	=77	=77	=77	=77	=77	=77	=77
.	.	.	.	16qqcc/	.	.	.	.	.	.	.	.	.	.	.	.	.	.	.	.	.	.
!LO:TX:a:t=P:problem=mixed beam	!	!	!	!	!	!	!	!	!	!	!	!	!	!	!	!	!	!	!	!	!	!
8B-\L	.	8d/L	.	8b-/L	.	.	.	.	.	.	.	.	.	8b-\	e-	.	2.r	2.r	2.r	.	2.r	.
8B-\	.	8d/	.	16a/L	.	.	.	.	.	.	.	.	.	16a\LL	-lei-	.	.	.	.	.	.	.
.	.	.	.	16g/JJ	.	.	.	.	.	.	.	.	.	16g\JJ	.	.	.	.	.	.	.	.
8c\	.	8c/	.	4f/	.	.	.	.	.	.	.	.	.	4f/	.	.	.	.	.	.	.	.
8c\	.	8c/	.	.	.	.	.	.	.	.	.	.	.	.	.	.	.	.	.	.	.	.
8C/	.	8G/	.	4fn/	.	.	.	.	.	.	.	.	.	4en/	.	.	.	.	.	.	.	.
8C/J	.	8G/J	.	.	.	.	.	.	.	.	.	.	.	.	.	.	.	.	.	.	.	.
=78	=78	=78	=78	=78	=78	=78	=78	=78	=78	=78	=78	=78	=78	=78	=78	=78	=78	=78	=78	=78	=78	=78
4F\	.	4A/	.	4f/	.	.	.	.	.	.	.	.	.	4f/	-son	.	2.r	2.r	2.r	.	2.r	.
!	!	!	!	!	!	!	!	!	!	!	!	!	!	!LO:LB:g=original	!	!	!	!	!	!	!	!
4r	.	4r	.	8a\L	.	.	.	.	.	.	.	.	.	8a\L	Chri-	.	.	.	.	.	.	.
.	.	.	.	8b-\	.	.	.	.	.	.	.	.	.	8b-\	.	.	.	.	.	.	.	.
4r	.	4r	.	8cc\	.	.	.	.	.	.	.	.	.	8cc\	-ste	.	.	.	.	.	.	.
.	.	.	.	8dd\J	.	.	.	.	.	.	.	.	.	8dd\J	e-	.	.	.	.	.	.	.
=79	=79	=79	=79	=79	=79	=79	=79	=79	=79	=79	=79	=79	=79	=79	=79	=79	=79	=79	=79	=79	=79	=79
2.F#X\	-7	2.a/	.	4ee-X\	.	0.r	.	.	0.r	.	.	0.r	.	4ee-X\	-lei-	.	2.r	2.r	2.r	.	2.r	.
.	6	.	.	4dd\	.	.	.	.	.	.	.	.	.	4dd\	.	.	.	.	.	.	.	.
.	5	.	.	4cc\	.	.	.	.	.	.	.	.	.	4cc\	.	.	.	.	.	.	.	.
!	!	!	!	!LO:LB:g=original	!	!	!	!	!	!	!	!	!	!	!	!	!	!	!	!	!	!
=80	=80	=80	=80	=80	=80	=80	=80	=80	=80	=80	=80	=80	=80	=80	=80	=80	=80	=80	=80	=80	=80	=80
4G\	5	4d/	.	8b-\L	.	.	.	.	.	.	.	.	.	8bn\L	.	.	2.r	2.r	2.r	.	2.r	.
.	.	.	.	8cc\J	.	.	.	.	.	.	.	.	.	8cc\	.	.	.	.	.	.	.	.
4r	.	4r	.	8dd\L	.	.	.	.	.	.	.	.	.	8dd\	.	.	.	.	.	.	.	.
.	.	.	.	8ee-X\J	.	.	.	.	.	.	.	.	.	8ee-\	.	.	.	.	.	.	.	.
4r	.	4r	.	8ff\L	.	.	.	.	.	.	.	.	.	8ff\	.	.	.	.	.	.	.	.
.	.	.	.	8gg\J	.	.	.	.	.	.	.	.	.	8gg\J	.	.	.	.	.	.	.	.
=81	=81	=81	=81	=81	=81	=81	=81	=81	=81	=81	=81	=81	=81	=81	=81	=81	=81	=81	=81	=81	=81	=81
2.BBn/	-7	2.d/	.	4aa-X\	.	.	.	.	.	.	.	.	.	4aa-X\	.	.	2.r	2.r	2.r	.	2.r	.
.	6	.	.	4gg\	.	.	.	.	.	.	.	.	.	4gg\	.	.	.	.	.	.	.	.
.	5	.	.	4ff\	.	.	.	.	.	.	.	.	.	4ff\	.	.	.	.	.	.	.	.
=82	=82	=82	=82	=82	=82	=82	=82	=82	=82	=82	=82	=82	=82	=82	=82	=82	=82	=82	=82	=82	=82	=82
4C/	-	4g/	.	4ee-\	.	.	.	.	.	.	.	.	.	4ee-\	.	.	2.r	2.r	2.r	.	2.r	.
4D/	6\	4f/	.	4dd\	.	.	.	.	.	.	.	.	.	4dd\	.	.	.	.	.	.	.	.
4E-/	6	4e-X/	.	4cc\	.	.	.	.	.	.	.	.	.	4cc\	.	.	.	.	.	.	.	.
=83	=83	=83	=83	=83	=83	=83	=83	=83	=83	=83	=83	=83	=83	=83	=83	=83	=83	=83	=83	=83	=83	=83
4F\	.	(4f/	.	4dd\	.	0.r	.	.	0.r	.	.	0.r	.	4dd\	.	.	2.r	2.r	2.r	.	2.r	.
4G\	4	4e-/	.	4cc\	.	.	.	.	.	.	.	.	.	4cc\	.	.	.	.	.	.	.	.
4GG/	5	4d/)	.	4bn\	.	.	.	.	.	.	.	.	.	4bn\	.	.	.	.	.	.	.	.
=84	=84	=84	=84	=84	=84	=84	=84	=84	=84	=84	=84	=84	=84	=84	=84	=84	=84	=84	=84	=84	=84	=84
4C/	.	4e-/	.	4cc\	.	.	.	.	.	.	.	.	.	4cc\	-son	.	2.r	2.r	2.r	.	2.r	.
4c\	.	4r	.	4r	.	.	.	.	.	.	.	.	.	4r	.	.	.	.	.	.	.	.
4B-\	.	4r	.	4r	.	.	.	.	.	.	.	.	.	4r	.	.	.	.	.	.	.	.
!	!	!LO:LB:g=original	!	!	!	!	!	!	!	!	!	!	!	!	!	!	!	!	!	!	!	!
=85	=85	=85	=85	=85	=85	=85	=85	=85	=85	=85	=85	=85	=85	=85	=85	=85	=85	=85	=85	=85	=85	=85
2.A\	6 5	2.f/	.	4r	.	.	.	.	.	.	.	.	.	4r	.	.	2.r	2.r	2.r	.	2.r	.
.	.	.	.	8cc\L	.	.	.	.	.	.	.	.	.	8cc\L	Chri-	.	.	.	.	.	.	.
.	.	.	.	8dd\	.	.	.	.	.	.	.	.	.	8dd\J	.	.	.	.	.	.	.	.
.	.	.	.	8ee-\	.	.	.	.	.	.	.	.	.	8ee-\	-ste	.	.	.	.	.	.	.
.	.	.	.	8ee-\J	.	.	.	.	.	.	.	.	.	8ee-\	e-	.	.	.	.	.	.	.
!LO:LB:g=original	!	!	!	!	!	!	!	!	!	!	!	!	!	!LO:LB:g=original	!	!	!	!	!	!	!	!
=86	=86	=86	=86	=86	=86	=86	=86	=86	=86	=86	=86	=86	=86	=86	=86	=86	=86	=86	=86	=86	=86	=86
4B-\	.	4f/	.	4dd\	.	.	.	.	.	.	.	.	.	4dd\	-lei-	.	2.r	2.r	2.r	.	2.r	.
4C/	6	4e-/	.	4cc\	.	.	.	.	.	.	.	.	.	4cc\	.	.	.	.	.	.	.	.
4D/	6	4d/	.	4b-X\	.	.	.	.	.	.	.	.	.	4b-\	.	.	.	.	.	.	.	.
=87	=87	=87	=87	=87	=87	=87	=87	=87	=87	=87	=87	=87	=87	=87	=87	=87	=87	=87	=87	=87	=87	=87
4E-\	.	4e-/	.	4cc\	.	0.r	.	.	0.r	.	.	0.r	.	4cc\	.	.	2.r	2.r	2.r	.	2.r	.
4F\	4	4d/	.	4b-\	.	.	.	.	.	.	.	.	.	4b-\	.	.	.	.	.	.	.	.
4FF/	3	4c/	.	4a\	.	.	.	.	.	.	.	.	.	4a\	.	.	.	.	.	.	.	.
!	!	!	!	!LO:LB:g=original	!	!	!	!	!	!	!	!	!	!	!	!	!	!	!	!	!	!
=88	=88	=88	=88	=88	=88	=88	=88	=88	=88	=88	=88	=88	=88	=88	=88	=88	=88	=88	=88	=88	=88	=88
4BB-/	.	4d/	.	8b-\L	.	.	.	.	.	.	.	.	.	8b-\	-son	.	2.r	2.r	2.r	.	2.r	.
.	.	.	.	8ff\	.	.	.	.	.	.	.	.	.	8ff\	e-	.	.	.	.	.	.	.
4r	.	4r	.	8ee-\	.	.	.	.	.	.	.	.	.	8ee-\L	-lei-	.	.	.	.	.	.	.
.	.	.	.	8dd\J	.	.	.	.	.	.	.	.	.	8dd\J	.	.	.	.	.	.	.	.
4D\	6	4f/	.	8cc\L	.	.	.	.	.	.	.	.	.	8cc\L	.	.	.	.	.	.	.	.
.	.	.	.	8b-\J	.	.	.	.	.	.	.	.	.	8b-\J	.	.	.	.	.	.	.	.
=89	=89	=89	=89	=89	=89	=89	=89	=89	=89	=89	=89	=89	=89	=89	=89	=89	=89	=89	=89	=89	=89	=89
4E-\	.	4g/	.	8gg\L	.	.	.	.	.	.	.	.	.	8gg\L	.	.	2.r	2.r	2.r	.	2.r	.
.	.	.	.	8ff\	.	.	.	.	.	.	.	.	.	8ff\	.	.	.	.	.	.	.	.
4r	.	4r	.	8ee-\	.	.	.	.	.	.	.	.	.	8ee-\	.	.	.	.	.	.	.	.
.	.	.	.	8dd\	.	.	.	.	.	.	.	.	.	8dd\	.	.	.	.	.	.	.	.
4E-\	6	4g/	.	8cc\	.	.	.	.	.	.	.	.	.	8cc\	.	.	.	.	.	.	.	.
.	5	.	.	8b-\J	.	.	.	.	.	.	.	.	.	8b-\J	.	.	.	.	.	.	.	.
=90	=90	=90	=90	=90	=90	=90	=90	=90	=90	=90	=90	=90	=90	=90	=90	=90	=90	=90	=90	=90	=90	=90
4F\	.	8f/L	.	8a\L	.	.	.	.	.	.	.	.	.	8a\L	.	.	2.r	2.r	2.r	.	2.r	.
.	.	8g/	.	8b-\J	.	.	.	.	.	.	.	.	.	8b-\	.	.	.	.	.	.	.	.
4r	.	8a/	.	8cc\L	.	.	.	.	.	.	.	.	.	8cc\	.	.	.	.	.	.	.	.
.	.	8b-/	.	8dd\	.	.	.	.	.	.	.	.	.	8dd\	.	.	.	.	.	.	.	.
4BB-/	.	8cc/	.	8ee-\	.	.	.	.	.	.	.	.	.	8ee-\	.	.	.	.	.	.	.	.
.	.	8b-/J	.	8dd\J	.	.	.	.	.	.	.	.	.	8dd\J	.	.	.	.	.	.	.	.
=91	=91	=91	=91	=91	=91	=91	=91	=91	=91	=91	=91	=91	=91	=91	=91	=91	=91	=91	=91	=91	=91	=91
.	.	.	.	16qqee-/	.	.	.	.	.	.	.	.	.	8qqee-/	.	.	.	.	.	.	.	.
4F\	4	8b-\L	.	8dd\L	.	2.r	.	.	2.r	.	.	2.r	.	8dd\L	.	.	2.r	2.r	2.r	.	2.r	.
.	.	16a\L	.	16cc\L	.	.	.	.	.	.	.	.	.	16cc\L	.	.	.	.	.	.	.	.
.	.	16b-\JJ	.	16dd\JJ	.	.	.	.	.	.	.	.	.	16dd\JJ	.	.	.	.	.	.	.	.
8F\L	5	4a\	.	4cc\	.	.	.	.	.	.	.	.	.	4cc\	-son	.	.	.	.	.	.	.
8E-\	.	.	.	.	.	.	.	.	.	.	.	.	.	.	.	.	.	.	.	.	.	.
8D\	.	4r	.	4r	.	.	.	.	.	.	.	.	.	4r	.	.	.	.	.	.	.	.
8C\J	.	.	.	.	.	.	.	.	.	.	.	.	.	.	.	.	.	.	.	.	.	.
=92	=92	=92	=92	=92	=92	=92	=92	=92	=92	=92	=92	=92	=92	=92	=92	=92	=92	=92	=92	=92	=92	=92
*	*	*tremolo	*	*	*	*	*	*	*	*	*	*	*	*	*	*	*	*	*	*	*	*
!LO:TX:a:t=P:problem=mixed beam	!	!	!	!	!	!	!	!	!	!	!LO:DY:a	!	!	!	!	!	!	!	!	!	!	!
8BB-/L	.	8d/L	.	4b-\	.	8B-\	Ki-	.	8d\	Ki-	p	8f\	Ki-	8b-\	Ki-	.	2.r	2.r	2.r	.	2.r	.
8B-\J	.	8d/	.	.	.	8B-\	-ri-	.	8d\	-ry-	.	8f\	-ry-	8b-\	-ry-	.	.	.	.	.	.	.
*tremolo	*	*	*	*	*	*	*	*	*	*	*	*	*	*	*	*	*	*	*	*	*	*
8B-\L	.	8d/	.	8r	.	4B-\	-e	.	4d\	-e	.	4f\	-e	4b-\	-e	.	.	.	.	.	.	.
8B-\	.	8d/	.	16b-\LL	.	.	.	.	.	.	.	.	.	.	.	.	.	.	.	.	.	.
.	.	.	.	16a\JJ	.	.	.	.	.	.	.	.	.	.	.	.	.	.	.	.	.	.
8B-\	.	8d/	.	8b-\L	.	8r	.	.	8r	.	.	8r	.	8r	.	.	.	.	.	.	.	.
8B-\J	.	8d/J	.	8dd\J	.	8B-\	e-	.	8d\	e-	.	8f\	e-	8dd\	e-	.	.	.	.	.	.	.
!	!	!	!	!	!	!	!	!	!	!	!	!	!	!LO:LB:g=original	!	!	!	!	!	!	!	!
=93	=93	=93	=93	=93	=93	=93	=93	=93	=93	=93	=93	=93	=93	=93	=93	=93	=93	=93	=93	=93	=93	=93
8G\L	5	8d/L	.	8cc\L	.	4G\	-lei-	.	4d\	-lei-	.	4g\	-lei-	8cc\L	-lei-	.	2.r	2.r	2.r	.	2.r	.
8G\	.	8d/	.	8b-\J	.	.	.	.	.	.	.	.	.	8b-\J	.	.	.	.	.	.	.	.
8G\	.	8d/	.	2b-\	.	4G\	-son	.	2d\	-son	.	2g\	-son	2b-\	-son	.	.	.	.	.	.	.
8G\	.	8d/	.	.	.	.	.	.	.	.	.	.	.	.	.	.	.	.	.	.	.	.
8G\	.	8d/	.	.	.	4r	.	.	.	.	.	.	.	.	.	.	.	.	.	.	.	.
8G\J	.	8d/J	.	.	.	.	.	.	.	.	.	.	.	.	.	.	.	.	.	.	.	.
=94	=94	=94	=94	=94	=94	=94	=94	=94	=94	=94	=94	=94	=94	=94	=94	=94	=94	=94	=94	=94	=94	=94
*	*	*	*	*	*	*	*ij	*	*	*ij	*	*	*	*	*	*	*	*	*	*	*	*
8D\L	6	8f/L	.	4b-\	.	8D\	e-	.	8d\	Ki-	.	8f\	Ki-	8b-\	Ki-	.	2.r	2.r	2.r	.	2.r	.
8D\	.	8f/	.	.	.	8D\	-lei-	.	8d\	-ry-	.	8f\	-ry-	8b-\	-ry-	.	.	.	.	.	.	.
8D\	.	8f/	.	8r	.	4D\	-son	.	4d\	-e	.	4f\	-e	4b-\	-e	.	.	.	.	.	.	.
*	*	*	*	*	*	*	*Xij	*	*	*	*	*	*	*	*	*	*	*	*	*	*	*
8D\	.	8f/	.	16b-\LL	.	.	.	.	.	.	.	.	.	.	.	.	.	.	.	.	.	.
.	.	.	.	16a\JJ	.	.	.	.	.	.	.	.	.	.	.	.	.	.	.	.	.	.
!	!	!	!	!LO:LB:g=original	!	!	!	!	!	!	!	!	!	!	!	!	!	!	!	!	!	!
8D\	.	8f/	.	8b-\L	.	8r	.	.	8r	.	.	8r	.	8r	.	.	.	.	.	.	.	.
8D\J	.	8f/J	.	8dd\J	.	8D\	Ki-	.	8B-\	e-	.	8f\	e-	8dd\	e-	.	.	.	.	.	.	.
=95	=95	=95	=95	=95	=95	=95	=95	=95	=95	=95	=95	=95	=95	=95	=95	=95	=95	=95	=95	=95	=95	=95
8E-\L	6	8g/L	.	8dd\L	.	4E-\	-ri-	.	4B-\	-lei-	.	4g\	-lei-	8dd\L	-lei-	.	2.r	2.r	2.r	.	2.r	.
8E-\	.	8g/	.	8cc\J	.	.	.	.	.	.	.	.	.	8cc\J	.	.	.	.	.	.	.	.
8E-\	.	8g/	.	2cc\	.	4E-\	-e	.	4B-\	-son	.	2g\	-son	4cc\	-son	.	.	.	.	.	.	.
*	*	*	*	*	*	*	*	*	*	*Xij	*	*	*	*	*	*	*	*	*	*	*	*
8E-\J	.	8g/	.	.	.	.	.	.	.	.	.	.	.	.	.	.	.	.	.	.	.	.
*Xtremolo	*	*	*	*	*	*	*	*	*	*	*	*	*	*	*	*	*	*	*	*	*	*
!LO:LB:g=original	!	!	!	!	!	!	!	!	!	!	!	!	!	!	!	!	!	!	!	!	!	!
8En\L	.	8g/	.	.	.	4r	.	.	4r	.	.	.	.	4r	.	.	.	.	.	.	.	.
8E\J	.	8g/J	.	.	.	.	.	.	.	.	.	.	.	.	.	.	.	.	.	.	.	.
*	*	*Xtremolo	*	*	*	*	*	*	*	*	*	*	*	*	*	*	*	*	*	*	*	*
!	!	!LO:LB:g=original	!	!	!	!	!	!	!	!	!	!LO:LB:g=original	!	!	!	!	!	!	!	!	!	!
=96	=96	=96	=96	=96	=96	=96	=96	=96	=96	=96	=96	=96	=96	=96	=96	=96	=96	=96	=96	=96	=96	=96
4F\	.	8a/	.	8.cc\L	.	4r	.	.	4r	.	.	4r	.	4r	.	.	2.r	2.r	2.r	.	2.r	.
.	.	4f/	.	.	.	.	.	.	.	.	.	.	.	.	.	.	.	.	.	.	.	.
.	.	.	.	16b-\Jk	.	.	.	.	.	.	.	.	.	.	.	.	.	.	.	.	.	.
4r	.	.	.	8a\L	.	4r	.	.	8r	.	.	8r	.	8r	.	.	.	.	.	.	.	.
.	.	4f/	.	8cc\	.	.	.	.	8c\	e-	.	8f\	Ki-	8cc\	e-	.	.	.	.	.	.	.
4A\	6	.	.	8ff\	.	4A\	e-	.	4c\	-lei-	.	4f\	-ri-	8ff\L	-lei-	.	.	.	.	.	.	.
.	5	8f/	.	8ee-\J	.	.	.	.	.	.	.	.	.	8ee-\J	.	.	.	.	.	.	.	.
!	!	!	!	!	!	!LO:LB:g=original	!	!	!LO:LB:g=original	!	!	!	!	!	!	!	!	!	!	!	!	!
=97	=97	=97	=97	=97	=97	=97	=97	=97	=97	=97	=97	=97	=97	=97	=97	=97	=97	=97	=97	=97	=97	=97
.	.	.	.	.	.	.	.	.	.	.	.	.	.	8qqee-/	.	.	.	.	.	.	.	.
4B-\	.	8f/	.	8ee-\L	.	4B-\	-lei-	.	4B-\	-son	.	4f\	-e	4dd\	-son	.	2.r	2.r	2.r	.	2.r	.
.	.	4f/	.	8dd\	.	.	.	.	.	.	.	.	.	.	.	.	.	.	.	.	.	.
4r	.	.	.	8dd\	.	4r	.	.	8r	.	.	8r	.	8r	.	.	.	.	.	.	.	.
*	*	*	*	*	*	*	*	*	*	*ij	*	*	*ij	*	*ij	*	*	*	*	*	*	*
.	.	4f/	.	8dd\	.	.	.	.	8B-\	e-	.	8f\	Ki-	8dd\	e-	.	.	.	.	.	.	.
4A\	.	.	.	8dd\	.	(4A\	-son	.	4c\	-lei-	.	4f\	-ri-	8cc\L	-lei-	.	.	.	.	.	.	.
.	.	8f/	.	8ff\J	.	.	.	.	.	.	.	.	.	8ee-\J	.	.	.	.	.	.	.	.
=98	=98	=98	=98	=98	=98	=98	=98	=98	=98	=98	=98	=98	=98	=98	=98	=98	=98	=98	=98	=98	=98	=98
4B-\	.	8f/	.	8ee-\L	.	4B-\)	.	.	4B-\	-son	.	4f\	-e	4dd\	-son	.	2.r	2.r	2.r	.	2.r	.
*	*	*	*	*	*	*	*	*	*	*Xij	*	*	*	*	*	*	*	*	*	*	*	*
.	.	4f/	.	8dd\	.	.	.	.	.	.	.	.	.	.	.	.	.	.	.	.	.	.
4r	.	.	.	8dd\	.	4r	.	.	4r	.	.	8r	.	8r	.	.	.	.	.	.	.	.
.	.	4d/	.	8dd\	.	.	.	.	.	.	.	8d\	Ki-	8dd\	e-	.	.	.	.	.	.	.
4F#X\	6	.	.	8dd\	.	4F#X\	e-	.	4A/	e-	.	4d\	-ri-	8dd\L	-lei-	.	.	.	.	.	.	.
.	.	8d/	.	8cc\J	.	.	.	.	.	.	.	.	.	8cc\J	.	.	.	.	.	.	.	.
=99	=99	=99	=99	=99	=99	=99	=99	=99	=99	=99	=99	=99	=99	=99	=99	=99	=99	=99	=99	=99	=99	=99
.	.	.	.	.	.	.	.	.	.	.	.	.	.	8qqcc/	.	.	.	.	.	.	.	.
4G\	.	8d/	.	8cc\L	.	4G\	-lei-	.	4G/	-lei-	.	4d\	-e	4b-\	-son	.	2.r	2.r	2.r	.	2.r	.
*	*	*	*	*	*	*	*	*	*	*	*	*	*Xij	*	*Xij	*	*	*	*	*	*	*
.	.	4d/	.	8b-\J	.	.	.	.	.	.	.	.	.	.	.	.	.	.	.	.	.	.
4r	.	.	.	8b-\L	.	4r	.	.	4r	.	.	8r	.	8r	.	.	.	.	.	.	.	.
.	.	4B-/	.	8b-\J	.	.	.	.	.	.	.	8f\	e-	8b-\	e-	.	.	.	.	.	.	.
4D\	6	.	.	8b-\L	.	(4D\	-son	.	4F/	.	.	8b-\L	-lei-	4b-\	-lei-	.	.	.	.	.	.	.
.	-5	8B-/	.	8a-X\J	.	.	.	.	.	.	.	8a-X\J	.	.	.	.	.	.	.	.	.	.
!	!	!	!	!	!	!	!	!	!	!	!	!	!	!LO:LB:g=original	!	!	!	!	!	!	!	!
=100	=100	=100	=100	=100	=100	=100	=100	=100	=100	=100	=100	=100	=100	=100	=100	=100	=100	=100	=100	=100	=100	=100
!	!	!	!	!LO:TX:a:t=P:problem=mixed beam	!	!	!	!	!	!	!	!	!	!	!	!	!	!	!	!	!	!
4E-\	.	4B-/	.	8g/L	.	4E-\)	.	.	4E-/	-son	.	4g\	-son	4b-\	-son	.	2.r	2.r	2.r	.	2.r	.
.	.	.	.	8gg\	.	.	.	.	.	.	.	.	.	.	.	.	.	.	.	.	.	.
4r	.	4r	.	8ff\	.	4r	.	.	4r	.	.	4r	.	4r	.	.	.	.	.	.	.	.
.	.	.	.	8ee-\	.	.	.	.	.	.	.	.	.	.	.	.	.	.	.	.	.	.
4r	.	4r	.	8dd\	.	4r	.	.	4r	.	.	4r	.	4r	.	.	.	.	.	.	.	.
.	.	.	.	8cc\J	.	.	.	.	.	.	.	.	.	.	.	.	.	.	.	.	.	.
!	!	!	!	!LO:LB:g=original	!	!	!	!	!	!	!	!	!	!	!	!	!	!	!	!	!	!
=101	=101	=101	=101	=101	=101	=101	=101	=101	=101	=101	=101	=101	=101	=101	=101	=101	=101	=101	=101	=101	=101	=101
4F\	.	4e-/	.	8b-/L	.	2.r	.	.	2.r	.	.	2.r	.	2.r	.	.	2.r	2.r	2.r	.	2.r	.
.	.	.	.	8a/	.	.	.	.	.	.	.	.	.	.	.	.	.	.	.	.	.	.
4r	.	4r	.	8g/	.	.	.	.	.	.	.	.	.	.	.	.	.	.	.	.	.	.
.	.	.	.	8f/J	.	.	.	.	.	.	.	.	.	.	.	.	.	.	.	.	.	.
4r	.	4r	.	8g/L	.	.	.	.	.	.	.	.	.	.	.	.	.	.	.	.	.	.
.	.	.	.	8a/J	.	.	.	.	.	.	.	.	.	.	.	.	.	.	.	.	.	.
=102	=102	=102	=102	=102	=102	=102	=102	=102	=102	=102	=102	=102	=102	=102	=102	=102	=102	=102	=102	=102	=102	=102
!	!	!	!LO:DY:a:rj:t=for.	!	!	!	!	!	!	!	!	!	!	!	!	!	!	!	!	!LO:DY:a:rj:t=f.	!	!
8BB-/L	.	16d/LL	f	4b-\	.	8D\	Ki-	.	8B-\	Ki-	.	8f\	Ki-	8b-\	Ki-	.	8d/L	8b-\L	2dd\	f	2bb-\	.
.	.	16b-/	.	.	.	.	.	.	.	.	.	.	.	.	.	.	.	.	.	.	.	.
8D/J	.	16d/	.	.	.	8D\	-ry-	.	8B-\	-ry-	.	8f\	-ry-	8b-\	-ry-	.	8d/J	8b-\J	.	.	.	.
.	.	16b-/JJ	.	.	.	.	.	.	.	.	.	.	.	.	.	.	.	.	.	.	.	.
*tremolo	*	*	*	*	*	*	*	*	*	*	*	*	*	*	*	*	*	*	*	*	*	*
8D\L	6	16f/LL	.	8r	.	4D\	-e	.	4B-\	-e	.	4f\	-e	4b-\	-e	.	8d/	4b-\	.	.	.	.
.	.	16b-/	.	.	.	.	.	.	.	.	.	.	.	.	.	.	.	.	.	.	.	.
8D\	.	16f/	.	16bb-\LL	.	.	.	.	.	.	.	.	.	.	.	.	8r	.	.	.	.	.
.	.	16b-/JJ	.	16aa\JJ	.	.	.	.	.	.	.	.	.	.	.	.	.	.	.	.	.	.
8D\	.	16f/LL	.	8bb-\L	.	8r	.	.	8r	.	.	8r	.	8r	.	.	4b-\	8r	4b-\	.	4dd\	.
.	.	16b-/	.	.	.	.	.	.	.	.	.	.	.	.	.	.	.	.	.	.	.	.
8D\J	.	16f/	.	8dd\J	.	8D\	e-	.	8B-\	e-	.	8f\	e-	8dd\	e-	.	.	8dd\	.	.	.	.
.	.	16b-/JJ	.	.	.	.	.	.	.	.	.	.	.	.	.	.	.	.	.	.	.	.
=103	=103	=103	=103	=103	=103	=103	=103	=103	=103	=103	=103	=103	=103	=103	=103	=103	=103	=103	=103	=103	=103	=103
*	*	*tremolo	*	*	*	*	*	*	*	*	*	*	*	*	*	*	*	*	*	*	*	*
8E-\L	6	16g/LL	.	8dd\L	.	4E-\	-lei-	.	4B-\	-lei-	.	4g\	-lei-	8dd\L	-lei-	.	8b-\L	8dd\L	8b-\L	.	8dd\L	.
.	.	16b-/	.	.	.	.	.	.	.	.	.	.	.	.	.	.	.	.	.	.	.	.
8E-\	.	16g/	.	8cc\J	.	.	.	.	.	.	.	.	.	8cc\J	.	.	8cc\J	8cc\J	8cc\J	.	8cc\J	.
.	.	16b-/	.	.	.	.	.	.	.	.	.	.	.	.	.	.	.	.	.	.	.	.
8E-\	.	16g/	.	2cc\	.	4E-\	-son	.	4B-\	-son	.	2g\	-son	4cc\	-son	.	4cc\	4cc\	2cc\	.	2cc\	.
.	.	16b-/	.	.	.	.	.	.	.	.	.	.	.	.	.	.	.	.	.	.	.	.
8E-\	.	16g/	.	.	.	.	.	.	.	.	.	.	.	.	.	.	.	.	.	.	.	.
.	.	16b-/	.	.	.	.	.	.	.	.	.	.	.	.	.	.	.	.	.	.	.	.
8E-\	.	16g/	.	.	.	4r	.	.	4r	.	.	.	.	4r	.	.	4r	4r	.	.	.	.
.	.	16b-/	.	.	.	.	.	.	.	.	.	.	.	.	.	.	.	.	.	.	.	.
8E-\J	.	16g/	.	.	.	.	.	.	.	.	.	.	.	.	.	.	.	.	.	.	.	.
.	.	16b-/JJ	.	.	.	.	.	.	.	.	.	.	.	.	.	.	.	.	.	.	.	.
!	!	!LO:LB:g=original	!	!	!	!	!	!	!	!	!	!	!	!	!	!	!	!	!	!	!	!
=104	=104	=104	=104	=104	=104	=104	=104	=104	=104	=104	=104	=104	=104	=104	=104	=104	=104	=104	=104	=104	=104	=104
*	*	*	*	*	*	*	*	*	*	*	*	*	*	*	*ij	*	*	*	*	*	*	*
8F\L	6 5	16c/LL	.	4ee-\	.	8F\	Ki-	.	8A\	Ki-	.	8a\	Ki-	8ee-\	Ki-	.	8f/L	8cc\L	2cc\	.	2ee-\	.
.	.	16a/	.	.	.	.	.	.	.	.	.	.	.	.	.	.	.	.	.	.	.	.
8F\	.	16c/	.	.	.	8F\	-ry-	.	8c\	-ri-	.	8a\	-ry-	8ee-\	-ry-	.	8f/J	8cc\J	.	.	.	.
.	.	16a/	.	.	.	.	.	.	.	.	.	.	.	.	.	.	.	.	.	.	.	.
8F\	.	16c/	.	8r	.	4F\	-e	.	4c\	-e	.	4a\	-e	4ee-\	-e	.	4f/	4cc\	.	.	.	.
.	.	16a/	.	.	.	.	.	.	.	.	.	.	.	.	.	.	.	.	.	.	.	.
8F\	.	16c/	.	16ee-\LL	.	.	.	.	.	.	.	.	.	.	.	.	.	.	.	.	.	.
.	.	16a/	.	16dd\JJ	.	.	.	.	.	.	.	.	.	.	.	.	.	.	.	.	.	.
8F\	.	16c/	.	8ee-\L	.	8r	.	.	8r	.	.	8r	.	8r	.	.	8r	8r	4cc\	.	4ee-\	.
.	.	16a/	.	.	.	.	.	.	.	.	.	.	.	.	.	.	.	.	.	.	.	.
8F\J	.	16c/	.	8ff\J	.	8F\	e-	.	8c\	e-	.	8a\	e-	8ee-\	e-	.	8cc\	8ee-\	.	.	.	.
.	.	16a/JJ	.	.	.	.	.	.	.	.	.	.	.	.	.	.	.	.	.	.	.	.
*	*	*Xtremolo	*	*	*	*	*	*	*	*	*	*	*	*	*	*	*	*	*	*	*	*
!	!	!	!	!	!	!	!	!	!LO:LB:g=original	!	!	!LO:LB:g=original	!	!	!	!	!	!	!	!	!	!
=105	=105	=105	=105	=105	=105	=105	=105	=105	=105	=105	=105	=105	=105	=105	=105	=105	=105	=105	=105	=105	=105	=105
8G\L	5	16cc\LL	.	8ee-\L	.	4G\	-lei-	.	4B-\	-lei-	.	8a\L	-lei-	8ee-\L	-lei-	.	8cc\L	8ee-\L	8cc\L	.	8ee-\L	.
.	.	16b-\	.	.	.	.	.	.	.	.	.	.	.	.	.	.	.	.	.	.	.	.
8G\	.	16a\	.	8dd\J	.	.	.	.	.	.	.	8b-\J	.	8dd\J	.	.	8b-\J	8dd\J	8b-\J	.	8dd\J	.
.	.	16b-\JJ	.	.	.	.	.	.	.	.	.	.	.	.	.	.	.	.	.	.	.	.
*	*	*rep	*	*	*	*	*	*	*	*	*	*	*	*	*	*	*	*	*	*	*	*
8G\	.	16cc\LL	.	2dd\	.	4G\	-son	.	4B-\	-son	.	4b-\	-son	4dd\	-son	.	4b-\	4dd\	2b-\	.	2dd\	.
*	*	*	*	*	*	*	*	*	*	*	*	*	*	*	*Xij	*	*	*	*	*	*	*
.	.	16b-\	.	.	.	.	.	.	.	.	.	.	.	.	.	.	.	.	.	.	.	.
8G\	.	16a\	.	.	.	.	.	.	.	.	.	.	.	.	.	.	.	.	.	.	.	.
.	.	16b-\JJ	.	.	.	.	.	.	.	.	.	.	.	.	.	.	.	.	.	.	.	.
*	*	*Xrep	*	*	*	*	*	*	*	*	*	*	*	*	*	*	*	*	*	*	*	*
*	*	*rep	*	*	*	*	*	*	*	*	*	*	*	*	*	*	*	*	*	*	*	*
8G\	.	16cc\LL	.	.	.	4r	.	.	4r	.	.	4r	.	4r	.	.	4r	4r	.	.	.	.
.	.	16b-\	.	.	.	.	.	.	.	.	.	.	.	.	.	.	.	.	.	.	.	.
8G\J	.	16a\	.	.	.	.	.	.	.	.	.	.	.	.	.	.	.	.	.	.	.	.
.	.	16b-\JJ	.	.	.	.	.	.	.	.	.	.	.	.	.	.	.	.	.	.	.	.
*Xtremolo	*	*Xrep	*	*	*	*	*	*	*	*	*	*	*	*	*	*	*	*	*	*	*	*
!LO:LB:g=original	!	!	!	!	!	!LO:LB:g=original	!	!	!	!	!	!	!	!	!	!	!	!	!	!	!	!
=106	=106	=106	=106	=106	=106	=106	=106	=106	=106	=106	=106	=106	=106	=106	=106	=106	=106	=106	=106	=106	=106	=106
*	*	*tremolo	*	*	*	*	*ij	*	*	*	*	*	*	*	*	*	*	*	*	*	*	*
!LO:TX:a:t=P:problem=mixed beam	!	!	!	!	!	!	!	!	!	!	!	!	!	!	!	!	!	!	!	!	!	!
8BB-/L	.	16B-/LL	.	4bb- 4b-\	.	8B-\	Ki-	.	8f\	Ki-	.	8b-\	Ki-	8dd\	Ki-	.	8B-/L	8b-\L	1.r	.	1.r	.
.	.	16f/	.	.	.	.	.	.	.	.	.	.	.	.	.	.	.	.	.	.	.	.
8B-\	.	16B-/	.	.	.	8B-\	-ry-	.	8f\	-ry-	.	8b-\	-ry-	8dd\	-ri-	.	8B-/J	8b-\J	.	.	.	.
.	.	16f/	.	.	.	.	.	.	.	.	.	.	.	.	.	.	.	.	.	.	.	.
8B-\	.	16B-/	.	8r	.	4B-\	-e	.	4f\	-e	.	4b-\	-e	4dd\	-e	.	4B-/	4b-\	.	.	.	.
.	.	16f/	.	.	.	.	.	.	.	.	.	.	.	.	.	.	.	.	.	.	.	.
8B-\	.	16B-/	.	16dd\LL	.	.	.	.	.	.	.	.	.	.	.	.	.	.	.	.	.	.
.	.	16f/	.	16cc\JJ	.	.	.	.	.	.	.	.	.	.	.	.	.	.	.	.	.	.
8A-X\	4 2	16B-/	.	8dd\L	.	8r	.	.	8r	.	.	8r	.	8r	.	.	4B-/	4b-\	.	.	.	.
.	.	16f/	.	.	.	.	.	.	.	.	.	.	.	.	.	.	.	.	.	.	.	.
8A-\J	.	16B-/	.	8ff\J	.	8A-X\	e-	.	8d\	e-	.	8b-\	e-	8ff\	e-	.	.	.	.	.	.	.
.	.	16f/JJ	.	.	.	.	.	.	.	.	.	.	.	.	.	.	.	.	.	.	.	.
!	!	!	!	!	!	!	!	!	!	!	!	!	!	!LO:LB:g=original	!	!	!	!	!	!	!	!
=107	=107	=107	=107	=107	=107	=107	=107	=107	=107	=107	=107	=107	=107	=107	=107	=107	=107	=107	=107	=107	=107	=107
*tremolo	*	*	*	*	*	*	*	*	*	*	*	*	*	*	*	*	*	*	*	*	*	*
8G\L	6	16b-\LL	.	8ff\L	.	4G\	-lei-	.	4B-\	-lei-	.	4b-\	-lei-	8ff\L	-lei-	.	4B-/	4b-\	.	.	.	.
.	.	16b-\	.	.	.	.	.	.	.	.	.	.	.	.	.	.	.	.	.	.	.	.
8G\	.	16b-\	.	8ee-\J	.	.	.	.	.	.	.	.	.	8ee-\J	.	.	.	.	.	.	.	.
.	.	16b-\	.	.	.	.	.	.	.	.	.	.	.	.	.	.	.	.	.	.	.	.
8G\	.	16b-\	.	2ee-\	.	4G\	-son	.	4G/	-son	.	4b-\	-son	2ee-\	-son	.	8r	8r	.	.	.	.
*	*	*	*	*	*	*	*Xij	*	*	*	*	*	*	*	*	*	*	*	*	*	*	*
.	.	16b-\	.	.	.	.	.	.	.	.	.	.	.	.	.	.	.	.	.	.	.	.
8G\	.	16b-\	.	.	.	.	.	.	.	.	.	.	.	.	.	.	8B-/L	8b-\L	.	.	.	.
.	.	16b-\	.	.	.	.	.	.	.	.	.	.	.	.	.	.	.	.	.	.	.	.
8G\	.	16b-\	.	.	.	4r	.	.	4r	.	.	4r	.	.	.	.	8B-/	8b-\	.	.	.	.
.	.	16b-\	.	.	.	.	.	.	.	.	.	.	.	.	.	.	.	.	.	.	.	.
8G\J	.	16b-\	.	.	.	.	.	.	.	.	.	.	.	.	.	.	8B-/J	8b-\J	.	.	.	.
.	.	16b-\JJ	.	.	.	.	.	.	.	.	.	.	.	.	.	.	.	.	.	.	.	.
!	!	!	!	!LO:LB:g=original	!	!	!	!	!	!	!	!	!	!	!	!	!	!	!	!	!	!
=108	=108	=108	=108	=108	=108	=108	=108	=108	=108	=108	=108	=108	=108	=108	=108	=108	=108	=108	=108	=108	=108	=108
8An\L	6 4	16f/LL	.	4.ee- 4.f\	.	2An\	Ki-	.	2c\	Ki-	.	2f\	Ki-	2ee-\	Ki-	.	2.f/	2.cc\	2.ee-\	.	2.ff\	.
.	.	16cc/	.	.	.	.	.	.	.	.	.	.	.	.	.	.	.	.	.	.	.	.
8A\	.	16f/	.	.	.	.	.	.	.	.	.	.	.	.	.	.	.	.	.	.	.	.
.	.	16cc/	.	.	.	.	.	.	.	.	.	.	.	.	.	.	.	.	.	.	.	.
8A\	.	16f/	.	.	.	.	.	.	.	.	.	.	.	.	.	.	.	.	.	.	.	.
.	.	16cc/	.	.	.	.	.	.	.	.	.	.	.	.	.	.	.	.	.	.	.	.
8A\	.	16f/	.	8cc/L	.	.	.	.	.	.	.	.	.	.	.	.	.	.	.	.	.	.
.	.	16cc/	.	.	.	.	.	.	.	.	.	.	.	.	.	.	.	.	.	.	.	.
8A\	.	16f/	.	8a/	.	4A\	-ri-	.	4c\	-ri-	.	4f\	-ry-	4ee-\	-ry-	.	.	.	.	.	.	.
.	.	16cc/	.	.	.	.	.	.	.	.	.	.	.	.	.	.	.	.	.	.	.	.
8A\J	.	16f/	.	8e-/J	.	.	.	.	.	.	.	.	.	.	.	.	.	.	.	.	.	.
.	.	16cc/JJ	.	.	.	.	.	.	.	.	.	.	.	.	.	.	.	.	.	.	.	.
!	!	!	!	!	!	!	!	!	!	!	!	!	!	!	!	!	!	!	!LO:LB:g=original	!	!	!
=109	=109	=109	=109	=109	=109	=109	=109	=109	=109	=109	=109	=109	=109	=109	=109	=109	=109	=109	=109	=109	=109	=109
8B-\L	.	16f/LL	.	8d/L	.	2B-\	-e	.	2B-\	-e	.	2f\	-e-	2dd\	-e	.	2.b-\	2.dd\	2.dd\	.	2.ff\	.
.	.	16dd/	.	.	.	.	.	.	.	.	.	.	.	.	.	.	.	.	.	.	.	.
8B-\	.	16f/	.	8f/J	.	.	.	.	.	.	.	.	.	.	.	.	.	.	.	.	.	.
.	.	16dd/	.	.	.	.	.	.	.	.	.	.	.	.	.	.	.	.	.	.	.	.
8B-\	.	16f/	.	8b-/L	.	.	.	.	.	.	.	.	.	.	.	.	.	.	.	.	.	.
.	.	16dd/	.	.	.	.	.	.	.	.	.	.	.	.	.	.	.	.	.	.	.	.
8B-\	.	16f/	.	8dd/J	.	.	.	.	.	.	.	.	.	.	.	.	.	.	.	.	.	.
.	.	16dd/	.	.	.	.	.	.	.	.	.	.	.	.	.	.	.	.	.	.	.	.
8B-\	.	16f/	.	8ff\L	.	4B-\	e-	.	4B-\	e-	.	4f\	-lei-	4dd\	e-	.	.	.	.	.	.	.
.	.	16dd/	.	.	.	.	.	.	.	.	.	.	.	.	.	.	.	.	.	.	.	.
8B-\J	.	16f/	.	8bb-\J	.	.	.	.	.	.	.	.	.	.	.	.	.	.	.	.	.	.
.	.	16dd/JJ	.	.	.	.	.	.	.	.	.	.	.	.	.	.	.	.	.	.	.	.
=110	=110	=110	=110	=110	=110	=110	=110	=110	=110	=110	=110	=110	=110	=110	=110	=110	=110	=110	=110	=110	=110	=110
8A\L	6 5	16f/LL	.	4.ee- 4.f\	.	2.A\	-lei-	.	2.c\	-lei-	.	2.f\	-son	2.ee-\	-lei-	.	4f/	4cc\	2.ee-\	.	2.ff\	.
.	.	16cc/	.	.	.	.	.	.	.	.	.	.	.	.	.	.	.	.	.	.	.	.
8A\	.	16f/	.	.	.	.	.	.	.	.	.	.	.	.	.	.	.	.	.	.	.	.
.	.	16cc/	.	.	.	.	.	.	.	.	.	.	.	.	.	.	.	.	.	.	.	.
8A\	.	16f/	.	.	.	.	.	.	.	.	.	.	.	.	.	.	4f/	4cc\	.	.	.	.
.	.	16cc/	.	.	.	.	.	.	.	.	.	.	.	.	.	.	.	.	.	.	.	.
8A\	.	16f/	.	8cc/L	.	.	.	.	.	.	.	.	.	.	.	.	.	.	.	.	.	.
.	.	16cc/	.	.	.	.	.	.	.	.	.	.	.	.	.	.	.	.	.	.	.	.
8A\	.	16f/	.	8a/	.	.	.	.	.	.	.	.	.	.	.	.	4g/	4cc\	.	.	.	.
.	.	16cc/	.	.	.	.	.	.	.	.	.	.	.	.	.	.	.	.	.	.	.	.
8A\J	.	16f/	.	8e-/J	.	.	.	.	.	.	.	.	.	.	.	.	.	.	.	.	.	.
.	.	16cc/JJ	.	.	.	.	.	.	.	.	.	.	.	.	.	.	.	.	.	.	.	.
*Xtremolo	*	*	*	*	*	*	*	*	*	*	*	*	*	*	*	*	*	*	*	*	*	*
=111	=111	=111	=111	=111	=111	=111	=111	=111	=111	=111	=111	=111	=111	=111	=111	=111	=111	=111	=111	=111	=111	=111
8B-\L	.	16f/LL	.	8d/L	.	2B-\	.	.	2B-\	-son	.	2f\	e-	2dd\	-son	.	4b-\	4dd\	2dd\	.	2ff\	.
.	.	16dd/	.	.	.	.	.	.	.	.	.	.	.	.	.	.	.	.	.	.	.	.
8B-\	.	16f/	.	8f/J	.	.	.	.	.	.	.	.	.	.	.	.	.	.	.	.	.	.
.	.	16dd/	.	.	.	.	.	.	.	.	.	.	.	.	.	.	.	.	.	.	.	.
8B-\	.	16f/	.	8b-\L	.	.	.	.	.	.	.	.	.	.	.	.	4b-\	4dd\	.	.	.	.
.	.	16dd/	.	.	.	.	.	.	.	.	.	.	.	.	.	.	.	.	.	.	.	.
8B-\	.	16f/	.	8dd\J	.	.	.	.	.	.	.	.	.	.	.	.	.	.	.	.	.	.
.	.	16dd/	.	.	.	.	.	.	.	.	.	.	.	.	.	.	.	.	.	.	.	.
8D\	6	16f/	.	8ff\L	.	4D\	-son	.	4B-\	e-	.	4f\	-lei-	4b-\	e-	.	4r	4r	4ff\	.	4bb-\	.
.	.	16dd/	.	.	.	.	.	.	.	.	.	.	.	.	.	.	.	.	.	.	.	.
8D\J	.	16f/	.	8bb-\J	.	.	.	.	.	.	.	.	.	.	.	.	.	.	.	.	.	.
.	.	16dd/JJ	.	.	.	.	.	.	.	.	.	.	.	.	.	.	.	.	.	.	.	.
!	!	!	!	!	!	!	!	!	!	!	!	!	!	!	!	!	!	!LO:LB:g=original	!	!	!	!
=112	=112	=112	=112	=112	=112	=112	=112	=112	=112	=112	=112	=112	=112	=112	=112	=112	=112	=112	=112	=112	=112	=112
.	.	.	.	8qqaa/	.	.	.	.	.	.	.	.	.	.	.	.	.	.	.	.	.	.
8E-\L	.	16b-\LL	.	8gg\L	.	4E-\	Ki-	.	4B-\	-lei-	.	4g\	-son	4b-\	-lei-	.	2.r	2.r	4b-\	.	4bb-\	.
.	.	16b-\	.	.	.	.	.	.	.	.	.	.	.	.	.	.	.	.	.	.	.	.
8E-\	.	16b-\	.	16ff\L	.	.	.	.	.	.	.	.	.	.	.	.	.	.	.	.	.	.
.	.	16b-\JJ	.	16gg\JJ	.	.	.	.	.	.	.	.	.	.	.	.	.	.	.	.	.	.
.	.	.	.	8qqbb-/	.	.	.	.	.	.	.	.	.	.	.	.	.	.	.	.	.	.
8C\	6	16ee-\LL	.	8aa\L	.	4C/	-ri-	.	4c\	.	.	4a\	Ki-	4ee-\	.	.	.	.	4ee-\	.	4bb-\	.
.	.	16ee-\	.	.	.	.	.	.	.	.	.	.	.	.	.	.	.	.	.	.	.	.
8C\	.	16ee-\	.	16gg\L	.	.	.	.	.	.	.	.	.	.	.	.	.	.	.	.	.	.
.	.	16ee-\JJ	.	16aa\JJ	.	.	.	.	.	.	.	.	.	.	.	.	.	.	.	.	.	.
.	.	.	.	16qqccc/	.	.	.	.	.	.	.	.	.	.	.	.	.	.	.	.	.	.
8BB-\	.	16dd\LL	.	8bb-\L	.	4BB-/	-e	.	4B-\	-son	.	4b-\	-ri-	4dd\	.	.	.	.	4dd\	.	4bb-\	.
.	.	16dd\	.	.	.	.	.	.	.	.	.	.	.	.	.	.	.	.	.	.	.	.
8BB-\J	.	16dd\	.	16aa\L	.	.	.	.	.	.	.	.	.	.	.	.	.	.	.	.	.	.
.	.	16dd\JJ	.	16bb-\JJ	.	.	.	.	.	.	.	.	.	.	.	.	.	.	.	.	.	.
*	*	*Xtremolo	*	*	*	*	*	*	*	*	*	*	*	*	*	*	*	*	*	*	*	*
!	!	!LO:LB:g=original	!	!	!	!	!	!	!	!	!	!	!	!	!	!	!	!	!	!	!	!
=113	=113	=113	=113	=113	=113	=113	=113	=113	=113	=113	=113	=113	=113	=113	=113	=113	=113	=113	=113	=113	=113	=113
*tremolo	*	*	*	*	*	*	*	*	*	*	*	*	*	*	*	*	*	*	*	*	*	*
8En\L	6 5	16dd\LL	.	8bb- 8cc\	.	4En\	e-	.	4B-\	e-	.	4g\	-e-	4cc\	.	.	4cc\	4cc\	2.cc\	.	2bb-\	.
.	.	16cc\	.	.	.	.	.	.	.	.	.	.	.	.	.	.	.	.	.	.	.	.
8E\	.	16b-\	.	4bb- 4cc\	.	.	.	.	.	.	.	.	.	.	.	.	.	.	.	.	.	.
.	.	16cc\JJ	.	.	.	.	.	.	.	.	.	.	.	.	.	.	.	.	.	.	.	.
*	*	*rep	*	*	*	*	*	*	*	*	*	*	*	*	*	*	*	*	*	*	*	*
8E\	.	16dd\LL	.	.	.	2E\	-lei-	.	2B-\	-lei-	.	2g\	-lei-	2cc\	.	.	4cc\	4cc\	.	.	.	.
.	.	16cc\	.	.	.	.	.	.	.	.	.	.	.	.	.	.	.	.	.	.	.	.
8E\	.	16b-\	.	4bb- 4cc\	.	.	.	.	.	.	.	.	.	.	.	.	.	.	.	.	.	.
.	.	16cc\JJ	.	.	.	.	.	.	.	.	.	.	.	.	.	.	.	.	.	.	.	.
*	*	*Xrep	*	*	*	*	*	*	*	*	*	*	*	*	*	*	*	*	*	*	*	*
8E\	.	16ee-\LL	.	.	.	.	.	.	.	.	.	.	.	.	.	.	4cc\	4cc\	.	.	4aa\	.
.	.	16cc\	.	.	.	.	.	.	.	.	.	.	.	.	.	.	.	.	.	.	.	.
8E\J	.	16b-\	.	8bb- 8cc\	.	.	.	.	.	.	.	.	.	.	.	.	.	.	.	.	.	.
.	.	16cc\JJ	.	.	.	.	.	.	.	.	.	.	.	.	.	.	.	.	.	.	.	.
*Xtremolo	*	*	*	*	*	*	*	*	*	*	*	*	*	*	*	*	*	*	*	*	*	*
!	!	!	!	!LO:LB:g=original	!	!	!	!	!LO:LB:g=original	!	!	!LO:LB:g=original	!	!	!	!	!LO:LB:g=original	!	!	!	!LO:LB:g=original	!
=114	=114	=114	=114	=114	=114	=114	=114	=114	=114	=114	=114	=114	=114	=114	=114	=114	=114	=114	=114	=114	=114	=114
!	!	!	!	!	!LO:DY:a:rj	!	!	!	!	!	!	!	!	!	!	!	!	!	!	!	!	!
4F\	.	4cc\	.	8aa\L	p	4F\	-son	.	4A\	-son	.	4a\	-son	4cc\	-son	.	4f/	4cc\	4cc\	.	4bb-\	.
.	.	.	.	8ccc\	.	.	.	.	.	.	.	.	.	.	.	.	.	.	.	.	.	.
4r	.	4r	.	(8bb-\	.	4r	.	.	4r	.	.	4r	.	4r	.	.	4r	4r	4r	.	4r	.
.	.	.	.	8aa\J)	.	.	.	.	.	.	.	.	.	.	.	.	.	.	.	.	.	.
4r	.	4r	.	8gg\L	.	4r	.	.	4r	.	.	4r	.	4r	.	.	4r	4r	4r	.	4r	.
.	.	.	.	8ff\J	.	.	.	.	.	.	.	.	.	.	.	.	.	.	.	.	.	.
!LO:LB:g=original	!	!	!	!	!	!	!	!	!	!	!	!	!	!	!	!	!	!	!	!	!	!
=115	=115	=115	=115	=115	=115	=115	=115	=115	=115	=115	=115	=115	=115	=115	=115	=115	=115	=115	=115	=115	=115	=115
!	!	!	!LO:DY:a	!	!	!	!	!	!	!	!	!	!	!	!	!	!	!	!	!	!LO:TX:a:t=13	!
4r	.	8f/	p	8ff\L	.	0.r	.	.	0.r	.	.	0.r	.	0.r	.	.	0.r	0.r	2.r	.	2.r	.
.	.	4f/	.	8ee-\J	.	.	.	.	.	.	.	.	.	.	.	.	.	.	.	.	.	.
(4A\	.	.	.	4.ee-\	.	.	.	.	.	.	.	.	.	.	.	.	.	.	.	.	.	.
.	.	4f/	.	.	.	.	.	.	.	.	.	.	.	.	.	.	.	.	.	.	.	.
4B-\)	.	.	.	.	.	.	.	.	.	.	.	.	.	.	.	.	.	.	.	.	.	.
.	.	8f/	.	8dd\	.	.	.	.	.	.	.	.	.	.	.	.	.	.	.	.	.	.
=116	=116	=116	=116	=116	=116	=116	=116	=116	=116	=116	=116	=116	=116	=116	=116	=116	=116	=116	=116	=116	=116	=116
4r	.	8f/	.	8dd\L	.	.	.	.	.	.	.	.	.	.	.	.	.	.	4r	.	2.r	.
.	.	4f/	.	8cc\J	.	.	.	.	.	.	.	.	.	.	.	.	.	.	.	.	.	.
(4e-\	.	.	.	4.cc\	.	.	.	.	.	.	.	.	.	.	.	.	.	.	4r	.	.	.
.	.	4f/	.	.	.	.	.	.	.	.	.	.	.	.	.	.	.	.	.	.	.	.
4d\)	.	.	.	.	.	.	.	.	.	.	.	.	.	.	.	.	.	.	4ff\	.	.	.
.	.	8f/	.	8b-\	.	.	.	.	.	.	.	.	.	.	.	.	.	.	.	.	.	.
=117	=117	=117	=117	=117	=117	=117	=117	=117	=117	=117	=117	=117	=117	=117	=117	=117	=117	=117	=117	=117	=117	=117
4r	.	8f/	.	8ff\L	.	.	.	.	.	.	.	.	.	.	.	.	.	.	2.ff\	.	2.r	.
.	.	4f/	.	8ee-\J	.	.	.	.	.	.	.	.	.	.	.	.	.	.	.	.	.	.
(4A\	.	.	.	4.ee-\	.	.	.	.	.	.	.	.	.	.	.	.	.	.	.	.	.	.
.	.	4f/	.	.	.	.	.	.	.	.	.	.	.	.	.	.	.	.	.	.	.	.
4B-\)	.	.	.	.	.	.	.	.	.	.	.	.	.	.	.	.	.	.	.	.	.	.
.	.	8f/	.	8dd\	.	.	.	.	.	.	.	.	.	.	.	.	.	.	.	.	.	.
=118	=118	=118	=118	=118	=118	=118	=118	=118	=118	=118	=118	=118	=118	=118	=118	=118	=118	=118	=118	=118	=118	=118
4r	.	8f/	.	8dd\L	.	.	.	.	.	.	.	.	.	.	.	.	.	.	2.ff\	.	2.r	.
.	.	4f/	.	8cc\J	.	.	.	.	.	.	.	.	.	.	.	.	.	.	.	.	.	.
(4e-\	.	.	.	4.cc\	.	.	.	.	.	.	.	.	.	.	.	.	.	.	.	.	.	.
.	.	4f/	.	.	.	.	.	.	.	.	.	.	.	.	.	.	.	.	.	.	.	.
4d\)	.	.	.	.	.	.	.	.	.	.	.	.	.	.	.	.	.	.	.	.	.	.
.	.	8f/	.	8b-\	.	.	.	.	.	.	.	.	.	.	.	.	.	.	.	.	.	.
=119	=119	=119	=119	=119	=119	=119	=119	=119	=119	=119	=119	=119	=119	=119	=119	=119	=119	=119	=119	=119	=119	=119
4F\	.	8f/L	.	8a\L	.	1.r	.	.	1.r	.	.	1.r	.	1.r	.	.	1.r	1.r	4ff\	.	2.r	.
.	.	8a/	.	8cc\J	.	.	.	.	.	.	.	.	.	.	.	.	.	.	.	.	.	.
4r	.	8g/	.	8b-\L	.	.	.	.	.	.	.	.	.	.	.	.	.	.	4r	.	.	.
.	.	8b-/	.	8dd\J	.	.	.	.	.	.	.	.	.	.	.	.	.	.	.	.	.	.
4r	.	8a/	.	8cc\L	.	.	.	.	.	.	.	.	.	.	.	.	.	.	4r	.	.	.
.	.	8cc/J	.	8ee-\J	.	.	.	.	.	.	.	.	.	.	.	.	.	.	.	.	.	.
!	!	!LO:LB:g=original	!	!LO:LB:g=original	!	!	!	!	!	!	!	!	!	!	!	!	!	!	!	!	!	!
=120	=120	=120	=120	=120	=120	=120	=120	=120	=120	=120	=120	=120	=120	=120	=120	=120	=120	=120	=120	=120	=120	=120
2.r	.	(8b-\L	.	8dd\L	.	.	.	.	.	.	.	.	.	.	.	.	.	.	2.r	.	2.r	.
.	.	8dd\	.	8ff\J	.	.	.	.	.	.	.	.	.	.	.	.	.	.	.	.	.	.
.	.	8cc\	.	8ee-\L	.	.	.	.	.	.	.	.	.	.	.	.	.	.	.	.	.	.
.	.	8ee-\	.	8gg\	.	.	.	.	.	.	.	.	.	.	.	.	.	.	.	.	.	.
.	.	8dd\)	.	8ff\	.	.	.	.	.	.	.	.	.	.	.	.	.	.	.	.	.	.
.	.	8cc\J	.	8aa\J	.	.	.	.	.	.	.	.	.	.	.	.	.	.	.	.	.	.
!	!	!	!	!	!	!LO:LB:g=original	!	!	!	!	!	!	!	!	!	!	!	!	!	!	!	!
=121	=121	=121	=121	=121	=121	=121	=121	=121	=121	=121	=121	=121	=121	=121	=121	=121	=121	=121	=121	=121	=121	=121
*tremolo	*	*	*	*	*	*	*	*	*	*	*	*	*	*	*	*	*	*	*	*	*	*
!	!	!	!	!	!LO:DY:a:rj	!	!	!	!	!	!	!	!	!	!	!	!	!	!	!LO:DY:a	!	!
8BB-/L	.	16d/LL	.	16bb-\LL	f	8B-\	Ki-	.	8d\	Ki-	.	8f\	Ki-	8b-\	Ki-	.	8B-/L	8b-\L	2dd\	f	2.r	.
.	.	16b-/	.	16ccc\	.	.	.	.	.	.	.	.	.	.	.	.	.	.	.	.	.	.
8BB-/	.	16d/	.	16ddd\	.	8B-\	-ri-	.	8d\	-ry-	.	8f\	-ri-	8b-\	-ri-	.	8B-/J	8b-\J	.	.	.	.
.	.	16b-/JJ	.	16ccc\JJ	.	.	.	.	.	.	.	.	.	.	.	.	.	.	.	.	.	.
8BB-/	.	16f/LL	.	16bb-\LL	.	4B-\	-e	.	4d\	-e	.	4f\	-e	4b-\	-e	.	4B-/	4b-\	.	.	.	.
.	.	16b-/	.	16ccc\	.	.	.	.	.	.	.	.	.	.	.	.	.	.	.	.	.	.
8BB-/J	.	16f/	.	16ddd\	.	.	.	.	.	.	.	.	.	.	.	.	.	.	.	.	.	.
.	.	16b-/JJ	.	16ccc\JJ	.	.	.	.	.	.	.	.	.	.	.	.	.	.	.	.	.	.
*Xtremolo	*	*	*	*	*	*	*	*	*	*	*	*	*	*	*	*	*	*	*	*	*	*
8B-\L	6	16f/LL	.	8.bb-\L	.	8r	.	.	8r	.	.	8r	.	8r	.	.	4B-/	4b-\	4ff\	.	.	.
.	.	16b-/	.	.	.	.	.	.	.	.	.	.	.	.	.	.	.	.	.	.	.	.
8B-\J	7	16f/	.	.	.	8B-\	e-	.	8f\	e-	.	8f\	e-	8a-X\	e-	.	.	.	.	.	.	.
.	.	16b-/JJ	.	16aa-X\Jk	.	.	.	.	.	.	.	.	.	.	.	.	.	.	.	.	.	.
!	!	!	!	!	!	!	!	!	!	!	!	!	!	!LO:LB:g=original	!	!	!	!	!LO:LB:g=original	!	!	!
=122	=122	=122	=122	=122	=122	=122	=122	=122	=122	=122	=122	=122	=122	=122	=122	=122	=122	=122	=122	=122	=122	=122
*tremolo	*	*	*	*	*	*	*	*	*	*	*	*	*	*	*	*	*	*	*	*	*	*
8B-\L	6 4	16g/LL	.	16aa-X\LL	.	2B-\	-lei-	.	2e-\	-lei-	.	2g\	-lei-	2g\	-lei-	.	4B-/	4b-\	2ee-\	.	2.r	.
.	.	16b-/	.	16gg\	.	.	.	.	.	.	.	.	.	.	.	.	.	.	.	.	.	.
8B-\	.	16g/	.	16ff\	.	.	.	.	.	.	.	.	.	.	.	.	.	.	.	.	.	.
.	.	16b-/JJ	.	16gg\JJ	.	.	.	.	.	.	.	.	.	.	.	.	.	.	.	.	.	.
*	*	*rep	*	*	*	*	*	*	*	*	*	*	*	*	*	*	*	*	*	*	*	*
8B-\	5	16g/LL	.	16aa-\LL	.	.	.	.	.	.	.	.	.	.	.	.	4B-/	4b-\	.	.	.	.
.	.	16b-/	.	16gg\	.	.	.	.	.	.	.	.	.	.	.	.	.	.	.	.	.	.
8B-\	.	16g/	.	16ff\	.	.	.	.	.	.	.	.	.	.	.	.	.	.	.	.	.	.
.	.	16b-/JJ	.	16gg\JJ	.	.	.	.	.	.	.	.	.	.	.	.	.	.	.	.	.	.
*	*	*Xrep	*	*	*	*	*	*	*	*	*	*	*	*	*	*	*	*	*	*	*	*
8B-\	7 2	16e-/LL	.	16bb-\LL	.	4B-\	-son	.	4c\	-son	.	4f\	-son	4an\	-son	.	4r	4r	4cc\	.	.	.
.	.	16a/	.	16aan\	.	.	.	.	.	.	.	.	.	.	.	.	.	.	.	.	.	.
8B-\J	.	16e-/	.	16gg\	.	.	.	.	.	.	.	.	.	.	.	.	.	.	.	.	.	.
.	.	16a/JJ	.	16aa\JJ	.	.	.	.	.	.	.	.	.	.	.	.	.	.	.	.	.	.
=123	=123	=123	=123	=123	=123	=123	=123	=123	=123	=123	=123	=123	=123	=123	=123	=123	=123	=123	=123	=123	=123	=123
*	*	*	*	*	*	*	*	*	*	*ij	*	*	*ij	*	*ij	*	*	*	*	*	*	*
8B-\L	8 3	16d/LL	.	16bb-\LL	.	8B-\	Ki-	.	8d\	Ki-	.	8f\	Ki-	8b-\	Ki-	.	8B-/L	8b-\L	2dd\	.	2.r	.
.	.	16b-/	.	16ccc\	.	.	.	.	.	.	.	.	.	.	.	.	.	.	.	.	.	.
8B-\	.	16d/	.	16ddd\	.	8B-\	-ri-	.	8d\	-ry-	.	8f\	-ri-	8b-\	-ri-	.	8B-/J	8b-\J	.	.	.	.
.	.	16b-/JJ	.	16ccc\JJ	.	.	.	.	.	.	.	.	.	.	.	.	.	.	.	.	.	.
*	*	*rep	*	*	*	*	*	*	*	*	*	*	*	*	*	*	*	*	*	*	*	*
8B-\	.	16d/LL	.	16bb-\LL	.	4B-\	-e	.	4d\	-e	.	4f\	-e	4b-\	-e	.	4B-/	4b-\	.	.	.	.
.	.	16b-/	.	16ccc\	.	.	.	.	.	.	.	.	.	.	.	.	.	.	.	.	.	.
8B-\J	.	16d/	.	16ddd\	.	.	.	.	.	.	.	.	.	.	.	.	.	.	.	.	.	.
.	.	16b-/JJ	.	16ccc\JJ	.	.	.	.	.	.	.	.	.	.	.	.	.	.	.	.	.	.
*Xtremolo	*	*Xrep	*	*	*	*	*	*	*	*	*	*	*	*	*	*	*	*	*	*	*	*
8B-\L	-	16f/LL	.	8.bb-\L	.	8r	.	.	8r	.	.	8r	.	8r	.	.	4B-/	4b-\	4ff\	.	.	.
.	.	16b-/	.	.	.	.	.	.	.	.	.	.	.	.	.	.	.	.	.	.	.	.
8B-\J	7 5	16f/	.	.	.	8B-\	e-	.	8f\	e-	.	8f\	e-	8a-X\	e-	.	.	.	.	.	.	.
.	.	16b-/JJ	.	16aa-X\Jk	.	.	.	.	.	.	.	.	.	.	.	.	.	.	.	.	.	.
!	!	!	!	!LO:LB:g=original	!	!	!	!	!	!	!	!	!	!	!	!	!	!	!	!	!	!
=124	=124	=124	=124	=124	=124	=124	=124	=124	=124	=124	=124	=124	=124	=124	=124	=124	=124	=124	=124	=124	=124	=124
*tremolo	*	*	*	*	*	*	*	*	*	*	*	*	*	*	*	*	*	*	*	*	*	*
!	!	!	!	!LO:SIC:v:s=16aa-\LL	!	!	!	!	!	!	!	!	!	!	!	!	!	!	!	!	!	!
8B-\L	6 4	16g/LL	.	16aa\LL	.	2B-\	-lei-	.	2e-\	-lei-	.	2g\	-lei-	2g\	-lei-	.	4B-/	4b-\	2ee-\	.	2.r	.
.	.	16b-/	.	16gg\	.	.	.	.	.	.	.	.	.	.	.	.	.	.	.	.	.	.
8B-\	.	16g/	.	16ff\	.	.	.	.	.	.	.	.	.	.	.	.	.	.	.	.	.	.
.	.	16b-/JJ	.	16gg\JJ	.	.	.	.	.	.	.	.	.	.	.	.	.	.	.	.	.	.
*	*	*rep	*	*	*	*	*	*	*	*	*	*	*	*	*	*	*	*	*	*	*	*
!	!	!	!	!LO:SIC:v:s=16aa-\LL	!	!	!	!	!	!	!	!	!	!	!	!	!	!	!	!	!	!
8B-\	.	16g/LL	.	16aa\LL	.	.	.	.	.	.	.	.	.	.	.	.	4B-/	4b-\	.	.	.	.
.	.	16b-/	.	16gg\	.	.	.	.	.	.	.	.	.	.	.	.	.	.	.	.	.	.
8B-\J	.	16g/	.	16ff\	.	.	.	.	.	.	.	.	.	.	.	.	.	.	.	.	.	.
.	.	16b-/JJ	.	16gg\JJ	.	.	.	.	.	.	.	.	.	.	.	.	.	.	.	.	.	.
*Xtremolo	*	*Xrep	*	*	*	*	*	*	*	*	*	*	*	*	*	*	*	*	*	*	*	*
8B-\L	5	16e-/LL	.	16bb-\LL	.	4B-\	-son	.	4c\	-son	.	4f\	-son	4an\	-son	.	4r	4r	4cc\	.	.	.
*	*	*	*	*	*	*	*	*	*	*Xij	*	*	*Xij	*	*	*	*	*	*	*	*	*
.	.	16b-/	.	16aan\	.	.	.	.	.	.	.	.	.	.	.	.	.	.	.	.	.	.
8B-\J	7 2	16e-/	.	16gg\	.	.	.	.	.	.	.	.	.	.	.	.	.	.	.	.	.	.
.	.	16b-/JJ	.	16aa\JJ	.	.	.	.	.	.	.	.	.	.	.	.	.	.	.	.	.	.
!LO:LB:g=original	!	!LO:LB:g=original	!	!	!	!	!	!	!	!	!	!	!	!	!	!	!	!	!	!	!	!
=125	=125	=125	=125	=125	=125	=125	=125	=125	=125	=125	=125	=125	=125	=125	=125	=125	=125	=125	=125	=125	=125	=125
!LO:TX:a:t=P:problem=mixed beam	!	!LO:TX:a:t=P:problem=mixed beam	!	!	!	!	!	!	!	!	!	!	!	!	!	!	!	!	!	!	!	!
8BB-/L	.	16d/LL	.	8bb- 8dd\	.	4.B-\	Ki-	.	4.d\	Ki-	.	4.f\	Ki-	4.b-\	Ki-	.	4d/	4b-\	4dd\	.	2.r	.
.	.	16dd\	.	.	.	.	.	.	.	.	.	.	.	.	.	.	.	.	.	.	.	.
16B-\L	.	16cc\	.	4bb- 4dd\	.	.	.	.	.	.	.	.	.	.	.	.	.	.	.	.	.	.
16A\JJ	.	16dd\JJ	.	.	.	.	.	.	.	.	.	.	.	.	.	.	.	.	.	.	.	.
8B-\L	.	16ee-\LL	.	.	.	.	.	.	.	.	.	.	.	.	.	.	4b-\	4dd\	2dd\	.	.	.
.	.	16dd\	.	.	.	.	.	.	.	.	.	.	.	.	.	.	.	.	.	.	.	.
!	!	!	!	!	!	!LO:N:vis=16	!	!	!	!	!	!	!	!	!	!	!	!	!	!	!	!
8B-\	.	16cc\	.	4bb- 4dd\	.	8B-\	-ri-	.	8B-\	-ry-	.	8f\	-ry-	8dd\	-ri-	.	.	.	.	.	.	.
.	.	16dd\JJ	.	.	.	.	.	.	.	.	.	.	.	.	.	.	.	.	.	.	.	.
8G\	.	16ee-\LL	.	.	.	4G\	-e	.	4B-\	-e	.	4g\	-e	4dd\	-e	.	4b-\	4dd\	.	.	.	.
*	*	*	*	*	*	*	*	*	*	*	*	*	*	*	*Xij	*	*	*	*	*	*	*
.	.	16dd\	.	.	.	.	.	.	.	.	.	.	.	.	.	.	.	.	.	.	.	.
8G\J	.	16cc\	.	8bb- 8dd\	.	.	.	.	.	.	.	.	.	.	.	.	.	.	.	.	.	.
.	.	16dd\JJ	.	.	.	.	.	.	.	.	.	.	.	.	.	.	.	.	.	.	.	.
=126	=126	=126	=126	=126	=126	=126	=126	=126	=126	=126	=126	=126	=126	=126	=126	=126	=126	=126	=126	=126	=126	=126
*	*	*tremolo	*	*	*	*	*	*	*	*	*	*	*	*	*	*	*	*	*	*	*	*
.	.	.	.	8qqaa/	.	.	.	.	.	.	.	.	.	.	.	.	.	.	.	.	.	.
8E-\L	6 5	16b-\LL	.	8gg\L	.	4E-\	e-	.	8g\L	e-	.	4g\	e-	8ee-\L	e-	.	4cc\	4ee-\	4ee-\	.	2.r	.
.	.	16b-\	.	.	.	.	.	.	.	.	.	.	.	.	.	.	.	.	.	.	.	.
8E-\	.	16b-\	.	16ff\L	.	.	.	.	16f\L	.	.	.	.	16dd\L	.	.	.	.	.	.	.	.
.	.	16b-\	.	16ee-\JJ	.	.	.	.	16e-\JJ	.	.	.	.	16cc\JJ	.	.	.	.	.	.	.	.
!	!	!	!	!	!	!	!	!	!LO:LB:g=original	!	!	!	!	!	!	!	!	!	!	!	!	!
8F\	4	16b-\	.	4dd\	.	2F\	-lei-	.	4d\	-lei-	.	2f\	-lei-	4b-\	-lei-	.	4b-\	4dd\	4dd\	.	.	.
.	.	16b-\	.	.	.	.	.	.	.	.	.	.	.	.	.	.	.	.	.	.	.	.
8F\J	.	16b-\	.	.	.	.	.	.	.	.	.	.	.	.	.	.	.	.	.	.	.	.
.	.	16b-\JJ	.	.	.	.	.	.	.	.	.	.	.	.	.	.	.	.	.	.	.	.
8FF/L	5	16a/LL	.	4cc\	.	.	.	.	4c\	.	.	.	.	4a\	.	.	4f/	4cc\	4cc\	.	.	.
.	.	16a/	.	.	.	.	.	.	.	.	.	.	.	.	.	.	.	.	.	.	.	.
8FF/J	.	16a/	.	.	.	.	.	.	.	.	.	.	.	.	.	.	.	.	.	.	.	.
.	.	16a/JJ	.	.	.	.	.	.	.	.	.	.	.	.	.	.	.	.	.	.	.	.
*	*	*Xtremolo	*	*	*	*	*	*	*	*	*	*	*	*	*	*	*	*	*	*	*	*
=127	=127	=127	=127	=127	=127	=127	=127	=127	=127	=127	=127	=127	=127	=127	=127	=127	=127	=127	=127	=127	=127	=127
4BB-/	.	4b-/	.	4b-/	.	4BB-/	-son	.	4B-\	-son	.	4f\	-son	4b-\	-son	.	4d/	4b-\	4dd\	.	2.r	.
4r	.	4f/	.	4f/	.	4r	.	.	4r	.	.	4r	.	4r	.	.	4r	4r	4r	.	.	.
!	!	!	!	!	!	!	!	!	!	!	!	!	!	!	!	!	!	!	!LO:TX:a:i:t=pauzy	!	!	!
!	!	!	!	!	!	!	!	!	!	!	!	!	!	!	!	!	!	!	!LO:TX:b:i:t=trzynaście	!	!	!
4r	.	4f/	.	4f/	.	4r	.	.	4r	.	.	4r	.	4r	.	.	4r	4r	4r	.	.	.
!	!	!	!	!	!	!	!	!	!	!	!	!LO:LB:g=original	!	!	!	!	!	!	!	!	!	!
=128	=128	=128	=128	=128	=128	=128	=128	=128	=128	=128	=128	=128	=128	=128	=128	=128	=128	=128	=128	=128	=128	=128
!	!	!	!LO:DY:a	!	!	!	!	!	!	!	!	!	!	!	!	!	!	!	!LO:TX:a:t=Solo	!	!LO:TX:a:t=Solo	!
0.r	.	4c/	p	4f/	.	0.r	.	.	0.r	.	.	0.r	.	0.r	.	.	0.r	0.r	8.a\L	.	8.cc\L	.
.	.	.	.	.	.	.	.	.	.	.	.	.	.	.	.	.	.	.	16b-\Jk	.	16dd\Jk	.
.	.	4r	.	4r	.	.	.	.	.	.	.	.	.	.	.	.	.	.	8cc\L	.	8ee-\L	.
.	.	.	.	.	.	.	.	.	.	.	.	.	.	.	.	.	.	.	8cc\J	.	8ee-\	.
.	.	4c/	.	4f/	.	.	.	.	.	.	.	.	.	.	.	.	.	.	4cc\	.	8ee-\	.
.	.	.	.	.	.	.	.	.	.	.	.	.	.	.	.	.	.	.	.	.	8ff\J	.
=129	=129	=129	=129	=129	=129	=129	=129	=129	=129	=129	=129	=129	=129	=129	=129	=129	=129	=129	=129	=129	=129	=129
.	.	4d/	.	4f/	.	.	.	.	.	.	.	.	.	.	.	.	.	.	8cc\L	.	8ee-\L	.
.	.	.	.	.	.	.	.	.	.	.	.	.	.	.	.	.	.	.	8b-\	.	8dd\J	.
.	.	4r	.	4r	.	.	.	.	.	.	.	.	.	.	.	.	.	.	8ee-\	.	8gg\L	.
.	.	.	.	.	.	.	.	.	.	.	.	.	.	.	.	.	.	.	8dd\J	.	8ff\J	.
.	.	4r	.	4r	.	.	.	.	.	.	.	.	.	.	.	.	.	.	4dd\	.	8bb-\L	.
.	.	.	.	.	.	.	.	.	.	.	.	.	.	.	.	.	.	.	.	.	8gg\J	.
=130	=130	=130	=130	=130	=130	=130	=130	=130	=130	=130	=130	=130	=130	=130	=130	=130	=130	=130	=130	=130	=130	=130
.	.	4c/	.	4f/	.	.	.	.	.	.	.	.	.	.	.	.	.	.	8dd\L	.	8ff\L	.
.	.	.	.	.	.	.	.	.	.	.	.	.	.	.	.	.	.	.	8cc\	.	8ee-\J	.
.	.	4r	.	4r	.	.	.	.	.	.	.	.	.	.	.	.	.	.	8cc\	.	8ee-\L	.
.	.	.	.	.	.	.	.	.	.	.	.	.	.	.	.	.	.	.	8cc\J	.	8ee-\	.
.	.	4c/	.	4f/	.	.	.	.	.	.	.	.	.	.	.	.	.	.	4cc\	.	8ee-\	.
.	.	.	.	.	.	.	.	.	.	.	.	.	.	.	.	.	.	.	.	.	8ff\J	.
!	!	!	!	!	!	!	!	!	!	!	!	!	!	!	!	!	!	!	!LO:LB:g=original	!	!	!
=131	=131	=131	=131	=131	=131	=131	=131	=131	=131	=131	=131	=131	=131	=131	=131	=131	=131	=131	=131	=131	=131	=131
.	.	4d/	.	4f/	.	.	.	.	.	.	.	.	.	.	.	.	.	.	8cc\L	.	8ee-\L	.
.	.	.	.	.	.	.	.	.	.	.	.	.	.	.	.	.	.	.	8b-\	.	8dd\	.
.	.	4r	.	4r	.	.	.	.	.	.	.	.	.	.	.	.	.	.	8ee-\	.	8gg\	.
.	.	.	.	.	.	.	.	.	.	.	.	.	.	.	.	.	.	.	8dd\J	.	8ff\J	.
!	!	!	!	!LO:TX:b:t=V&colon;S&colon;	!	!	!	!	!	!	!	!	!	!	!	!	!	!	!	!	!	!
.	.	4r	.	4r	.	.	.	.	.	.	.	.	.	.	.	.	.	.	4dd\	.	4ff\	.
!	!	!	!	!LO:PB:g=original	!	!	!	!	!	!	!	!	!	!	!	!	!	!	!	!	!	!
=132	=132	=132	=132	=132	=132	=132	=132	=132	=132	=132	=132	=132	=132	=132	=132	=132	=132	=132	=132	=132	=132	=132
*	*	*tremolo	*	*	*	*	*	*	*	*	*	*	*	*	*	*	*	*	*	*	*	*
!LO:TX:a:t=P:problem=mixed beam	!	!	!	!	!LO:DY:a	!	!	!	!	!	!	!	!	!	!	!	!	!	!LO:TX:a:t=Tutti	!	!	!LO:DY:a:rj
8FF/L	7 5	16f/LL	.	8f\L	f	4A\	Chri-	.	2c\	Ki-	.	2f\	Ki-	2ee-\	Ki-	.	4f/	4cc\	2.cc\	.	2.ee-\	f
.	.	16cc/	.	.	.	.	.	.	.	.	.	.	.	.	.	.	.	.	.	.	.	.
8F\	.	16f/	.	16a\L	.	.	.	.	.	.	.	.	.	.	.	.	.	.	.	.	.	.
.	.	16cc/	.	16cc\JJ	.	.	.	.	.	.	.	.	.	.	.	.	.	.	.	.	.	.
8A\	.	16f/	.	8cc\L	.	4F\	-ste	.	.	.	.	.	.	.	.	.	4f/	4cc\	.	.	.	.
.	.	16cc/	.	.	.	.	.	.	.	.	.	.	.	.	.	.	.	.	.	.	.	.
8F\	.	16f/	.	8cc\	.	.	.	.	.	.	.	.	.	.	.	.	.	.	.	.	.	.
.	.	16cc/	.	.	.	.	.	.	.	.	.	.	.	.	.	.	.	.	.	.	.	.
8c\	.	16f/	.	8cc\	.	4A\	e-	.	4c\	-ry-	.	4f\	-ry-	4ee-\	-ry-	.	4f/	4cc\	.	.	.	.
.	.	16cc/	.	.	.	.	.	.	.	.	.	.	.	.	.	.	.	.	.	.	.	.
8F\J	.	16f/	.	8cc\J	.	.	.	.	.	.	.	.	.	.	.	.	.	.	.	.	.	.
.	.	16cc/JJ	.	.	.	.	.	.	.	.	.	.	.	.	.	.	.	.	.	.	.	.
!	!	!LO:LB:g=original	!	!	!	!LO:LB:g=original	!	!	!	!	!	!	!	!	!	!	!	!	!	!	!	!
=133	=133	=133	=133	=133	=133	=133	=133	=133	=133	=133	=133	=133	=133	=133	=133	=133	=133	=133	=133	=133	=133	=133
8B-\L	.	16f/LL	.	8ee-\L	.	2B-\	-lei-	.	2B-\	-e	.	2f\	-e	2dd\	-e	.	4b-\	4dd\	4b-\	.	4dd\	.
.	.	16dd/	.	.	.	.	.	.	.	.	.	.	.	.	.	.	.	.	.	.	.	.
8F\	.	16f/	.	8dd\J	.	.	.	.	.	.	.	.	.	.	.	.	.	.	.	.	.	.
.	.	16dd/	.	.	.	.	.	.	.	.	.	.	.	.	.	.	.	.	.	.	.	.
8B-\	.	16f/	.	8gg\L	.	.	.	.	.	.	.	.	.	.	.	.	4b-\	4dd\	4dd\	.	4ff\	.
.	.	16dd/	.	.	.	.	.	.	.	.	.	.	.	.	.	.	.	.	.	.	.	.
8F\	.	16f/	.	8ff\J	.	.	.	.	.	.	.	.	.	.	.	.	.	.	.	.	.	.
.	.	16dd/	.	.	.	.	.	.	.	.	.	.	.	.	.	.	.	.	.	.	.	.
8B-\	.	16f/	.	8bb-\L	.	4B-\	-son	.	4B-\	e-	.	4f\	e-	4dd\	e-	.	4r	4r	4r	.	4r	.
.	.	16dd/	.	.	.	.	.	.	.	.	.	.	.	.	.	.	.	.	.	.	.	.
8F\J	.	16f/	.	8ff\J	.	.	.	.	.	.	.	.	.	.	.	.	.	.	.	.	.	.
.	.	16dd/JJ	.	.	.	.	.	.	.	.	.	.	.	.	.	.	.	.	.	.	.	.
!	!	!	!	!	!	!	!	!	!	!	!	!	!	!LO:LB:g=original	!	!	!	!LO:LB:g=original	!	!	!	!
=134	=134	=134	=134	=134	=134	=134	=134	=134	=134	=134	=134	=134	=134	=134	=134	=134	=134	=134	=134	=134	=134	=134
!	!	!	!	!	!	!	!	!	!	!	!	!	!	!	!	!	!	!LO:TX:t=P:problem=brak dwóch taktów	!	!	!	!
8A\L	6 5	16f/LL	.	8f/L	.	4A\	Chri-	.	2.c\	-lei-	.	2.f\	-lei-	2.ee-\	-lei-	.	4f/	2.ryy	2.ee-\	.	2.ff\	.
.	.	16cc/	.	.	.	.	.	.	.	.	.	.	.	.	.	.	.	.	.	.	.	.
8F\	.	16f/	.	16a/L	.	.	.	.	.	.	.	.	.	.	.	.	.	.	.	.	.	.
.	.	16cc/	.	16cc/JJ	.	.	.	.	.	.	.	.	.	.	.	.	.	.	.	.	.	.
*	*	*	*	*tremolo	*	*	*	*	*	*	*	*	*	*	*	*	*	*	*	*	*	*
8A\	.	16f/	.	8ee-\L	.	4F\	-ste	.	.	.	.	.	.	.	.	.	4f/	.	.	.	.	.
.	.	16cc/	.	.	.	.	.	.	.	.	.	.	.	.	.	.	.	.	.	.	.	.
8F\	.	16f/	.	8ee-\	.	.	.	.	.	.	.	.	.	.	.	.	.	.	.	.	.	.
.	.	16cc/	.	.	.	.	.	.	.	.	.	.	.	.	.	.	.	.	.	.	.	.
8c\	.	16f/	.	8ee-\	.	4A\	e-	.	.	.	.	.	.	.	.	.	4r	.	.	.	.	.
.	.	16cc/	.	.	.	.	.	.	.	.	.	.	.	.	.	.	.	.	.	.	.	.
8F\J	.	16f/	.	8ee-\J	.	.	.	.	.	.	.	.	.	.	.	.	.	.	.	.	.	.
.	.	16cc/JJ	.	.	.	.	.	.	.	.	.	.	.	.	.	.	.	.	.	.	.	.
*	*	*	*	*Xtremolo	*	*	*	*	*	*	*	*	*	*	*	*	*	*	*	*	*	*
=135	=135	=135	=135	=135	=135	=135	=135	=135	=135	=135	=135	=135	=135	=135	=135	=135	=135	=135	=135	=135	=135	=135
8B-\L	.	16f/LL	.	8ee-\L	.	2B-\	-lei-	.	2B-\	-son	.	2f\	-son	2dd\	-son	.	4b-\	2.ryy	2dd\	.	2ff\	.
.	.	16dd/	.	.	.	.	.	.	.	.	.	.	.	.	.	.	.	.	.	.	.	.
8F\J	.	16f/	.	8dd\	.	.	.	.	.	.	.	.	.	.	.	.	.	.	.	.	.	.
.	.	16dd/	.	.	.	.	.	.	.	.	.	.	.	.	.	.	.	.	.	.	.	.
!LO:LB:g=original	!	!	!	!	!	!	!	!	!	!	!	!	!	!	!	!	!	!	!	!	!	!
8B-\L	.	16f/	.	8gg\	.	.	.	.	.	.	.	.	.	.	.	.	4b-\	.	.	.	.	.
.	.	16dd/	.	.	.	.	.	.	.	.	.	.	.	.	.	.	.	.	.	.	.	.
8F\	.	16f/	.	8ff\J	.	.	.	.	.	.	.	.	.	.	.	.	.	.	.	.	.	.
.	.	16dd/	.	.	.	.	.	.	.	.	.	.	.	.	.	.	.	.	.	.	.	.
8D\	6	16f/	.	8bb-\L	.	4D\	-son	.	4B-\	e-	.	4b-\	e-	4ff\	e-	.	4r	.	4dd\	.	4ff\	.
.	.	16dd/	.	.	.	.	.	.	.	.	.	.	.	.	.	.	.	.	.	.	.	.
8D\J	.	16f/	.	8ff\J	.	.	.	.	.	.	.	.	.	.	.	.	.	.	.	.	.	.
.	.	16dd/JJ	.	.	.	.	.	.	.	.	.	.	.	.	.	.	.	.	.	.	.	.
*	*	*Xtremolo	*	*	*	*	*	*	*	*	*	*	*	*	*	*	*	*	*	*	*	*
!	!	!	!	!	!	!	!	!	!	!	!	!	!	!	!	!	!LO:LB:g=original	!	!	!	!LO:LB:g=original	!
=136	=136	=136	=136	=136	=136	=136	=136	=136	=136	=136	=136	=136	=136	=136	=136	=136	=136	=136	=136	=136	=136	=136
*tremolo	*	*	*	*	*	*	*	*	*	*	*	*	*	*	*	*	*	*	*	*	*	*
8E-\L	5 3	16f/LL	.	16gg\LL	.	2.E-\	Ki-	.	4B-\	-lei-	.	2.b-\	-lei-	2.gg\	-lei-	.	8B-/L	8b-\L	2.ee-\	.	2.gg\	.
.	.	16dd/	.	16ff#X\	.	.	.	.	.	.	.	.	.	.	.	.	.	.	.	.	.	.
8E-\	.	16f/	.	16gg\	.	.	.	.	.	.	.	.	.	.	.	.	16B-/L	16b-\L	.	.	.	.
.	.	16dd/JJ	.	16ff#\JJ	.	.	.	.	.	.	.	.	.	.	.	.	16B-/JJ	16b-\JJ	.	.	.	.
*	*	*rep	*	*	*	*	*	*	*	*	*	*	*	*	*	*	*	*	*	*	*	*
8E-\	.	16f/LL	.	16gg\LL	.	.	.	.	2e-\	.	.	.	.	.	.	.	4B-/	4b-\	.	.	.	.
.	.	16dd/	.	16ff#\	.	.	.	.	.	.	.	.	.	.	.	.	.	.	.	.	.	.
8E-\	.	16f/	.	16gg\	.	.	.	.	.	.	.	.	.	.	.	.	.	.	.	.	.	.
.	.	16dd/JJ	.	16aa\JJ	.	.	.	.	.	.	.	.	.	.	.	.	.	.	.	.	.	.
*	*	*Xrep	*	*	*	*	*	*	*	*	*	*	*	*	*	*	*	*	*	*	*	*
8E-\	.	16b-\LL	.	16bb-\LL	.	.	.	.	.	.	.	.	.	.	.	.	4r	4r	.	.	.	.
.	.	16b-\	.	16gg\	.	.	.	.	.	.	.	.	.	.	.	.	.	.	.	.	.	.
8E-\J	.	16b-\	.	16ff#\	.	.	.	.	.	.	.	.	.	.	.	.	.	.	.	.	.	.
.	.	16b-\JJ	.	16ee-\JJ	.	.	.	.	.	.	.	.	.	.	.	.	.	.	.	.	.	.
=137	=137	=137	=137	=137	=137	=137	=137	=137	=137	=137	=137	=137	=137	=137	=137	=137	=137	=137	=137	=137	=137	=137
*	*	*tremolo	*	*	*	*	*	*	*	*	*	*	*	*	*	*	*	*	*	*	*	*
8F\L	6 4	16dd\LL	.	16dd\LL	.	2.F\	-ry-	.	4d\	-son	.	2.f\	-son	4dd\	.	.	4b-\	4dd\	4dd\	.	2bb-\	.
.	.	16dd\	.	16bb-\	.	.	.	.	.	.	.	.	.	.	.	.	.	.	.	.	.	.
8F\	.	16dd\	.	16dd\	.	.	.	.	.	.	.	.	.	.	.	.	.	.	.	.	.	.
.	.	16dd\JJ	.	16bb-\JJ	.	.	.	.	.	.	.	.	.	.	.	.	.	.	.	.	.	.
8F\	.	16cc\LL	.	16cc\LL	.	.	.	.	4B-\	.	.	.	.	2cc\	.	.	2f/	2cc\	2cc\	.	.	.
.	.	16cc\	.	16bb-\	.	.	.	.	.	.	.	.	.	.	.	.	.	.	.	.	.	.
8F\	.	16cc\	.	16cc\	.	.	.	.	.	.	.	.	.	.	.	.	.	.	.	.	.	.
.	.	16cc\	.	16bb-\JJ	.	.	.	.	.	.	.	.	.	.	.	.	.	.	.	.	.	.
!	!	!	!	!LO:LB:g=original	!	!	!	!	!	!	!	!	!	!	!	!	!	!	!	!	!	!
8F\	5	16cc\	.	16cc\LL	.	.	.	.	4A\	e-	.	.	.	.	.	.	.	.	.	.	4aa\	.
.	.	16cc\	.	16aa\	.	.	.	.	.	.	.	.	.	.	.	.	.	.	.	.	.	.
8F\J	.	16cc\	.	16cc\	.	.	.	.	.	.	.	.	.	.	.	.	.	.	.	.	.	.
.	.	16cc\JJ	.	16aa\JJ	.	.	.	.	.	.	.	.	.	.	.	.	.	.	.	.	.	.
*Xtremolo	*	*Xtremolo	*	*	*	*	*	*	*	*	*	*	*	*	*	*	*	*	*	*	*	*
=138	=138	=138	=138	=138	=138	=138	=138	=138	=138	=138	=138	=138	=138	=138	=138	=138	=138	=138	=138	=138	=138	=138
4BB-/	.	4dd 4f/	.	4bb- 4dd\	.	8BB-/	-e	.	8B-\	-lei-	.	8f\	e-	8dd\	-son	.	4b-\	4dd\	4dd\	.	4bb-\	.
.	.	.	.	.	.	8BB-/	e-	.	8B-\	-son	.	8f\	-lei-	8dd\	e-	.	.	.	.	.	.	.
!	!	!	!	!	!	!	!	!	!LO:LB:g=original	!	!	!	!	!	!	!	!	!	!	!	!	!
4B-\	.	4cc 4f/	.	4bb- 4dd\	.	4B-\	-lei-	.	4B-\	e-	.	2f\	.	4dd\	-le-	.	4b-\	4dd\	4dd\	.	4bb-\	.
4G\	.	4dd 4f/	.	4aa 4cc\	.	4F\	.	.	4A\	-lei-	.	.	.	4cc\	-i-	.	4f/	4cc\	4cc\	.	4aa\	.
=139	=139	=139	=139	=139	=139	=139	=139	=139	=139	=139	=139	=139	=139	=139	=139	=139	=139	=139	=139	=139	=139	=139
4BB-/	.	4dd 4f/	.	4bb- 4dd\	.	4BB-/	-son	.	4B-\	-son	.	4f\	-son	4dd\	-son	.	4b-\	4dd\	4dd\	.	4bb-\	.
4r	.	4r	.	4r	.	4r	.	.	4r	.	.	4r	.	4r	.	.	4r	4r	4r	.	4r	.
4r	.	4r	.	4r	.	4r	.	.	4r	.	.	4r	.	4r	.	.	4r	4r	4r	.	4r	.
==	==	==	==	==	==	==	==	==	==	==	==	==	==	==	==	==	==	==	==	==	==	==
*-	*-	*-	*-	*-	*-	*-	*-	*-	*-	*-	*-	*-	*-	*-	*-	*-	*-	*-	*-	*-	*-	*-
!!!system-decoration: [(g1)][(g2)][(g3)][(g4)]s11
!!!RDF**kern: | = vertical stroke
!!!RDF**dynam: p = "p."
!!!RDF**dynam: f = "for"
!!!ENC: Berenika Jozajtis
!!!END: 2021-11-22
!!!ENC: Marta Lawrence
!!!END: 2021-12-02
